; generated by Slic3r 1.33.8-prusa3d-win64 on 2017-03-23 at 17:44:17

; external perimeters extrusion width = 0.45mm
; perimeters extrusion width = 0.45mm
; infill extrusion width = 0.45mm
; solid infill extrusion width = 0.45mm
; top infill extrusion width = 0.40mm

M107
M115 U3.0.10 ; tell printer latest fw version
M83  ; extruder relative mode
M104 S215 ; set extruder temp
M140 S55 ; set bed temp
M190 S55 ; wait for bed temp
M109 S215 ; wait for extruder temp
G28 W ; home all without mesh bed level
G80 ; mesh bed leveling
G1 Y-3.0 F1000.0 ; go outside pritn area
G1 X60.0 E9.0  F1000.0 ; intro line
G1 X100.0 E12.5  F1000.0 ; intro line
G21 ; set units to millimeters
G90 ; use absolute coordinates
M83 ; use relative distances for extrusion
G1 E-0.80000 F2100.00000
G1 Z0.200 F7200.000
G1 X102.003 Y99.803 F7200.000
G1 E0.80000 F2100.00000
M204 S1000
G1 F2100
G1 X102.083 Y99.314 E0.01553
G1 X102.249 Y98.848 E0.01553
G1 X102.495 Y98.418 E0.01553
G1 X102.815 Y98.040 E0.01553
G1 X103.198 Y97.725 E0.01553
G1 X103.631 Y97.484 E0.01553
G1 X104.099 Y97.324 E0.01553
G1 X104.594 Y97.250 E0.01566
G1 X145.254 Y97.246 E1.27488
G1 X145.569 Y97.264 E0.00989
G1 X145.880 Y97.319 E0.00989
G1 X146.271 Y97.442 E0.01284
G1 X146.635 Y97.619 E0.01272
G1 X146.973 Y97.851 E0.01284
G1 X147.270 Y98.128 E0.01272
G1 X147.523 Y98.444 E0.01272
G1 X147.728 Y98.799 E0.01284
G1 X147.879 Y99.180 E0.01284
G1 X147.972 Y99.579 E0.01284
G1 X148.004 Y99.991 E0.01297
G1 X148.004 Y110.008 E0.31408
G1 X147.986 Y110.319 E0.00976
G1 X147.931 Y110.630 E0.00989
G1 X147.796 Y111.051 E0.01387
G1 X147.593 Y111.448 E0.01400
G1 X147.330 Y111.805 E0.01387
G1 X147.012 Y112.117 E0.01400
G1 X146.646 Y112.374 E0.01400
G1 X146.248 Y112.567 E0.01387
G1 X145.821 Y112.694 E0.01400
G1 X145.378 Y112.751 E0.01400
G1 X104.746 Y112.754 E1.27398
G1 X104.431 Y112.736 E0.00989
G1 X104.120 Y112.681 E0.00989
G1 X103.737 Y112.561 E0.01259
G1 X103.372 Y112.385 E0.01272
G1 X103.037 Y112.156 E0.01272
G1 X102.739 Y111.881 E0.01272
G1 X102.486 Y111.569 E0.01259
G1 X102.281 Y111.220 E0.01272
G1 X102.128 Y110.844 E0.01272
G1 X102.033 Y110.450 E0.01272
G1 X101.996 Y110.009 E0.01387
G1 X101.999 Y99.863 E0.31811
G1 X102.381 Y99.802 F7200.000
G1 F2100
G1 X102.455 Y99.382 E0.01336
G1 X102.602 Y98.983 E0.01336
G1 X102.818 Y98.615 E0.01336
G1 X103.099 Y98.290 E0.01348
G1 X103.430 Y98.023 E0.01336
G1 X103.805 Y97.819 E0.01336
G1 X104.209 Y97.685 E0.01336
G1 X104.635 Y97.626 E0.01348
G1 X145.254 Y97.623 E1.27358
G1 X145.527 Y97.639 E0.00859
G1 X145.801 Y97.688 E0.00871
G1 X146.138 Y97.795 E0.01110
G1 X146.459 Y97.953 E0.01122
G1 X146.750 Y98.156 E0.01110
G1 X147.009 Y98.401 E0.01122
G1 X147.227 Y98.680 E0.01110
G1 X147.403 Y98.992 E0.01122
G1 X147.530 Y99.326 E0.01122
G1 X147.605 Y99.676 E0.01122
G1 X147.627 Y99.995 E0.01002
G1 X147.627 Y110.008 E0.31394
G1 X147.611 Y110.277 E0.00847
G1 X147.563 Y110.547 E0.00859
G1 X147.445 Y110.913 E0.01205
G1 X147.269 Y111.255 E0.01205
G1 X147.040 Y111.564 E0.01205
G1 X146.762 Y111.834 E0.01217
G1 X146.447 Y112.054 E0.01205
G1 X146.100 Y112.220 E0.01205
G1 X145.731 Y112.328 E0.01205
G1 X145.346 Y112.375 E0.01217
G1 X104.746 Y112.377 E1.27299
G1 X104.473 Y112.361 E0.00859
G1 X104.203 Y112.313 E0.00859
G1 X103.865 Y112.206 E0.01110
G1 X103.548 Y112.051 E0.01110
G1 X103.256 Y111.849 E0.01110
G1 X102.998 Y111.607 E0.01110
G1 X102.779 Y111.329 E0.01110
G1 X102.604 Y111.022 E0.01110
G1 X102.476 Y110.692 E0.01110
G1 X102.398 Y110.347 E0.01110
G1 X102.373 Y110.005 E0.01074
G1 X102.377 Y99.862 E0.31803
G1 F5760
G1 X102.455 Y99.382 E-0.16824
G1 F5760
G1 X102.602 Y98.983 E-0.14756
G1 F5760
G1 X102.818 Y98.615 E-0.14756
G1 F5760
G1 X103.099 Y98.290 E-0.14887
G1 F5760
G1 X103.430 Y98.023 E-0.14756
G1 F5760
G1 X103.431 Y98.023 E-0.00020
G1 E-0.04000 F2100.00000
G1 X136.706 Y104.665 F7200.000
G1 E0.80000 F2100.00000
G1 F840
G1 X136.771 Y104.336 E0.01053
G1 X136.879 Y104.018 E0.01053
G1 X137.028 Y103.717 E0.01052
G1 X137.214 Y103.438 E0.01052
G1 X137.435 Y103.185 E0.01053
G1 X137.688 Y102.964 E0.01053
G1 X137.967 Y102.778 E0.01052
G1 X138.268 Y102.629 E0.01053
G1 X138.586 Y102.521 E0.01052
G1 X138.915 Y102.456 E0.01052
G1 X139.241 Y102.434 E0.01025
G1 X139.583 Y102.455 E0.01074
G1 X139.914 Y102.521 E0.01059
G1 X140.232 Y102.629 E0.01053
G1 X140.533 Y102.778 E0.01053
G1 X140.812 Y102.964 E0.01052
G1 X141.065 Y103.185 E0.01053
G1 X141.286 Y103.438 E0.01053
G1 X141.472 Y103.717 E0.01052
G1 X141.621 Y104.018 E0.01052
G1 X141.729 Y104.336 E0.01053
G1 X141.794 Y104.665 E0.01053
G1 X141.816 Y105.000 E0.01052
G1 X141.794 Y105.335 E0.01052
G1 X141.729 Y105.664 E0.01053
G1 X141.621 Y105.982 E0.01053
G1 X141.472 Y106.283 E0.01052
G1 X141.286 Y106.562 E0.01052
G1 X141.065 Y106.815 E0.01053
G1 X140.812 Y107.036 E0.01053
G1 X140.533 Y107.222 E0.01052
G1 X140.232 Y107.371 E0.01053
G1 X139.914 Y107.479 E0.01053
G1 X139.585 Y107.544 E0.01053
G1 X139.250 Y107.566 E0.01052
G1 X138.915 Y107.544 E0.01053
G1 X138.586 Y107.479 E0.01052
G1 X138.268 Y107.371 E0.01052
G1 X137.967 Y107.222 E0.01053
G1 X137.688 Y107.036 E0.01052
G1 X137.435 Y106.815 E0.01053
G1 X137.214 Y106.562 E0.01053
G1 X137.028 Y106.283 E0.01052
G1 X136.879 Y105.982 E0.01052
G1 X136.771 Y105.664 E0.01053
G1 X136.706 Y105.335 E0.01053
G1 X136.684 Y105.000 E0.01052
G1 X136.702 Y104.725 E0.00864
G1 X137.080 Y104.714 F7200.000
G1 F840
G1 X137.136 Y104.434 E0.00898
G1 X137.228 Y104.162 E0.00898
G1 X137.355 Y103.906 E0.00897
G1 X137.514 Y103.668 E0.00897
G1 X137.703 Y103.453 E0.00898
G1 X137.918 Y103.264 E0.00898
G1 X138.156 Y103.105 E0.00897
G1 X138.413 Y102.978 E0.00898
G1 X138.684 Y102.886 E0.00897
G1 X138.964 Y102.830 E0.00897
G1 X139.242 Y102.812 E0.00872
G1 X139.534 Y102.830 E0.00919
G1 X139.816 Y102.886 E0.00901
G1 X140.087 Y102.978 E0.00898
G1 X140.344 Y103.105 E0.00898
G1 X140.582 Y103.264 E0.00897
G1 X140.797 Y103.453 E0.00898
G1 X140.986 Y103.668 E0.00898
G1 X141.145 Y103.906 E0.00897
G1 X141.272 Y104.162 E0.00897
G1 X141.364 Y104.434 E0.00898
G1 X141.420 Y104.714 E0.00898
G1 X141.438 Y105.000 E0.00897
G1 X141.420 Y105.286 E0.00897
G1 X141.364 Y105.566 E0.00898
G1 X141.272 Y105.838 E0.00898
G1 X141.145 Y106.094 E0.00897
G1 X140.986 Y106.332 E0.00897
G1 X140.797 Y106.547 E0.00898
G1 X140.582 Y106.736 E0.00898
G1 X140.344 Y106.895 E0.00897
G1 X140.087 Y107.022 E0.00898
G1 X139.816 Y107.114 E0.00898
G1 X139.536 Y107.170 E0.00898
G1 X139.250 Y107.188 E0.00897
G1 X138.964 Y107.170 E0.00898
G1 X138.684 Y107.114 E0.00897
G1 X138.413 Y107.022 E0.00897
G1 X138.156 Y106.895 E0.00898
G1 X137.918 Y106.736 E0.00897
G1 X137.703 Y106.547 E0.00898
G1 X137.514 Y106.332 E0.00898
G1 X137.355 Y106.094 E0.00897
G1 X137.228 Y105.838 E0.00897
G1 X137.136 Y105.566 E0.00898
G1 X137.080 Y105.286 E0.00898
G1 X137.062 Y105.000 E0.00897
G1 X137.076 Y104.774 E0.00709
G1 X137.455 Y104.764 F7200.000
G1 F840
G1 X137.501 Y104.531 E0.00743
G1 X137.577 Y104.307 E0.00743
G1 X137.682 Y104.095 E0.00742
G1 X137.814 Y103.898 E0.00742
G1 X137.970 Y103.720 E0.00743
G1 X138.148 Y103.564 E0.00743
G1 X138.345 Y103.432 E0.00742
G1 X138.557 Y103.327 E0.00743
G1 X138.781 Y103.251 E0.00743
G1 X139.014 Y103.205 E0.00742
G1 X139.243 Y103.190 E0.00719
G1 X139.486 Y103.205 E0.00764
G1 X139.719 Y103.251 E0.00744
G1 X139.943 Y103.327 E0.00743
G1 X140.155 Y103.432 E0.00743
G1 X140.352 Y103.564 E0.00742
G1 X140.530 Y103.720 E0.00743
G1 X140.686 Y103.898 E0.00743
G1 X140.818 Y104.095 E0.00742
G1 X140.923 Y104.307 E0.00742
G1 X140.999 Y104.531 E0.00743
G1 X141.045 Y104.764 E0.00743
G1 X141.060 Y105.000 E0.00742
G1 X141.045 Y105.236 E0.00743
G1 X140.999 Y105.469 E0.00743
G1 X140.923 Y105.693 E0.00743
G1 X140.818 Y105.905 E0.00742
G1 X140.686 Y106.102 E0.00742
G1 X140.530 Y106.280 E0.00743
G1 X140.352 Y106.436 E0.00743
G1 X140.155 Y106.568 E0.00742
G1 X139.943 Y106.673 E0.00743
G1 X139.719 Y106.749 E0.00743
G1 X139.486 Y106.795 E0.00743
G1 X139.250 Y106.810 E0.00742
G1 X139.014 Y106.795 E0.00743
G1 X138.781 Y106.749 E0.00742
G1 X138.557 Y106.673 E0.00743
G1 X138.345 Y106.568 E0.00743
G1 X138.148 Y106.436 E0.00742
G1 X137.970 Y106.280 E0.00743
G1 X137.814 Y106.102 E0.00743
G1 X137.682 Y105.905 E0.00742
G1 X137.577 Y105.693 E0.00742
G1 X137.501 Y105.469 E0.00743
G1 X137.455 Y105.236 E0.00743
G1 X137.440 Y105.000 E0.00743
G1 X137.451 Y104.824 E0.00554
G1 X137.267 Y104.620 F7200.000
G1 F5760
G1 X137.501 Y104.531 E-0.10266
G1 F5760
G1 X137.577 Y104.307 E-0.08204
G1 F5760
G1 X137.682 Y104.095 E-0.08201
G1 F5760
G1 X137.814 Y103.898 E-0.08200
G1 F5760
G1 X137.970 Y103.720 E-0.08204
G1 F5760
G1 X138.148 Y103.564 E-0.08203
G1 F5760
G1 X138.345 Y103.432 E-0.08201
G1 F5760
G1 X138.557 Y103.327 E-0.08202
G1 F5760
G1 X138.781 Y103.251 E-0.08203
G1 F5760
G1 X138.785 Y103.251 E-0.00115
G1 E-0.04000 F2100.00000
G1 X113.316 Y104.998 F7200.000
G1 E0.80000 F2100.00000
G1 F840
G1 X113.294 Y105.335 E0.01059
G1 X113.229 Y105.664 E0.01052
G1 X113.121 Y105.982 E0.01053
G1 X112.972 Y106.283 E0.01052
G1 X112.786 Y106.562 E0.01053
G1 X112.565 Y106.815 E0.01052
G1 X112.312 Y107.036 E0.01052
G1 X112.033 Y107.222 E0.01053
G1 X111.732 Y107.371 E0.01052
G1 X111.414 Y107.479 E0.01052
G1 X111.085 Y107.544 E0.01052
G1 X110.750 Y107.566 E0.01052
G1 X110.415 Y107.544 E0.01053
G1 X110.086 Y107.479 E0.01052
G1 X109.768 Y107.371 E0.01052
G1 X109.467 Y107.222 E0.01052
G1 X109.188 Y107.036 E0.01053
G1 X108.935 Y106.815 E0.01053
G1 X108.714 Y106.562 E0.01053
G1 X108.528 Y106.283 E0.01053
G1 X108.379 Y105.982 E0.01053
G1 X108.271 Y105.664 E0.01053
G1 X108.206 Y105.335 E0.01052
G1 X108.184 Y105.000 E0.01053
G1 X108.206 Y104.665 E0.01053
G1 X108.269 Y104.345 E0.01024
G1 X108.378 Y104.020 E0.01074
G1 X108.528 Y103.717 E0.01059
G1 X108.714 Y103.438 E0.01053
G1 X108.935 Y103.185 E0.01053
G1 X109.188 Y102.964 E0.01053
G1 X109.467 Y102.778 E0.01053
G1 X109.768 Y102.629 E0.01052
G1 X110.086 Y102.521 E0.01052
G1 X110.415 Y102.456 E0.01052
G1 X110.741 Y102.434 E0.01024
G1 X111.083 Y102.455 E0.01074
G1 X111.414 Y102.521 E0.01059
G1 X111.732 Y102.629 E0.01052
G1 X112.033 Y102.778 E0.01052
G1 X112.312 Y102.964 E0.01053
G1 X112.565 Y103.185 E0.01052
G1 X112.786 Y103.438 E0.01052
G1 X112.972 Y103.717 E0.01053
G1 X113.121 Y104.018 E0.01052
G1 X113.229 Y104.336 E0.01053
G1 X113.293 Y104.656 E0.01024
G1 X113.312 Y104.938 E0.00886
G1 X112.938 Y104.999 F7200.000
G1 F840
G1 X112.920 Y105.286 E0.00901
G1 X112.864 Y105.566 E0.00897
G1 X112.772 Y105.837 E0.00898
G1 X112.645 Y106.094 E0.00898
G1 X112.486 Y106.332 E0.00898
G1 X112.297 Y106.547 E0.00898
G1 X112.082 Y106.736 E0.00898
G1 X111.844 Y106.895 E0.00898
G1 X111.587 Y107.022 E0.00898
G1 X111.316 Y107.114 E0.00898
G1 X111.036 Y107.170 E0.00898
G1 X110.750 Y107.188 E0.00898
G1 X110.464 Y107.170 E0.00898
G1 X110.184 Y107.114 E0.00897
G1 X109.913 Y107.022 E0.00898
G1 X109.656 Y106.895 E0.00898
G1 X109.418 Y106.736 E0.00898
G1 X109.203 Y106.547 E0.00898
G1 X109.014 Y106.332 E0.00898
G1 X108.855 Y106.094 E0.00898
G1 X108.728 Y105.837 E0.00898
G1 X108.636 Y105.566 E0.00898
G1 X108.580 Y105.286 E0.00897
G1 X108.562 Y105.000 E0.00898
G1 X108.580 Y104.714 E0.00898
G1 X108.635 Y104.442 E0.00872
G1 X108.728 Y104.164 E0.00919
G1 X108.855 Y103.906 E0.00901
G1 X109.014 Y103.668 E0.00898
G1 X109.203 Y103.453 E0.00898
G1 X109.418 Y103.264 E0.00898
G1 X109.656 Y103.105 E0.00898
G1 X109.913 Y102.978 E0.00898
G1 X110.184 Y102.886 E0.00898
G1 X110.464 Y102.830 E0.00897
G1 X110.742 Y102.812 E0.00872
G1 X111.034 Y102.830 E0.00919
G1 X111.316 Y102.886 E0.00901
G1 X111.587 Y102.978 E0.00898
G1 X111.844 Y103.105 E0.00898
G1 X112.082 Y103.264 E0.00898
G1 X112.297 Y103.453 E0.00898
G1 X112.486 Y103.668 E0.00898
G1 X112.645 Y103.906 E0.00898
G1 X112.772 Y104.163 E0.00898
G1 X112.864 Y104.434 E0.00898
G1 X112.918 Y104.706 E0.00872
G1 X112.934 Y104.939 E0.00731
G1 X112.560 Y105.000 F7200.000
G1 F840
G1 X112.545 Y105.236 E0.00744
G1 X112.499 Y105.469 E0.00743
G1 X112.423 Y105.693 E0.00743
G1 X112.318 Y105.905 E0.00743
G1 X112.186 Y106.102 E0.00743
G1 X112.030 Y106.280 E0.00743
G1 X111.852 Y106.436 E0.00743
G1 X111.655 Y106.568 E0.00743
G1 X111.443 Y106.673 E0.00743
G1 X111.219 Y106.749 E0.00743
G1 X110.986 Y106.795 E0.00743
G1 X110.750 Y106.810 E0.00743
G1 X110.514 Y106.795 E0.00743
G1 X110.281 Y106.749 E0.00743
G1 X110.057 Y106.673 E0.00743
G1 X109.845 Y106.568 E0.00743
G1 X109.648 Y106.436 E0.00743
G1 X109.470 Y106.280 E0.00743
G1 X109.314 Y106.102 E0.00743
G1 X109.182 Y105.905 E0.00743
G1 X109.077 Y105.693 E0.00743
G1 X109.001 Y105.469 E0.00743
G1 X108.955 Y105.236 E0.00743
G1 X108.940 Y105.000 E0.00743
G1 X108.955 Y104.764 E0.00743
G1 X109.000 Y104.539 E0.00719
G1 X109.077 Y104.308 E0.00764
G1 X109.182 Y104.095 E0.00744
G1 X109.314 Y103.898 E0.00743
G1 X109.470 Y103.720 E0.00743
G1 X109.648 Y103.564 E0.00743
G1 X109.845 Y103.432 E0.00743
G1 X110.057 Y103.327 E0.00743
G1 X110.281 Y103.251 E0.00743
G1 X110.514 Y103.205 E0.00743
G1 X110.743 Y103.190 E0.00719
G1 X110.986 Y103.205 E0.00764
G1 X111.219 Y103.251 E0.00744
G1 X111.443 Y103.327 E0.00743
G1 X111.655 Y103.432 E0.00743
G1 X111.852 Y103.564 E0.00743
G1 X112.030 Y103.720 E0.00743
G1 X112.186 Y103.898 E0.00743
G1 X112.318 Y104.095 E0.00743
G1 X112.423 Y104.307 E0.00743
G1 X112.499 Y104.531 E0.00743
G1 X112.544 Y104.756 E0.00719
G1 X112.556 Y104.940 E0.00576
G1 X112.766 Y105.118 F7200.000
G1 F5760
G1 X112.545 Y105.236 E-0.10281
G1 F5760
G1 X112.499 Y105.469 E-0.08202
G1 F5760
G1 X112.423 Y105.693 E-0.08202
G1 F5760
G1 X112.318 Y105.905 E-0.08202
G1 F5760
G1 X112.186 Y106.102 E-0.08202
G1 F5760
G1 X112.030 Y106.280 E-0.08202
G1 F5760
G1 X111.852 Y106.436 E-0.08202
G1 F5760
G1 X111.655 Y106.568 E-0.08202
G1 F5760
G1 X111.443 Y106.673 E-0.08202
G1 F5760
G1 X111.440 Y106.674 E-0.00101
G1 E-0.04000 F2100.00000
G1 X105.714 Y100.964 F7200.000
G1 E0.80000 F2100.00000
G1 F1680
G1 X144.286 Y100.964 E1.20939
G1 X144.286 Y109.036 E0.25309
G1 X105.714 Y109.036 E1.20939
G1 X105.714 Y101.024 E0.25120
G1 X105.337 Y100.587 F7200.000
G1 F1680
G1 X144.663 Y100.587 E1.23303
G1 X144.663 Y109.413 E0.27673
G1 X105.337 Y109.413 E1.23303
G1 X105.337 Y100.647 E0.27485
G1 X104.960 Y100.210 F7200.000
G1 F1260
G1 X145.040 Y100.210 E1.25668
G1 X145.040 Y109.790 E0.30038
G1 X104.960 Y109.790 E1.25668
G1 X104.960 Y100.270 E0.29850
G1 X105.359 Y100.241 F7200.000
G1 F5760
G1 X107.154 Y100.267 E-0.76000
G1 E-0.04000 F2100.00000
G1 X110.587 Y101.077 F7200.000
G1 E0.80000 F2100.00000
G1 F1680
G1 X111.912 Y102.402 E0.05928
G1 X111.488 Y102.247 E0.01428
G1 X111.152 Y102.181 E0.01082
G1 X110.218 Y101.247 E0.04177
G1 X109.680 Y101.247 E0.01702
G1 X110.594 Y102.161 E0.04087
G1 X110.378 Y102.175 E0.00684
G1 X110.121 Y102.226 E0.00828
G1 X109.142 Y101.247 E0.04379
G1 X108.604 Y101.247 E0.01702
G1 X109.708 Y102.351 E0.04938
G1 X109.343 Y102.523 E0.01278
G1 X108.066 Y101.247 E0.05710
G1 X107.528 Y101.247 E0.01702
G1 X109.018 Y102.737 E0.06666
G1 X108.732 Y102.988 E0.01206
G1 X106.990 Y101.247 E0.07791
G1 X106.452 Y101.247 E0.01702
G1 X108.482 Y103.276 E0.09078
G1 X108.269 Y103.602 E0.01229
G1 X105.997 Y101.329 E0.10164
G1 X105.997 Y101.867 E0.01702
G1 X108.097 Y103.968 E0.09396
G1 X107.974 Y104.382 E0.01368
G1 X105.997 Y102.405 E0.08843
G1 X105.997 Y102.943 E0.01702
G1 X107.910 Y104.856 E0.08557
G1 X107.900 Y105.000 E0.00456
G1 X107.934 Y105.418 E0.01328
G1 X105.997 Y103.481 E0.08665
G1 X105.997 Y104.019 E0.01702
G1 X108.165 Y106.188 E0.09699
G1 F5760
G1 X106.614 Y104.636 E-0.76000
G1 E-0.04000 F2100.00000
G1 X109.562 Y107.585 F7200.000
G1 E0.80000 F2100.00000
G1 F1680
G1 X110.731 Y108.753 E0.05226
G1 X111.269 Y108.753 E0.01702
G1 X110.332 Y107.816 E0.04192
G1 X110.750 Y107.850 E0.01328
G1 X110.894 Y107.840 E0.00456
G1 X111.807 Y108.753 E0.04084
G1 X112.345 Y108.753 E0.01702
G1 X111.368 Y107.776 E0.04370
G1 X111.782 Y107.653 E0.01367
G1 X112.883 Y108.753 E0.04923
G1 X113.421 Y108.753 E0.01702
G1 X112.148 Y107.481 E0.05691
G1 X112.474 Y107.268 E0.01229
G1 X113.959 Y108.753 E0.06643
G1 X114.497 Y108.753 E0.01702
G1 X112.761 Y107.018 E0.07762
G1 X113.013 Y106.731 E0.01206
G1 X115.035 Y108.753 E0.09044
G1 X115.573 Y108.753 E0.01702
G1 X113.227 Y106.407 E0.10494
G1 X113.399 Y106.042 E0.01278
