; generated by Slic3r 1.33.8-prusa3d-win64 on 2017-03-23 at 17:49:22

; external perimeters extrusion width = 0.45mm
; perimeters extrusion width = 0.45mm
; infill extrusion width = 0.45mm
; solid infill extrusion width = 0.45mm
; top infill extrusion width = 0.40mm

M107
M115 U3.0.10 ; tell printer latest fw version
M83  ; extruder relative mode
M104 S215 ; set extruder temp
M140 S55 ; set bed temp
M190 S55 ; wait for bed temp
M109 S215 ; wait for extruder temp
G28 W ; home all without mesh bed level
G80 ; mesh bed leveling
G1 Y-3.0 F1000.0 ; go outside pritn area
G1 X60.0 E9.0  F1000.0 ; intro line
G1 X100.0 E12.5  F1000.0 ; intro line
G21 ; set units to millimeters
G90 ; use absolute coordinates
M83 ; use relative distances for extrusion
G1 E-0.80000 F2100.00000
G1 Z0.200 F7200.000
G1 X68.372 Y91.105 F7200.000
G1 E0.80000 F2100.00000
M204 S1000
G1 F2100
G1 X69.185 Y90.386 E0.03404
G1 X109.191 Y55.858 E1.65693
G1 X109.409 Y55.692 E0.00859
G1 X110.379 Y55.058 E0.03631
G1 X111.419 Y54.549 E0.03631
G1 X112.574 Y54.158 E0.03822
G1 X113.765 Y53.920 E0.03810
G1 X114.917 Y53.840 E0.03619
G1 X135.030 Y53.839 E0.63065
G1 X136.217 Y53.918 E0.03729
G1 X137.339 Y54.136 E0.03583
G1 X138.561 Y54.541 E0.04036
G1 X139.551 Y55.022 E0.03452
G1 X139.812 Y55.172 E0.00943
G1 X140.792 Y55.844 E0.03726
G1 X180.820 Y90.391 E1.65785
G1 X181.645 Y91.122 E0.03455
G1 X182.465 Y92.064 E0.03917
G1 X183.134 Y93.074 E0.03798
G1 X183.611 Y94.032 E0.03357
G1 X183.714 Y94.282 E0.00847
G1 X184.024 Y95.199 E0.03035
G1 X184.092 Y95.461 E0.00847
G1 X184.297 Y96.515 E0.03368
G1 X184.372 Y97.587 E0.03369
G1 X184.377 Y115.034 E0.54705
G1 X184.298 Y116.217 E0.03717
G1 X184.079 Y117.339 E0.03584
G1 X183.669 Y118.575 E0.04083
G1 X183.128 Y119.676 E0.03846
G1 X163.113 Y154.224 E1.25189
G1 X162.504 Y155.142 E0.03455
G1 X162.284 Y155.414 E0.01098
G1 X162.102 Y155.588 E0.00788
G1 X161.900 Y155.743 E0.00800
G1 X161.682 Y155.876 E0.00800
G1 X161.451 Y155.985 E0.00800
G1 X161.014 Y156.116 E0.01431
G1 X160.556 Y156.161 E0.01443
G1 X89.446 Y156.161 E2.22959
G1 X89.180 Y156.146 E0.00836
G1 X88.921 Y156.102 E0.00824
G1 X88.626 Y156.015 E0.00967
G1 X88.341 Y155.888 E0.00979
G1 X88.077 Y155.727 E0.00967
G1 X87.837 Y155.534 E0.00967
G1 X87.524 Y155.182 E0.01478
G1 X86.894 Y154.237 E0.03560
G1 X66.873 Y119.678 E1.25226
G1 X66.341 Y118.598 E0.03775
G1 X65.973 Y117.532 E0.03535
G1 X65.911 Y117.293 E0.00776
G1 X65.706 Y116.246 E0.03345
G1 X65.623 Y115.034 E0.03810
G1 X65.623 Y97.731 E0.54251
G1 X65.692 Y96.613 E0.03514
G1 X65.943 Y95.307 E0.04167
G1 X66.289 Y94.274 E0.03416
G1 X66.391 Y94.028 E0.00836
G1 X66.877 Y93.053 E0.03416
G1 X67.474 Y92.150 E0.03392
G1 X67.638 Y91.935 E0.00847
G1 X68.330 Y91.148 E0.03288
G1 F5760
G1 X69.185 Y90.386 E-0.39671
G1 F5760
G1 X69.980 Y89.700 E-0.36329
G1 E-0.04000 F2100.00000
G1 X149.695 Y152.378 F7200.000
G1 E0.80000 F2100.00000
G1 F1680
G1 X149.426 Y151.832 E0.01910
G1 X149.172 Y151.084 E0.02474
G1 X149.018 Y150.310 E0.02475
G1 X148.966 Y149.523 E0.02475
G1 X149.018 Y148.735 E0.02475
G1 X149.172 Y147.961 E0.02475
G1 X149.426 Y147.214 E0.02475
G1 X149.775 Y146.506 E0.02475
G1 X150.213 Y145.850 E0.02475
G1 X150.734 Y145.256 E0.02475
G1 X151.327 Y144.736 E0.02475
G1 X151.983 Y144.297 E0.02475
G1 X152.691 Y143.948 E0.02475
G1 X153.438 Y143.695 E0.02475
G1 X154.210 Y143.541 E0.02465
G1 X155.043 Y143.492 E0.02617
G1 X155.788 Y143.541 E0.02341
G1 X156.562 Y143.695 E0.02475
G1 X157.309 Y143.948 E0.02475
G1 X158.017 Y144.297 E0.02475
G1 X158.673 Y144.736 E0.02475
G1 X159.267 Y145.256 E0.02475
G1 X159.787 Y145.850 E0.02475
G1 X160.225 Y146.506 E0.02475
G1 X160.574 Y147.214 E0.02475
G1 X160.828 Y147.961 E0.02475
G1 X160.982 Y148.735 E0.02475
G1 X161.034 Y149.523 E0.02475
G1 X160.982 Y150.310 E0.02475
G1 X160.828 Y151.084 E0.02475
G1 X160.574 Y151.832 E0.02475
G1 X160.305 Y152.378 E0.01910
G1 X159.555 Y151.802 E0.02965
G1 X159.372 Y150.974 E0.02659
G1 X159.459 Y150.717 E0.00851
G1 X159.577 Y150.125 E0.01893
G1 X159.616 Y149.528 E0.01877
G1 X159.585 Y148.962 E0.01779
G1 X159.459 Y148.328 E0.02025
G1 X159.265 Y147.756 E0.01893
G1 X158.998 Y147.215 E0.01893
G1 X158.662 Y146.713 E0.01894
G1 X158.264 Y146.259 E0.01893
G1 X157.810 Y145.860 E0.01893
G1 X157.308 Y145.525 E0.01893
G1 X156.767 Y145.258 E0.01893
G1 X156.195 Y145.064 E0.01893
G1 X155.603 Y144.946 E0.01893
G1 X155.000 Y144.907 E0.01893
G1 X154.397 Y144.946 E0.01893
G1 X153.805 Y145.064 E0.01893
G1 X153.233 Y145.258 E0.01893
G1 X152.692 Y145.525 E0.01893
G1 X152.190 Y145.860 E0.01893
G1 X151.736 Y146.259 E0.01893
G1 X151.338 Y146.713 E0.01893
G1 X151.002 Y147.215 E0.01893
G1 X150.735 Y147.756 E0.01893
G1 X150.541 Y148.328 E0.01893
G1 X150.423 Y148.920 E0.01893
G1 X150.384 Y149.523 E0.01893
G1 X150.423 Y150.125 E0.01893
G1 X150.541 Y150.718 E0.01893
G1 X150.628 Y150.974 E0.00851
G1 X150.445 Y151.802 E0.02659
G1 X149.743 Y152.342 E0.02777
G1 X149.586 Y152.937 F7200.000
G1 F1680
G1 X149.447 Y152.729 E0.00785
G1 X149.076 Y151.976 E0.02630
G1 X148.807 Y151.182 E0.02629
G1 X148.643 Y150.360 E0.02630
G1 X148.588 Y149.523 E0.02630
G1 X148.643 Y148.686 E0.02630
G1 X148.807 Y147.863 E0.02630
G1 X149.076 Y147.069 E0.02630
G1 X149.447 Y146.317 E0.02630
G1 X149.913 Y145.620 E0.02630
G1 X150.466 Y144.989 E0.02630
G1 X151.097 Y144.436 E0.02630
G1 X151.794 Y143.970 E0.02630
G1 X152.546 Y143.599 E0.02630
G1 X153.341 Y143.330 E0.02630
G1 X154.161 Y143.166 E0.02624
G1 X155.044 Y143.114 E0.02772
G1 X155.837 Y143.166 E0.02492
G1 X156.659 Y143.330 E0.02630
G1 X157.454 Y143.599 E0.02630
G1 X158.206 Y143.970 E0.02630
G1 X158.903 Y144.436 E0.02630
G1 X159.534 Y144.989 E0.02630
G1 X160.087 Y145.620 E0.02630
G1 X160.553 Y146.317 E0.02630
G1 X160.924 Y147.069 E0.02630
G1 X161.193 Y147.863 E0.02630
G1 X161.357 Y148.686 E0.02630
G1 X161.412 Y149.523 E0.02630
G1 X161.357 Y150.360 E0.02630
G1 X161.193 Y151.182 E0.02630
G1 X160.924 Y151.976 E0.02630
G1 X160.553 Y152.729 E0.02630
G1 X160.414 Y152.937 E0.00785
G1 X159.216 Y152.018 E0.04732
G1 X158.981 Y150.953 E0.03420
G1 X159.094 Y150.620 E0.01104
G1 X159.202 Y150.076 E0.01738
G1 X159.238 Y149.526 E0.01728
G1 X159.210 Y149.009 E0.01624
G1 X159.094 Y148.426 E0.01864
G1 X158.916 Y147.901 E0.01738
G1 X158.671 Y147.404 E0.01738
G1 X158.363 Y146.943 E0.01738
G1 X157.997 Y146.526 E0.01738
G1 X157.580 Y146.160 E0.01738
G1 X157.119 Y145.852 E0.01738
G1 X156.622 Y145.607 E0.01738
G1 X156.097 Y145.429 E0.01738
G1 X155.553 Y145.321 E0.01738
G1 X155.000 Y145.284 E0.01738
G1 X154.447 Y145.321 E0.01738
G1 X153.903 Y145.429 E0.01738
G1 X153.378 Y145.607 E0.01738
G1 X152.881 Y145.852 E0.01738
G1 X152.420 Y146.160 E0.01738
G1 X152.003 Y146.526 E0.01738
G1 X151.638 Y146.943 E0.01738
G1 X151.330 Y147.404 E0.01738
G1 X151.084 Y147.901 E0.01738
G1 X150.906 Y148.426 E0.01738
G1 X150.798 Y148.970 E0.01738
G1 X150.762 Y149.523 E0.01738
G1 X150.798 Y150.076 E0.01738
G1 X150.906 Y150.620 E0.01738
G1 X151.019 Y150.953 E0.01103
G1 X150.784 Y152.018 E0.03420
G1 X149.634 Y152.900 E0.04544
G1 X149.497 Y153.481 F7200.000
G1 F1260
G1 X149.120 Y152.917 E0.02125
G1 X148.727 Y152.121 E0.02785
G1 X148.442 Y151.280 E0.02784
G1 X148.269 Y150.409 E0.02785
G1 X148.210 Y149.523 E0.02785
G1 X148.269 Y148.637 E0.02785
G1 X148.442 Y147.765 E0.02785
G1 X148.727 Y146.924 E0.02785
G1 X149.120 Y146.128 E0.02785
G1 X149.614 Y145.390 E0.02785
G1 X150.199 Y144.722 E0.02785
G1 X150.867 Y144.136 E0.02785
G1 X151.605 Y143.643 E0.02785
G1 X152.402 Y143.250 E0.02785
G1 X153.243 Y142.965 E0.02785
G1 X154.113 Y142.791 E0.02783
G1 X155.045 Y142.736 E0.02927
G1 X155.886 Y142.791 E0.02643
G1 X156.757 Y142.965 E0.02785
G1 X157.598 Y143.250 E0.02785
G1 X158.395 Y143.643 E0.02785
G1 X159.133 Y144.136 E0.02785
G1 X159.801 Y144.722 E0.02785
G1 X160.387 Y145.390 E0.02785
G1 X160.880 Y146.128 E0.02785
G1 X161.273 Y146.924 E0.02785
G1 X161.558 Y147.765 E0.02785
G1 X161.732 Y148.637 E0.02785
G1 X161.790 Y149.523 E0.02785
G1 X161.732 Y150.409 E0.02785
G1 X161.558 Y151.280 E0.02785
G1 X161.273 Y152.121 E0.02784
G1 X160.880 Y152.917 E0.02785
G1 X160.503 Y153.481 E0.02125
G1 X158.878 Y152.233 E0.06425
G1 X158.590 Y150.931 E0.04181
G1 X158.729 Y150.522 E0.01356
G1 X158.827 Y150.027 E0.01583
G1 X158.860 Y149.524 E0.01580
G1 X158.835 Y149.056 E0.01469
G1 X158.729 Y148.524 E0.01703
G1 X158.567 Y148.045 E0.01583
G1 X158.343 Y147.593 E0.01583
G1 X158.063 Y147.173 E0.01583
G1 X157.730 Y146.793 E0.01583
G1 X157.350 Y146.460 E0.01583
G1 X156.930 Y146.179 E0.01583
G1 X156.477 Y145.956 E0.01583
G1 X155.999 Y145.794 E0.01583
G1 X155.504 Y145.695 E0.01583
G1 X155.000 Y145.662 E0.01583
G1 X154.496 Y145.695 E0.01583
G1 X154.001 Y145.794 E0.01583
G1 X153.523 Y145.956 E0.01583
G1 X153.070 Y146.179 E0.01583
G1 X152.650 Y146.460 E0.01583
G1 X152.270 Y146.793 E0.01583
G1 X151.937 Y147.173 E0.01583
G1 X151.657 Y147.593 E0.01583
G1 X151.433 Y148.045 E0.01583
G1 X151.271 Y148.524 E0.01583
G1 X151.173 Y149.019 E0.01583
G1 X151.140 Y149.523 E0.01583
G1 X151.173 Y150.027 E0.01583
G1 X151.271 Y150.522 E0.01583
G1 X151.410 Y150.931 E0.01356
G1 X151.122 Y152.233 E0.04181
G1 X149.544 Y153.444 E0.06237
G1 X149.426 Y153.087 F7200.000
G1 F5760
G1 X149.120 Y152.917 E-0.23429
G1 F5760
G1 X148.727 Y152.121 E-0.30760
G1 F5760
G1 X148.525 Y151.525 E-0.21811
G1 E-0.04000 F2100.00000
G1 X150.179 Y151.864 F7200.000
G1 E0.80000 F2100.00000
G1 F1680
G1 X149.507 Y151.193 E0.03048
G1 X149.446 Y151.011 E0.00617
G1 X149.340 Y150.479 E0.01740
G1 X150.247 Y151.387 E0.04121
G1 X150.335 Y150.991 E0.01304
G1 X150.303 Y150.897 E0.00317
G1 X149.272 Y149.866 E0.04682
G1 X149.250 Y149.523 E0.01104
G1 X149.264 Y149.311 E0.00681
G1 X150.149 Y150.197 E0.04021
G1 X150.106 Y149.607 E0.01897
G1 X149.297 Y148.799 E0.03673
G1 X149.299 Y148.772 E0.00085
G1 X149.385 Y148.340 E0.01414
G1 X150.129 Y149.085 E0.03380
G1 X150.142 Y148.883 E0.00648
G1 X150.197 Y148.607 E0.00905
G1 X149.491 Y147.900 E0.03207
G1 X149.629 Y147.493 E0.01382
G1 X150.299 Y148.162 E0.03039
G1 X150.437 Y147.754 E0.01382
G1 X149.792 Y147.110 E0.02928
G1 X149.973 Y146.744 E0.01309
G1 X150.607 Y147.378 E0.02878
G1 X150.793 Y147.018 E0.01300
G1 X150.181 Y146.406 E0.02779
G1 X150.400 Y146.079 E0.01264
G1 X151.012 Y146.691 E0.02779
G1 X151.113 Y146.540 E0.00583
G1 X151.250 Y146.383 E0.00669
G1 X150.649 Y145.782 E0.02731
G1 X150.904 Y145.491 E0.01242
G1 X151.505 Y146.092 E0.02731
G1 X151.792 Y145.833 E0.01241
G1 X151.191 Y145.232 E0.02731
G1 X151.481 Y144.976 E0.01242
G1 X152.091 Y145.586 E0.02769
G1 X152.419 Y145.368 E0.01264
G1 X151.807 Y144.755 E0.02779
G1 X152.135 Y144.538 E0.01265
G1 X152.769 Y145.172 E0.02878
G1 X153.136 Y144.992 E0.01311
G1 X152.501 Y144.357 E0.02883
G1 X152.874 Y144.185 E0.01321
G1 X153.543 Y144.854 E0.03039
G1 X153.732 Y144.790 E0.00639
G1 X153.977 Y144.741 E0.00801
G1 X153.282 Y144.046 E0.03156
G1 X153.512 Y143.968 E0.00780
G1 X153.710 Y143.929 E0.00650
G1 X154.441 Y144.660 E0.03319
G1 X154.954 Y144.626 E0.01649
G1 X154.166 Y143.838 E0.03578
G1 X154.246 Y143.822 E0.00262
G1 X154.671 Y143.797 E0.01367
G1 X155.531 Y144.658 E0.03909
G1 X156.195 Y144.776 E0.02164
G1 X155.205 Y143.786 E0.04494
G1 X155.796 Y143.831 E0.01902
G1 X157.448 Y145.482 E0.07499
G1 F5760
G1 X155.896 Y143.931 E-0.76000
G1 E-0.04000 F2100.00000
G1 X158.077 Y144.474 F7200.000
G1 E0.80000 F2100.00000
G1 F1680
G1 X160.049 Y146.445 E0.08951
G1 F5760
G1 X158.497 Y144.894 E-0.76000
G1 E-0.04000 F2100.00000
G1 X160.549 Y147.492 F7200.000
G1 E0.80000 F2100.00000
G1 F1680
G1 X157.333 Y144.275 E0.14604
G1 X157.201 Y144.210 E0.00474
G1 X156.478 Y143.966 E0.02449
G1 X160.557 Y148.045 E0.18519
G1 X160.692 Y148.727 E0.02232
G1 X159.442 Y147.477 E0.05674
G1 X159.527 Y147.648 E0.00612
G1 X159.747 Y148.328 E0.02295
G1 X160.737 Y149.318 E0.04494
G1 X160.750 Y149.523 E0.00660
G1 X160.729 Y149.855 E0.01070
G1 X159.870 Y148.997 E0.03898
G1 X159.897 Y149.569 E0.01840
G1 X160.685 Y150.357 E0.03577
G1 X160.594 Y150.813 E0.01491
G1 X159.863 Y150.082 E0.03319
G1 X159.781 Y150.546 E0.01514
G1 X160.476 Y151.241 E0.03155
G1 X160.338 Y151.649 E0.01382
G1 X159.535 Y150.846 E0.03646
G1 F5760
G1 X160.338 Y151.649 E-0.39336
G1 F5760
G1 X160.476 Y151.241 E-0.14911
G1 F5760
G1 X160.032 Y150.797 E-0.21753
G1 E-0.04000 F2100.00000
G1 X160.305 Y135.117 F7200.000
G1 E0.80000 F2100.00000
G1 F1680
G1 X159.555 Y134.541 E0.02965
G1 X159.372 Y133.713 E0.02659
G1 X159.459 Y133.456 E0.00851
G1 X159.577 Y132.864 E0.01893
G1 X159.616 Y132.267 E0.01877
G1 X159.585 Y131.700 E0.01779
G1 X159.459 Y131.067 E0.02025
G1 X159.265 Y130.495 E0.01893
G1 X158.998 Y129.953 E0.01893
G1 X158.662 Y129.451 E0.01894
G1 X158.264 Y128.997 E0.01893
G1 X157.810 Y128.599 E0.01893
G1 X157.308 Y128.264 E0.01893
G1 X156.767 Y127.997 E0.01893
G1 X156.195 Y127.802 E0.01893
G1 X155.603 Y127.685 E0.01893
G1 X155.000 Y127.645 E0.01893
G1 X154.397 Y127.685 E0.01893
G1 X153.805 Y127.802 E0.01893
G1 X153.233 Y127.997 E0.01893
G1 X152.692 Y128.264 E0.01893
G1 X152.190 Y128.599 E0.01893
G1 X151.736 Y128.997 E0.01893
G1 X151.338 Y129.451 E0.01893
G1 X151.002 Y129.953 E0.01893
G1 X150.735 Y130.495 E0.01893
G1 X150.541 Y131.067 E0.01893
G1 X150.423 Y131.659 E0.01893
G1 X150.384 Y132.261 E0.01893
G1 X150.423 Y132.864 E0.01893
G1 X150.541 Y133.456 E0.01893
G1 X150.628 Y133.713 E0.00851
G1 X150.445 Y134.541 E0.02659
G1 X149.695 Y135.117 E0.02965
G1 X149.426 Y134.570 E0.01910
G1 X149.172 Y133.823 E0.02474
G1 X149.018 Y133.049 E0.02475
G1 X148.966 Y132.261 E0.02475
G1 X149.018 Y131.474 E0.02475
G1 X149.172 Y130.700 E0.02475
G1 X149.426 Y129.952 E0.02475
G1 X149.775 Y129.244 E0.02475
G1 X150.213 Y128.588 E0.02475
G1 X150.734 Y127.995 E0.02475
G1 X151.327 Y127.474 E0.02475
G1 X151.983 Y127.036 E0.02475
G1 X152.691 Y126.687 E0.02475
G1 X153.438 Y126.433 E0.02475
G1 X154.210 Y126.280 E0.02465
G1 X155.043 Y126.230 E0.02617
G1 X155.788 Y126.279 E0.02341
G1 X156.562 Y126.433 E0.02475
G1 X157.309 Y126.687 E0.02475
G1 X158.017 Y127.036 E0.02475
G1 X158.673 Y127.474 E0.02475
G1 X159.267 Y127.995 E0.02475
G1 X159.787 Y128.588 E0.02475
G1 X160.225 Y129.244 E0.02475
G1 X160.574 Y129.952 E0.02475
G1 X160.828 Y130.700 E0.02475
G1 X160.982 Y131.474 E0.02475
G1 X161.034 Y132.261 E0.02475
G1 X160.982 Y133.049 E0.02475
G1 X160.828 Y133.823 E0.02475
G1 X160.574 Y134.570 E0.02475
G1 X160.332 Y135.063 E0.01722
G1 X160.414 Y135.675 F7200.000
G1 F1680
G1 X159.216 Y134.757 E0.04732
G1 X158.981 Y133.692 E0.03420
G1 X159.094 Y133.358 E0.01104
G1 X159.202 Y132.815 E0.01738
G1 X159.238 Y132.265 E0.01728
G1 X159.210 Y131.748 E0.01624
G1 X159.094 Y131.164 E0.01864
G1 X158.916 Y130.639 E0.01738
G1 X158.671 Y130.142 E0.01738
G1 X158.363 Y129.681 E0.01738
G1 X157.997 Y129.264 E0.01738
G1 X157.580 Y128.899 E0.01738
G1 X157.119 Y128.591 E0.01738
G1 X156.622 Y128.346 E0.01738
G1 X156.097 Y128.167 E0.01738
G1 X155.553 Y128.059 E0.01738
G1 X155.000 Y128.023 E0.01738
G1 X154.447 Y128.059 E0.01738
G1 X153.903 Y128.167 E0.01738
G1 X153.378 Y128.346 E0.01738
G1 X152.881 Y128.591 E0.01738
G1 X152.420 Y128.899 E0.01738
G1 X152.003 Y129.264 E0.01738
G1 X151.638 Y129.681 E0.01738
G1 X151.330 Y130.142 E0.01738
G1 X151.084 Y130.639 E0.01738
G1 X150.906 Y131.164 E0.01738
G1 X150.798 Y131.708 E0.01738
G1 X150.762 Y132.261 E0.01738
G1 X150.798 Y132.815 E0.01738
G1 X150.906 Y133.358 E0.01738
G1 X151.019 Y133.692 E0.01103
G1 X150.784 Y134.757 E0.03420
G1 X149.586 Y135.675 E0.04732
G1 X149.447 Y135.467 E0.00785
G1 X149.076 Y134.715 E0.02630
G1 X148.807 Y133.921 E0.02629
G1 X148.643 Y133.098 E0.02630
G1 X148.588 Y132.261 E0.02630
G1 X148.643 Y131.424 E0.02630
G1 X148.807 Y130.602 E0.02630
G1 X149.076 Y129.808 E0.02630
G1 X149.447 Y129.056 E0.02630
G1 X149.913 Y128.358 E0.02630
G1 X150.466 Y127.728 E0.02630
G1 X151.097 Y127.175 E0.02630
G1 X151.794 Y126.709 E0.02630
G1 X152.546 Y126.338 E0.02630
G1 X153.341 Y126.068 E0.02630
G1 X154.161 Y125.905 E0.02624
G1 X155.044 Y125.853 E0.02772
G1 X155.837 Y125.905 E0.02492
G1 X156.659 Y126.068 E0.02630
G1 X157.454 Y126.338 E0.02630
G1 X158.206 Y126.709 E0.02630
G1 X158.903 Y127.175 E0.02630
G1 X159.534 Y127.728 E0.02630
G1 X160.087 Y128.358 E0.02630
G1 X160.553 Y129.056 E0.02630
G1 X160.924 Y129.808 E0.02630
G1 X161.193 Y130.602 E0.02630
