; generated by Slic3r 1.33.8-prusa3d-win64 on 2017-03-23 at 17:45:01

; external perimeters extrusion width = 0.45mm
; perimeters extrusion width = 0.45mm
; infill extrusion width = 0.45mm
; solid infill extrusion width = 0.45mm
; top infill extrusion width = 0.40mm

M107
M115 U3.0.10 ; tell printer latest fw version
M83  ; extruder relative mode
M104 S215 ; set extruder temp
M140 S55 ; set bed temp
M190 S55 ; wait for bed temp
M109 S215 ; wait for extruder temp
G28 W ; home all without mesh bed level
G80 ; mesh bed leveling
G1 Y-3.0 F1000.0 ; go outside pritn area
G1 X60.0 E9.0  F1000.0 ; intro line
G1 X100.0 E12.5  F1000.0 ; intro line
G21 ; set units to millimeters
G90 ; use absolute coordinates
M83 ; use relative distances for extrusion
G1 E-0.80000 F2100.00000
G1 Z0.200 F7200.000
G1 X122.744 Y97.722 F7200.000
G1 E0.80000 F2100.00000
M204 S1000
G1 F2100
G1 X126.698 Y92.762 E0.19890
G1 X126.953 Y92.513 E0.01118
G1 X127.238 Y92.298 E0.01118
G1 X127.548 Y92.122 E0.01118
G1 X127.878 Y91.988 E0.01118
G1 X128.283 Y91.886 E0.01310
G1 X128.699 Y91.846 E0.01310
G1 X133.766 Y91.846 E0.15889
G1 X134.163 Y91.877 E0.01246
G1 X134.467 Y91.941 E0.00976
G1 X134.763 Y92.039 E0.00976
G1 X135.046 Y92.170 E0.00976
G1 X135.312 Y92.331 E0.00976
G1 X135.558 Y92.522 E0.00976
G1 X135.781 Y92.740 E0.00976
G1 X135.978 Y92.981 E0.00976
G1 X136.146 Y93.243 E0.00976
G1 X136.297 Y93.552 E0.01079
G1 X136.408 Y93.878 E0.01079
G1 X136.477 Y94.211 E0.01066
G1 X136.504 Y94.554 E0.01079
G1 X136.495 Y114.625 E0.62932
G1 X136.437 Y115.006 E0.01207
G1 X136.324 Y115.379 E0.01220
G1 X136.163 Y115.728 E0.01207
G1 X135.952 Y116.055 E0.01220
G1 X135.725 Y116.320 E0.01092
G1 X134.642 Y117.402 E0.04802
G1 X134.387 Y117.615 E0.01041
G1 X134.112 Y117.794 E0.01028
G1 X133.807 Y117.943 E0.01066
G1 X133.482 Y118.055 E0.01079
G1 X133.145 Y118.126 E0.01079
G1 X132.806 Y118.154 E0.01066
G1 X116.111 Y118.151 E0.52346
G1 X115.769 Y118.112 E0.01079
G1 X115.434 Y118.031 E0.01079
G1 X115.113 Y117.908 E0.01079
G1 X114.809 Y117.747 E0.01079
G1 X114.527 Y117.549 E0.01079
G1 X114.273 Y117.317 E0.01079
G1 X114.046 Y117.052 E0.01092
G1 X113.858 Y116.765 E0.01079
G1 X113.705 Y116.452 E0.01092
G1 X113.592 Y116.122 E0.01092
G1 X113.523 Y115.785 E0.01079
G1 X113.496 Y115.438 E0.01092
G1 X113.498 Y110.190 E0.16454
G1 X113.522 Y109.920 E0.00848
G1 X113.574 Y109.651 E0.00861
G1 X113.652 Y109.387 E0.00861
G1 X113.754 Y109.137 E0.00848
G1 X113.903 Y108.859 E0.00989
G1 X114.086 Y108.597 E0.01002
G1 X122.706 Y97.769 E0.43395
G1 X123.001 Y98.004 F7200.000
G1 F2100
G1 X126.964 Y93.032 E0.19935
G1 X127.176 Y92.819 E0.00943
G1 X127.417 Y92.632 E0.00955
G1 X127.676 Y92.479 E0.00943
G1 X127.952 Y92.361 E0.00943
G1 X128.323 Y92.261 E0.01205
G1 X128.706 Y92.223 E0.01205
G1 X133.761 Y92.223 E0.15852
G1 X134.073 Y92.245 E0.00979
G1 X134.342 Y92.298 E0.00859
G1 X134.603 Y92.381 E0.00859
G1 X134.853 Y92.494 E0.00859
G1 X135.088 Y92.635 E0.00859
G1 X135.305 Y92.802 E0.00859
G1 X135.502 Y92.993 E0.00859
G1 X135.675 Y93.205 E0.00859
G1 X135.823 Y93.436 E0.00859
G1 X135.952 Y93.704 E0.00931
G1 X136.045 Y93.981 E0.00919
G1 X136.104 Y94.269 E0.00919
G1 X136.127 Y94.565 E0.00931
G1 X136.120 Y114.587 E0.62778
G1 X136.069 Y114.921 E0.01062
G1 X135.970 Y115.249 E0.01074
G1 X135.827 Y115.556 E0.01062
G1 X135.639 Y115.843 E0.01074
G1 X135.450 Y116.062 E0.00907
G1 X134.382 Y117.129 E0.04734
G1 X134.160 Y117.314 E0.00907
G1 X133.917 Y117.471 E0.00907
G1 X133.653 Y117.599 E0.00919
G1 X133.375 Y117.693 E0.00919
G1 X133.088 Y117.753 E0.00919
G1 X132.792 Y117.777 E0.00931
G1 X116.140 Y117.775 E0.52214
G1 X115.844 Y117.742 E0.00931
G1 X115.552 Y117.672 E0.00943
G1 X115.271 Y117.566 E0.00943
G1 X115.005 Y117.425 E0.00943
G1 X114.759 Y117.252 E0.00943
G1 X114.538 Y117.049 E0.00943
G1 X114.343 Y116.819 E0.00943
G1 X114.179 Y116.567 E0.00943
G1 X114.050 Y116.300 E0.00931
G1 X113.954 Y116.015 E0.00943
G1 X113.895 Y115.720 E0.00943
G1 X113.873 Y115.424 E0.00931
G1 X113.875 Y110.213 E0.16339
G1 X113.940 Y109.738 E0.01502
G1 X114.102 Y109.283 E0.01514
G1 X114.229 Y109.049 E0.00836
G1 X114.384 Y108.828 E0.00847
G1 X122.964 Y98.051 E0.43191
G1 F5760
G1 X124.331 Y96.335 E-0.76000
G1 E-0.04000 F2100.00000
G1 X118.286 Y110.765 F7200.000
G1 E0.80000 F2100.00000
G1 F1680
G1 X124.714 Y110.765 E0.20156
G1 X124.714 Y105.265 E0.17244
G1 X129.714 Y105.265 E0.15677
G1 X129.714 Y95.564 E0.30417
G1 X132.786 Y95.564 E0.09631
G1 X132.786 Y114.001 E0.57807
G1 X132.351 Y114.436 E0.01930
G1 X117.214 Y114.436 E0.47459
G1 X117.214 Y110.846 E0.11255
G1 X118.286 Y110.203 E0.03919
G1 X118.286 Y110.705 E0.01572
G1 X118.663 Y110.388 F7200.000
G1 F1680
G1 X124.337 Y110.388 E0.17791
G1 X124.337 Y104.888 E0.17244
G1 X129.337 Y104.888 E0.15677
G1 X129.337 Y95.187 E0.30417
G1 X133.163 Y95.187 E0.11996
G1 X133.163 Y114.157 E0.59479
G1 X132.507 Y114.813 E0.02909
G1 X116.837 Y114.813 E0.49131
G1 X116.837 Y110.633 E0.13106
G1 X118.663 Y109.537 E0.06676
G1 X118.663 Y110.328 E0.02478
G1 X119.040 Y110.010 F7200.000
G1 F1260
G1 X123.960 Y110.010 E0.15426
G1 X123.960 Y104.511 E0.17244
G1 X128.960 Y104.511 E0.15677
G1 X128.960 Y94.810 E0.30417
G1 X133.540 Y94.810 E0.14360
G1 X133.540 Y114.313 E0.61151
G1 X132.663 Y115.190 E0.03889
G1 X116.460 Y115.190 E0.50803
G1 X116.460 Y110.419 E0.14958
G1 X118.808 Y109.010 E0.08586
G1 X119.040 Y109.010 E0.00727
G1 X119.040 Y109.950 E0.02947
G1 X119.070 Y110.409 F7200.000
G1 F5760
G1 X121.234 Y109.977 E-0.76000
G1 E-0.04000 F2100.00000
G1 X117.327 Y113.549 F7200.000
G1 E0.80000 F2100.00000
G1 F1680
G1 X117.931 Y114.153 E0.02714
G1 X118.472 Y114.153 E0.01719
G1 X117.497 Y113.178 E0.04383
G1 X117.497 Y112.638 E0.01719
G1 X119.012 Y114.153 E0.06814
G1 X119.553 Y114.153 E0.01719
G1 X117.497 Y112.097 E0.09245
G1 X117.497 Y111.556 E0.01719
G1 X120.094 Y114.153 E0.11677
G1 X120.635 Y114.153 E0.01719
G1 X117.497 Y111.015 E0.14108
G1 X117.829 Y110.807 E0.01247
G1 X121.175 Y114.153 E0.15045
G1 X121.716 Y114.153 E0.01719
G1 X118.610 Y111.047 E0.13964
G1 X119.151 Y111.047 E0.01719
G1 X122.257 Y114.153 E0.13964
G1 X122.798 Y114.153 E0.01719
G1 X119.692 Y111.047 E0.13964
G1 X120.233 Y111.047 E0.01719
G1 X123.338 Y114.153 E0.13964
G1 X123.879 Y114.153 E0.01719
G1 X120.773 Y111.047 E0.13964
G1 X121.314 Y111.047 E0.01719
G1 X124.420 Y114.153 E0.13964
G1 X124.961 Y114.153 E0.01719
G1 X121.855 Y111.047 E0.13964
G1 X122.396 Y111.047 E0.01719
G1 X125.501 Y114.153 E0.13964
G1 X126.042 Y114.153 E0.01719
G1 X122.936 Y111.047 E0.13964
G1 X123.477 Y111.047 E0.01719
G1 X126.583 Y114.153 E0.13964
G1 X127.124 Y114.153 E0.01719
G1 X124.018 Y111.047 E0.13964
G1 X124.559 Y111.047 E0.01719
G1 X127.664 Y114.153 E0.13964
G1 X128.205 Y114.153 E0.01719
G1 X124.997 Y110.945 E0.14424
G1 X124.997 Y110.404 E0.01719
G1 X128.746 Y114.153 E0.16855
G1 X129.286 Y114.153 E0.01719
G1 X124.997 Y109.864 E0.19287
G1 X124.997 Y109.323 E0.01719
G1 X129.827 Y114.153 E0.21718
G1 X130.368 Y114.153 E0.01719
G1 X124.997 Y108.782 E0.24149
G1 X124.997 Y108.241 E0.01719
G1 X130.909 Y114.153 E0.26581
G1 X131.449 Y114.153 E0.01719
G1 X124.997 Y107.701 E0.29012
G1 X124.997 Y107.160 E0.01719
G1 X131.990 Y114.153 E0.31443
G1 X132.233 Y114.153 E0.00774
G1 X132.382 Y114.004 E0.00669
G1 X124.997 Y106.619 E0.33206
G1 X124.997 Y106.078 E0.01719
G1 X132.503 Y113.585 E0.33749
G1 X132.503 Y113.044 E0.01719
G1 X125.007 Y105.548 E0.33704
G1 X125.548 Y105.548 E0.01719
G1 X132.503 Y112.503 E0.31273
G1 X132.503 Y111.962 E0.01719
G1 X126.089 Y105.548 E0.28841
G1 X126.629 Y105.548 E0.01719
G1 X132.503 Y111.422 E0.26410
G1 X132.503 Y110.881 E0.01719
G1 X127.170 Y105.548 E0.23979
G1 X127.711 Y105.548 E0.01719
G1 X132.503 Y110.340 E0.21547
G1 X132.503 Y109.799 E0.01719
G1 X128.251 Y105.548 E0.19116
G1 X128.792 Y105.548 E0.01719
G1 X132.503 Y109.259 E0.16685
G1 X132.503 Y108.718 E0.01719
G1 X129.333 Y105.548 E0.14254
G1 X129.874 Y105.548 E0.01719
G1 X132.503 Y108.177 E0.11822
G1 X132.503 Y107.636 E0.01719
G1 X129.997 Y105.130 E0.11268
G1 X129.997 Y104.590 E0.01719
G1 X132.503 Y107.096 E0.11268
G1 X132.503 Y106.555 E0.01719
G1 X129.997 Y104.049 E0.11268
G1 X129.997 Y103.508 E0.01719
G1 X132.503 Y106.014 E0.11268
G1 X132.503 Y105.474 E0.01719
G1 X129.997 Y102.967 E0.11268
G1 X129.997 Y102.427 E0.01719
G1 X132.503 Y104.933 E0.11268
G1 X132.503 Y104.392 E0.01719
G1 X129.997 Y101.886 E0.11268
G1 X129.997 Y101.345 E0.01719
G1 X132.503 Y103.851 E0.11268
G1 X132.503 Y103.311 E0.01719
G1 X129.997 Y100.804 E0.11268
G1 X129.997 Y100.264 E0.01719
G1 X132.503 Y102.770 E0.11268
G1 X132.503 Y102.229 E0.01719
G1 X129.997 Y99.723 E0.11268
G1 X129.997 Y99.182 E0.01719
G1 X132.503 Y101.688 E0.11268
G1 X132.503 Y101.148 E0.01719
G1 X129.997 Y98.641 E0.11268
G1 X129.997 Y98.101 E0.01719
G1 X132.503 Y100.607 E0.11268
G1 X132.503 Y100.066 E0.01719
G1 X129.997 Y97.560 E0.11268
G1 X129.997 Y97.019 E0.01719
G1 X132.503 Y99.525 E0.11268
G1 X132.503 Y98.985 E0.01719
G1 X129.997 Y96.479 E0.11268
G1 X129.997 Y95.938 E0.01719
G1 X132.503 Y98.444 E0.11268
G1 X132.503 Y97.903 E0.01719
G1 X130.447 Y95.847 E0.09246
G1 X130.987 Y95.847 E0.01719
G1 X132.503 Y97.362 E0.06814
G1 X132.503 Y96.822 E0.01719
G1 X131.528 Y95.847 E0.04383
G1 X132.069 Y95.847 E0.01719
G1 X132.673 Y96.451 E0.02715
M106 S255
M104 S205 ; set temperature
G1 F5760
G1 X132.069 Y95.847 E-0.29575
G1 F5760
G1 X131.528 Y95.847 E-0.18729
G1 F5760
G1 X132.094 Y96.412 E-0.27697
G1 E-0.04000 F2100.00000
G1 Z0.400 F7200.000
G1 X118.211 Y110.840 F7200.000
G1 E0.80000 F2100.00000
M204 S800
G1 F1308.746
G1 X124.789 Y110.840 E0.22267
G1 X124.789 Y105.340 E0.18615
G1 X129.789 Y105.340 E0.16924
G1 X129.789 Y95.639 E0.32837
G1 X132.711 Y95.639 E0.09890
G1 X132.711 Y113.970 E0.62047
G1 X132.320 Y114.361 E0.01873
G1 X117.289 Y114.361 E0.50876
G1 X117.289 Y110.889 E0.11753
G1 X118.211 Y110.336 E0.03638
G1 X118.211 Y110.780 E0.01502
M204 S1000
G1 X118.618 Y110.433 F7200.000
M204 S800
G1 F1308.746
G1 X124.382 Y110.433 E0.19511
G1 X124.382 Y104.933 E0.18615
G1 X129.382 Y104.933 E0.16924
G1 X129.382 Y95.232 E0.32837
G1 X133.118 Y95.232 E0.12645
G1 X133.118 Y114.138 E0.63996
G1 X132.488 Y114.768 E0.03015
G1 X116.882 Y114.768 E0.52825
G1 X116.882 Y110.658 E0.13911
G1 X118.618 Y109.617 E0.06852
G1 X118.618 Y110.373 E0.02558
M204 S1000
G1 X119.025 Y110.025 F7200.000
M204 S800
G1 F981.559
G1 X123.975 Y110.025 E0.16755
G1 X123.975 Y104.526 E0.18615
G1 X128.975 Y104.526 E0.16924
G1 X128.975 Y94.825 E0.32837
G1 X133.525 Y94.825 E0.15401
G1 X133.525 Y114.307 E0.65944
G1 X132.657 Y115.175 E0.04156
G1 X116.475 Y115.175 E0.54773
G1 X116.475 Y110.428 E0.16069
G1 X118.812 Y109.025 E0.09226
G1 X119.025 Y109.025 E0.00720
G1 X119.025 Y109.965 E0.03182
M204 S1000
G1 X119.053 Y110.425 F7200.000
G1 F5760
G1 X121.219 Y109.992 E-0.76000
G1 E-0.04000 F2100.00000
G1 X118.089 Y110.737 F7200.000
G1 E0.80000 F2100.00000
M204 S2000
G1 F1308.746
G1 X117.594 Y111.231 E0.02387
G1 X117.594 Y111.812 E0.01983
G1 X118.261 Y111.145 E0.03219
G1 X118.842 Y111.145 E0.01983
G1 X117.594 Y112.392 E0.06023
G1 X117.594 Y112.973 E0.01983
G1 X119.423 Y111.145 E0.08827
G1 X120.003 Y111.145 E0.01983
G1 X117.594 Y113.554 E0.11631
G1 X117.594 Y114.056 E0.01713
G1 X117.673 Y114.056 E0.00269
G1 X120.584 Y111.145 E0.14054
G1 X121.165 Y111.145 E0.01983
G1 X118.254 Y114.056 E0.14054
G1 X118.835 Y114.056 E0.01983
G1 X121.745 Y111.145 E0.14054
G1 X122.326 Y111.145 E0.01983
G1 X119.415 Y114.056 E0.14054
G1 X119.996 Y114.056 E0.01983
G1 X122.907 Y111.145 E0.14054
G1 X123.487 Y111.145 E0.01983
G1 X120.577 Y114.056 E0.14054
G1 X121.157 Y114.056 E0.01983
G1 X124.068 Y111.145 E0.14054
G1 X124.649 Y111.145 E0.01983
G1 X121.738 Y114.056 E0.14054
G1 X122.319 Y114.056 E0.01983
G1 X132.406 Y103.969 E0.48703
G1 X132.406 Y104.550 E0.01983
G1 X122.899 Y114.056 E0.45900
G1 X123.480 Y114.056 E0.01983
G1 X132.406 Y105.130 E0.43096
G1 X132.406 Y105.711 E0.01983
G1 X124.061 Y114.056 E0.40292
G1 X124.642 Y114.056 E0.01983
G1 X132.406 Y106.292 E0.37488
G1 X132.406 Y106.872 E0.01983
G1 X125.222 Y114.056 E0.34684
G1 X125.803 Y114.056 E0.01983
G1 X132.406 Y107.453 E0.31880
G1 X132.406 Y108.034 E0.01983
G1 X126.384 Y114.056 E0.29077
G1 X126.964 Y114.056 E0.01983
G1 X132.406 Y108.614 E0.26273
G1 X132.406 Y109.195 E0.01983
G1 X127.545 Y114.056 E0.23469
G1 X128.126 Y114.056 E0.01983
G1 X132.406 Y109.776 E0.20665
G1 X132.406 Y110.356 E0.01983
G1 X128.706 Y114.056 E0.17861
G1 X129.287 Y114.056 E0.01983
G1 X132.406 Y110.937 E0.15057
G1 X132.406 Y111.518 E0.01983
G1 X129.868 Y114.056 E0.12254
G1 X130.448 Y114.056 E0.01983
G1 X132.406 Y112.099 E0.09450
G1 X132.406 Y112.679 E0.01983
G1 X131.029 Y114.056 E0.06646
G1 X131.610 Y114.056 E0.01983
G1 X132.406 Y113.260 E0.03842
G1 X132.406 Y113.841 E0.01983
G1 X132.007 Y114.239 E0.01923
M204 S1000
G1 F5760
G1 X132.406 Y113.841 E-0.19504
G1 F5760
G1 X132.406 Y113.260 E-0.20112
G1 F5760
G1 X131.663 Y114.003 E-0.36383
G1 E-0.04000 F2100.00000
G1 X124.911 Y110.882 F7200.000
G1 E0.80000 F2100.00000
M204 S2000
G1 F1308.746
G1 X132.406 Y103.388 E0.36186
G1 X132.406 Y102.808 E0.01983
G1 X130.094 Y105.119 E0.11159
G1 X130.094 Y104.538 E0.01983
G1 X132.406 Y102.227 E0.11159
G1 X132.406 Y101.646 E0.01983
G1 X130.094 Y103.957 E0.11159
G1 X130.094 Y103.377 E0.01983
G1 X132.406 Y101.065 E0.11159
G1 X132.406 Y100.485 E0.01983
G1 X130.094 Y102.796 E0.11159
G1 X130.094 Y102.215 E0.01983
G1 X132.406 Y99.904 E0.11159
G1 X132.406 Y99.323 E0.01983
G1 X130.094 Y101.634 E0.11159
G1 X130.094 Y101.054 E0.01983
G1 X132.406 Y98.743 E0.11159
G1 X132.406 Y98.162 E0.01983
G1 X130.094 Y100.473 E0.11159
G1 X130.094 Y99.892 E0.01983
G1 X132.406 Y97.581 E0.11159
G1 X132.406 Y97.001 E0.01983
G1 X130.094 Y99.312 E0.11159
G1 X130.094 Y98.731 E0.01983
G1 X132.406 Y96.420 E0.11159
G1 X132.406 Y95.944 E0.01624
G1 X132.300 Y95.944 E0.00359
G1 X130.094 Y98.150 E0.10651
G1 X130.094 Y97.570 E0.01983
G1 X131.720 Y95.944 E0.07848
G1 X131.139 Y95.944 E0.01983
G1 X130.094 Y96.989 E0.05044
G1 X130.094 Y96.408 E0.01983
G1 X130.742 Y95.761 E0.03124
M204 S1000
G1 F5760
G1 X130.094 Y96.408 E-0.31696
G1 F5760
G1 X130.094 Y96.989 E-0.20112
G1 F5760
G1 X130.588 Y96.495 E-0.24192
G1 E-0.04000 F2100.00000
G1 X124.911 Y106.237 F7200.000
G1 E0.80000 F2100.00000
M204 S2000
G1 F1308.746
G1 X125.503 Y105.645 E0.02857
G1 X126.084 Y105.645 E0.01983
G1 X125.094 Y106.634 E0.04776
G1 X125.094 Y107.215 E0.01983
G1 X126.664 Y105.645 E0.07580
G1 X127.245 Y105.645 E0.01983
G1 X125.094 Y107.796 E0.10384
G1 X125.094 Y108.377 E0.01983
G1 X127.826 Y105.645 E0.13187
G1 X128.406 Y105.645 E0.01983
G1 X125.094 Y108.957 E0.15991
G1 X125.094 Y109.538 E0.01983
G1 X128.987 Y105.645 E0.18795
G1 X129.568 Y105.645 E0.01983
G1 X124.911 Y110.302 E0.22483
M204 S1000
G1 F5760
G1 X126.463 Y108.750 E-0.76000
G1 E-0.04000 F2100.00000
G1 Z0.600 F7200.000
G1 X118.211 Y110.840 F7200.000
G1 E0.80000 F2100.00000
M204 S800
G1 F1283.083
G1 X124.789 Y110.840 E0.22267
G1 X124.789 Y105.340 E0.18615
G1 X129.789 Y105.340 E0.16924
G1 X129.789 Y95.639 E0.32837
G1 X132.711 Y95.639 E0.09890
G1 X132.711 Y113.970 E0.62047
G1 X132.320 Y114.361 E0.01873
G1 X117.289 Y114.361 E0.50876
G1 X117.289 Y110.889 E0.11753
G1 X118.211 Y110.336 E0.03638
G1 X118.211 Y110.780 E0.01502
M204 S1000
G1 X118.618 Y110.433 F7200.000
M204 S800
G1 F1283.083
G1 X124.382 Y110.433 E0.19511
G1 X124.382 Y104.933 E0.18615
G1 X129.382 Y104.933 E0.16924
G1 X129.382 Y95.232 E0.32837
G1 X133.118 Y95.232 E0.12645
G1 X133.118 Y114.138 E0.63996
G1 X132.488 Y114.768 E0.03015
G1 X116.882 Y114.768 E0.52825
G1 X116.882 Y110.658 E0.13911
G1 X118.618 Y109.617 E0.06852
G1 X118.618 Y110.373 E0.02558
M204 S1000
G1 X119.025 Y110.025 F7200.000
M204 S800
G1 F962.313
G1 X123.975 Y110.025 E0.16755
G1 X123.975 Y104.526 E0.18615
G1 X128.975 Y104.526 E0.16924
G1 X128.975 Y94.825 E0.32837
G1 X133.525 Y94.825 E0.15401
G1 X133.525 Y114.307 E0.65944
G1 X132.657 Y115.175 E0.04156
G1 X116.475 Y115.175 E0.54773
G1 X116.475 Y110.428 E0.16069
G1 X118.812 Y109.025 E0.09226
G1 X119.025 Y109.025 E0.00720
G1 X119.025 Y109.965 E0.03182
M204 S1000
G1 X119.053 Y110.425 F7200.000
G1 F5760
G1 X121.219 Y109.992 E-0.76000
G1 E-0.04000 F2100.00000
G1 X118.243 Y114.239 F7200.000
G1 E0.80000 F2100.00000
