; generated by Slic3r 1.33.8-prusa3d-win64 on 2017-03-23 at 17:44:41

; external perimeters extrusion width = 0.45mm
; perimeters extrusion width = 0.45mm
; infill extrusion width = 0.45mm
; solid infill extrusion width = 0.45mm
; top infill extrusion width = 0.40mm

M107
M115 U3.0.10 ; tell printer latest fw version
M83  ; extruder relative mode
M104 S215 ; set extruder temp
M140 S55 ; set bed temp
M190 S55 ; wait for bed temp
M109 S215 ; wait for extruder temp
G28 W ; home all without mesh bed level
G80 ; mesh bed leveling
G1 Y-3.0 F1000.0 ; go outside pritn area
G1 X60.0 E9.0  F1000.0 ; intro line
G1 X100.0 E12.5  F1000.0 ; intro line
G21 ; set units to millimeters
G90 ; use absolute coordinates
M83 ; use relative distances for extrusion
G1 E-0.80000 F2100.00000
G1 Z0.200 F7200.000
G1 X102.843 Y106.199 F7200.000
G1 E0.80000 F2100.00000
M204 S1000
G1 F2100
G1 X115.993 Y93.038 E0.58333
G1 X116.352 Y92.740 E0.01464
G1 X116.753 Y92.508 E0.01451
G1 X117.026 Y92.397 E0.00925
G1 X117.306 Y92.317 E0.00912
G1 X117.596 Y92.266 E0.00925
G1 X117.887 Y92.246 E0.00912
G1 X132.078 Y92.246 E0.44496
G1 X132.450 Y92.272 E0.01169
G1 X132.870 Y92.363 E0.01348
G1 X133.267 Y92.518 E0.01336
G1 X133.636 Y92.731 E0.01336
G1 X133.970 Y93.002 E0.01348
G1 X147.024 Y106.056 E0.57884
G1 X147.262 Y106.327 E0.01130
G1 X147.474 Y106.649 E0.01207
G1 X147.640 Y107.000 E0.01220
G1 X147.756 Y107.372 E0.01220
G1 X147.817 Y107.756 E0.01220
G1 X147.828 Y112.009 E0.13332
G1 X147.802 Y112.376 E0.01156
G1 X147.724 Y112.749 E0.01195
G1 X147.596 Y113.108 E0.01195
G1 X147.419 Y113.445 E0.01195
G1 X147.197 Y113.755 E0.01195
G1 X144.018 Y116.951 E0.14131
G1 X143.678 Y117.239 E0.01400
G1 X143.291 Y117.471 E0.01413
G1 X142.876 Y117.635 E0.01400
G1 X142.436 Y117.730 E0.01413
G1 X142.076 Y117.754 E0.01130
G1 X107.926 Y117.754 E1.07076
G1 X107.554 Y117.729 E0.01169
G1 X107.153 Y117.644 E0.01284
G1 X106.766 Y117.498 E0.01297
G1 X106.405 Y117.296 E0.01297
G1 X106.078 Y117.042 E0.01297
G1 X102.908 Y113.874 E0.14054
G1 X102.609 Y113.489 E0.01528
G1 X102.381 Y113.054 E0.01541
G1 X102.236 Y112.593 E0.01515
G1 X102.174 Y112.109 E0.01528
G1 X102.177 Y107.832 E0.13411
G1 X102.238 Y107.402 E0.01361
G1 X102.365 Y106.987 E0.01361
G1 X102.556 Y106.598 E0.01361
G1 X102.804 Y106.245 E0.01353
G1 F5760
G1 X104.355 Y104.692 E-0.76000
G1 E-0.04000 F2100.00000
G1 X102.557 Y107.803 F7200.000
G1 E0.80000 F2100.00000
G1 F2100
G1 X102.625 Y107.405 E0.01264
G1 X102.758 Y107.024 E0.01264
G1 X102.955 Y106.672 E0.01264
G1 X103.210 Y106.355 E0.01276
G1 X116.256 Y93.308 E0.57850
G1 X116.535 Y93.072 E0.01145
G1 X116.847 Y92.882 E0.01145
G1 X117.094 Y92.773 E0.00847
G1 X117.352 Y92.693 E0.00847
G1 X117.618 Y92.643 E0.00847
G1 X117.887 Y92.623 E0.00847
G1 X132.306 Y92.634 E0.45209
G1 X132.692 Y92.704 E0.01229
G1 X133.060 Y92.837 E0.01229
G1 X133.402 Y93.029 E0.01229
G1 X133.711 Y93.276 E0.01241
G1 X146.758 Y106.322 E0.57850
G1 X146.954 Y106.545 E0.00931
G1 X147.141 Y106.827 E0.01062
G1 X147.289 Y107.136 E0.01074
G1 X147.389 Y107.460 E0.01062
G1 X147.442 Y107.798 E0.01074
G1 X147.440 Y112.229 E0.13891
G1 X147.367 Y112.625 E0.01264
G1 X147.227 Y113.007 E0.01276
G1 X147.026 Y113.357 E0.01264
G1 X146.766 Y113.670 E0.01276
G1 X143.603 Y116.820 E0.13996
G1 X143.329 Y117.019 E0.01062
G1 X143.029 Y117.177 E0.01062
G1 X142.710 Y117.290 E0.01062
G1 X142.378 Y117.358 E0.01062
G1 X142.074 Y117.377 E0.00956
G1 X107.698 Y117.366 E1.07784
G1 X107.338 Y117.303 E0.01145
G1 X106.989 Y117.184 E0.01157
G1 X106.662 Y117.013 E0.01157
G1 X106.365 Y116.793 E0.01157
G1 X103.216 Y113.651 E0.13948
G1 X103.008 Y113.404 E0.01014
G1 X102.835 Y113.130 E0.01014
G1 X102.723 Y112.893 E0.00824
G1 X102.638 Y112.644 E0.00824
G1 X102.581 Y112.388 E0.00824
G1 X102.552 Y112.127 E0.00824
G1 X102.553 Y107.862 E0.13370
G1 F5760
G1 X102.625 Y107.405 E-0.16037
G1 F5760
G1 X102.758 Y107.024 E-0.13967
G1 F5760
G1 X102.955 Y106.672 E-0.13967
G1 F5760
G1 X103.210 Y106.355 E-0.14099
G1 F5760
G1 X103.576 Y105.989 E-0.17929
G1 E-0.04000 F2100.00000
G1 X122.521 Y101.164 F7200.000
G1 E0.80000 F2100.00000
G1 F840
G1 X122.457 Y100.841 E0.01035
G1 X122.434 Y100.501 E0.01066
G1 X122.456 Y100.165 E0.01056
G1 X122.521 Y99.836 E0.01053
G1 X122.629 Y99.518 E0.01053
G1 X122.778 Y99.217 E0.01053
G1 X122.961 Y98.942 E0.01036
G1 X123.185 Y98.686 E0.01065
G1 X123.438 Y98.464 E0.01056
G1 X123.717 Y98.278 E0.01052
G1 X124.018 Y98.129 E0.01053
G1 X124.336 Y98.021 E0.01053
G1 X124.665 Y97.956 E0.01053
G1 X124.995 Y97.934 E0.01035
G1 X125.334 Y97.956 E0.01066
G1 X125.664 Y98.021 E0.01056
G1 X125.982 Y98.129 E0.01053
G1 X126.283 Y98.278 E0.01053
G1 X126.562 Y98.464 E0.01052
G1 X126.815 Y98.686 E0.01052
G1 X127.036 Y98.938 E0.01052
G1 X127.223 Y99.217 E0.01053
G1 X127.371 Y99.518 E0.01052
G1 X127.479 Y99.836 E0.01052
G1 X127.544 Y100.165 E0.01053
G1 X127.566 Y100.500 E0.01052
G1 X127.544 Y100.835 E0.01053
G1 X127.479 Y101.164 E0.01052
G1 X127.371 Y101.482 E0.01052
G1 X127.223 Y101.783 E0.01052
G1 X127.036 Y102.062 E0.01053
G1 X126.815 Y102.315 E0.01053
G1 X126.562 Y102.536 E0.01053
G1 X126.283 Y102.723 E0.01053
G1 X125.982 Y102.871 E0.01052
G1 X125.664 Y102.979 E0.01052
G1 X125.335 Y103.044 E0.01052
G1 X125.000 Y103.066 E0.01053
G1 X124.665 Y103.044 E0.01052
G1 X124.336 Y102.979 E0.01053
G1 X124.018 Y102.871 E0.01052
G1 X123.717 Y102.723 E0.01052
G1 X123.438 Y102.536 E0.01053
G1 X123.185 Y102.315 E0.01053
G1 X122.964 Y102.062 E0.01053
G1 X122.778 Y101.783 E0.01052
G1 X122.629 Y101.482 E0.01053
G1 X122.541 Y101.221 E0.00864
G1 X122.886 Y101.067 F7200.000
G1 F840
G1 X122.831 Y100.791 E0.00882
G1 X122.812 Y100.501 E0.00911
G1 X122.830 Y100.215 E0.00900
G1 X122.886 Y99.934 E0.00898
G1 X122.978 Y99.663 E0.00898
G1 X123.105 Y99.406 E0.00898
G1 X123.261 Y99.172 E0.00882
G1 X123.452 Y98.953 E0.00910
G1 X123.668 Y98.764 E0.00900
G1 X123.906 Y98.605 E0.00897
G1 X124.163 Y98.478 E0.00898
G1 X124.434 Y98.386 E0.00898
G1 X124.714 Y98.331 E0.00898
G1 X124.995 Y98.312 E0.00882
G1 X125.285 Y98.330 E0.00911
G1 X125.566 Y98.386 E0.00900
G1 X125.838 Y98.478 E0.00898
G1 X126.094 Y98.605 E0.00898
G1 X126.332 Y98.764 E0.00897
G1 X126.547 Y98.953 E0.00897
G1 X126.736 Y99.168 E0.00897
G1 X126.895 Y99.406 E0.00898
G1 X127.022 Y99.663 E0.00897
G1 X127.114 Y99.934 E0.00897
G1 X127.170 Y100.215 E0.00898
G1 X127.188 Y100.500 E0.00897
G1 X127.170 Y100.786 E0.00898
G1 X127.114 Y101.067 E0.00897
G1 X127.022 Y101.338 E0.00897
G1 X126.895 Y101.594 E0.00897
G1 X126.736 Y101.832 E0.00898
G1 X126.547 Y102.048 E0.00898
G1 X126.332 Y102.236 E0.00898
G1 X126.094 Y102.395 E0.00898
G1 X125.837 Y102.522 E0.00897
G1 X125.566 Y102.614 E0.00897
G1 X125.286 Y102.670 E0.00897
G1 X125.000 Y102.688 E0.00898
G1 X124.714 Y102.670 E0.00897
G1 X124.434 Y102.614 E0.00898
G1 X124.163 Y102.522 E0.00897
G1 X123.906 Y102.395 E0.00897
G1 X123.668 Y102.236 E0.00898
G1 X123.453 Y102.048 E0.00898
G1 X123.264 Y101.832 E0.00898
G1 X123.105 Y101.594 E0.00897
G1 X122.978 Y101.338 E0.00898
G1 X122.906 Y101.123 E0.00709
G1 X123.251 Y100.969 F7200.000
G1 F840
G1 X123.206 Y100.741 E0.00728
G1 X123.190 Y100.500 E0.00756
G1 X123.205 Y100.264 E0.00743
G1 X123.251 Y100.032 E0.00743
G1 X123.327 Y99.807 E0.00743
G1 X123.432 Y99.595 E0.00743
G1 X123.561 Y99.402 E0.00729
G1 X123.720 Y99.220 E0.00755
G1 X123.898 Y99.064 E0.00743
G1 X124.095 Y98.932 E0.00743
G1 X124.307 Y98.828 E0.00743
G1 X124.531 Y98.751 E0.00743
G1 X124.764 Y98.705 E0.00743
G1 X124.996 Y98.690 E0.00728
G1 X125.236 Y98.705 E0.00756
G1 X125.469 Y98.751 E0.00743
G1 X125.693 Y98.828 E0.00743
G1 X125.905 Y98.932 E0.00743
G1 X126.102 Y99.064 E0.00742
G1 X126.280 Y99.220 E0.00743
G1 X126.436 Y99.398 E0.00742
G1 X126.568 Y99.595 E0.00743
G1 X126.673 Y99.807 E0.00742
G1 X126.749 Y100.032 E0.00743
G1 X126.795 Y100.264 E0.00743
G1 X126.810 Y100.500 E0.00742
G1 X126.795 Y100.737 E0.00743
G1 X126.749 Y100.969 E0.00742
G1 X126.673 Y101.193 E0.00743
G1 X126.568 Y101.405 E0.00742
G1 X126.436 Y101.602 E0.00743
G1 X126.280 Y101.780 E0.00743
G1 X126.102 Y101.937 E0.00743
G1 X125.905 Y102.068 E0.00743
G1 X125.693 Y102.173 E0.00742
G1 X125.469 Y102.249 E0.00743
G1 X125.236 Y102.295 E0.00742
G1 X125.000 Y102.311 E0.00743
G1 X124.764 Y102.295 E0.00742
G1 X124.531 Y102.249 E0.00743
G1 X124.307 Y102.173 E0.00743
G1 X124.095 Y102.068 E0.00742
G1 X123.898 Y101.937 E0.00743
G1 X123.720 Y101.780 E0.00743
G1 X123.564 Y101.602 E0.00743
G1 X123.432 Y101.405 E0.00742
G1 X123.327 Y101.193 E0.00743
G1 X123.271 Y101.026 E0.00554
G1 X123.027 Y100.909 F7200.000
G1 F5760
G1 X123.206 Y100.741 E-0.10110
G1 F5760
G1 X123.190 Y100.500 E-0.08348
G1 F5760
G1 X123.205 Y100.264 E-0.08210
G1 F5760
G1 X123.251 Y100.032 E-0.08203
G1 F5760
G1 X123.327 Y99.807 E-0.08203
G1 F5760
G1 X123.432 Y99.595 E-0.08202
G1 F5760
G1 X123.561 Y99.402 E-0.08048
G1 F5760
G1 X123.720 Y99.220 E-0.08344
G1 F5760
G1 X123.898 Y99.064 E-0.08211
G1 F5760
G1 X123.901 Y99.062 E-0.00120
G1 E-0.04000 F2100.00000
G1 X127.474 Y105.036 F7200.000
G1 E0.80000 F2100.00000
G1 F1680
G1 X122.526 Y105.036 E0.15512
G1 X113.527 Y114.036 E0.39906
G1 X108.325 Y114.036 E0.16308
G1 X105.890 Y111.601 E0.10797
G1 X105.890 Y108.400 E0.10037
G1 X118.325 Y95.964 E0.55141
G1 X131.675 Y95.964 E0.41856
G1 X144.110 Y108.400 E0.55141
G1 X144.110 Y111.601 E0.10037
G1 X141.675 Y114.036 E0.10797
G1 X136.473 Y114.036 E0.16308
G1 X127.516 Y105.079 E0.39718
G1 X127.318 Y105.413 F7200.000
G1 F1680
G1 X122.682 Y105.413 E0.14533
G1 X113.683 Y114.413 E0.39906
G1 X108.169 Y114.413 E0.17288
G1 X105.513 Y111.757 E0.11777
G1 X105.513 Y108.244 E0.11017
G1 X118.169 Y95.587 E0.56120
G1 X131.831 Y95.587 E0.42835
G1 X144.487 Y108.244 E0.56120
G1 X144.487 Y111.757 E0.11017
G1 X141.831 Y114.413 E0.11777
G1 X136.317 Y114.413 E0.17288
G1 X127.360 Y105.456 E0.39718
G1 X127.161 Y105.790 F7200.000
G1 F1260
G1 X122.839 Y105.790 E0.13554
G1 X113.839 Y114.790 E0.39906
G1 X108.013 Y114.790 E0.18267
G1 X105.136 Y111.913 E0.12756
G1 X105.136 Y108.087 E0.11996
G1 X118.013 Y95.210 E0.57100
G1 X131.987 Y95.210 E0.43815
G1 X144.864 Y108.087 E0.57100
G1 X144.864 Y111.913 E0.11996
G1 X141.987 Y114.790 E0.12756
G1 X136.161 Y114.790 E0.18267
G1 X127.204 Y105.833 E0.39718
G1 X127.027 Y105.413 F7200.000
G1 F5760
G1 X125.010 Y105.811 E-0.76000
G1 E-0.04000 F2100.00000
G1 X125.268 Y104.923 F7200.000
G1 E0.80000 F2100.00000
G1 F1680
G1 X117.517 Y97.172 E0.34445
G1 X117.250 Y97.440 E0.01188
G1 X124.564 Y104.753 E0.32504
G1 X124.029 Y104.753 E0.01680
G1 X116.983 Y97.707 E0.31316
G1 X116.715 Y97.974 E0.01188
G1 X123.495 Y104.753 E0.30128
G1 X122.960 Y104.753 E0.01680
G1 X116.448 Y98.241 E0.28941
G1 X116.181 Y98.509 E0.01188
G1 X122.426 Y104.753 E0.27753
G1 X122.150 Y105.012 E0.01188
G1 X115.914 Y98.776 E0.27716
G1 X115.646 Y99.043 E0.01188
G1 X121.883 Y105.280 E0.27716
G1 X121.616 Y105.547 E0.01188
G1 X115.379 Y99.310 E0.27716
G1 X115.112 Y99.578 E0.01188
G1 X121.348 Y105.814 E0.27716
G1 X121.081 Y106.081 E0.01188
G1 X114.845 Y99.845 E0.27716
G1 X114.577 Y100.112 E0.01188
G1 X120.814 Y106.349 E0.27716
G1 X120.547 Y106.616 E0.01188
G1 X114.310 Y100.379 E0.27716
G1 X114.043 Y100.647 E0.01188
G1 X120.279 Y106.883 E0.27716
G1 X120.012 Y107.150 E0.01188
G1 X113.776 Y100.914 E0.27716
G1 X113.508 Y101.181 E0.01188
G1 X119.745 Y107.418 E0.27716
G1 X119.478 Y107.685 E0.01188
G1 X113.241 Y101.448 E0.27716
G1 X112.974 Y101.716 E0.01188
G1 X119.211 Y107.952 E0.27716
G1 X118.943 Y108.219 E0.01188
G1 X112.707 Y101.983 E0.27716
G1 X112.440 Y102.250 E0.01188
G1 X118.676 Y108.487 E0.27716
G1 X118.409 Y108.754 E0.01188
G1 X112.172 Y102.517 E0.27716
G1 X111.905 Y102.785 E0.01188
G1 X118.142 Y109.021 E0.27716
G1 X117.874 Y109.288 E0.01188
G1 X111.638 Y103.052 E0.27716
G1 X111.371 Y103.319 E0.01188
G1 X117.607 Y109.555 E0.27716
G1 X117.340 Y109.823 E0.01188
G1 X111.103 Y103.586 E0.27716
G1 X110.836 Y103.853 E0.01188
G1 X117.073 Y110.090 E0.27716
G1 X116.805 Y110.357 E0.01188
G1 X110.569 Y104.121 E0.27716
G1 X110.302 Y104.388 E0.01188
G1 X116.538 Y110.624 E0.27716
G1 X116.271 Y110.892 E0.01188
G1 X110.034 Y104.655 E0.27716
G1 X109.767 Y104.922 E0.01188
G1 X116.004 Y111.159 E0.27716
G1 X115.736 Y111.426 E0.01188
G1 X109.500 Y105.190 E0.27716
G1 X109.233 Y105.457 E0.01188
G1 X115.469 Y111.693 E0.27716
G1 X115.202 Y111.961 E0.01188
G1 X108.966 Y105.724 E0.27716
G1 X108.698 Y105.991 E0.01188
G1 X114.935 Y112.228 E0.27716
G1 X114.667 Y112.495 E0.01188
G1 X108.431 Y106.259 E0.27716
G1 X108.164 Y106.526 E0.01188
G1 X114.400 Y112.762 E0.27716
G1 X114.133 Y113.030 E0.01188
G1 X107.897 Y106.793 E0.27716
G1 X107.629 Y107.060 E0.01188
G1 X113.866 Y113.297 E0.27716
G1 X113.598 Y113.564 E0.01188
G1 X107.362 Y107.328 E0.27716
G1 X107.095 Y107.595 E0.01188
G1 X113.253 Y113.753 E0.27368
G1 X112.719 Y113.753 E0.01680
G1 X106.828 Y107.862 E0.26180
G1 X106.560 Y108.129 E0.01188
G1 X112.184 Y113.753 E0.24993
G1 X111.650 Y113.753 E0.01680
G1 X106.293 Y108.397 E0.23805
G1 X106.173 Y108.517 E0.00534
G1 X106.173 Y108.811 E0.00924
G1 X111.115 Y113.753 E0.21964
G1 X110.581 Y113.753 E0.01680
G1 X106.173 Y109.345 E0.19589
G1 X106.173 Y109.880 E0.01680
G1 X110.046 Y113.753 E0.17213
G1 X109.512 Y113.753 E0.01680
G1 X106.173 Y110.414 E0.14838
G1 X106.173 Y110.949 E0.01680
G1 X108.977 Y113.753 E0.12463
G1 X108.443 Y113.753 E0.01680
G1 X106.003 Y111.314 E0.10842
G1 F5760
G1 X107.555 Y112.865 E-0.76000
G1 E-0.04000 F2100.00000
G1 X122.315 Y101.436 F7200.000
G1 E0.80000 F2100.00000
G1 F1680
G1 X117.784 Y96.905 E0.20134
G1 X118.051 Y96.638 E0.01188
G1 X122.167 Y100.754 E0.18292
G1 X122.150 Y100.502 E0.00794
G1 X122.169 Y100.221 E0.00885
G1 X118.319 Y96.371 E0.17110
G1 X118.443 Y96.247 E0.00550
G1 X118.729 Y96.247 E0.00901
G1 X122.247 Y99.765 E0.15633
G1 X122.387 Y99.370 E0.01316
G1 X119.264 Y96.247 E0.13879
G1 X119.798 Y96.247 E0.01680
G1 X122.570 Y99.019 E0.12318
G1 X122.792 Y98.706 E0.01205
G1 X120.333 Y96.247 E0.10929
G1 X120.867 Y96.247 E0.01680
G1 X123.049 Y98.429 E0.09697
G1 X123.343 Y98.188 E0.01193
G1 X121.402 Y96.247 E0.08626
G1 X121.936 Y96.247 E0.01680
G1 X123.673 Y97.984 E0.07720
G1 X124.045 Y97.821 E0.01275
G1 X122.471 Y96.247 E0.06997
G1 X123.005 Y96.247 E0.01680
G1 X124.466 Y97.707 E0.06490
G1 X124.628 Y97.675 E0.00521
G1 X124.947 Y97.654 E0.01004
G1 X123.540 Y96.247 E0.06254
G1 X124.074 Y96.247 E0.01680
G1 X125.763 Y97.935 E0.07504
G1 F5760
G1 X124.211 Y96.384 E-0.76000
G1 E-0.04000 F2100.00000
G1 X125.591 Y103.109 F7200.000
G1 E0.80000 F2100.00000
G1 F1680
G1 X127.236 Y104.753 E0.07309
G1 X126.701 Y104.753 E0.01680
G1 X125.279 Y103.331 E0.06319
G1 X125.000 Y103.350 E0.00880
G1 X124.747 Y103.333 E0.00798
G1 X126.167 Y104.753 E0.06312
G1 X125.632 Y104.753 E0.01680
G1 X124.065 Y103.185 E0.06968
G1 F5760
G1 X125.616 Y104.737 E-0.76000
G1 E-0.04000 F2100.00000
G1 X136.940 Y113.923 F7200.000
G1 E0.80000 F2100.00000
G1 F1680
G1 X126.130 Y103.113 E0.48039
G1 X126.482 Y102.930 E0.01245
G1 X137.304 Y113.753 E0.48099
G1 X137.839 Y113.753 E0.01680
G1 X126.794 Y102.709 E0.49084
G1 X127.071 Y102.451 E0.01188
G1 X138.373 Y113.753 E0.50229
G1 X138.908 Y113.753 E0.01680
G1 X127.312 Y102.158 E0.51533
G1 X127.516 Y101.827 E0.01221
G1 X139.442 Y113.753 E0.53002
G1 X139.977 Y113.753 E0.01680
G1 X127.679 Y101.455 E0.54655
G1 X127.753 Y101.238 E0.00721
G1 X127.793 Y101.035 E0.00651
G1 X140.511 Y113.753 E0.56523
G1 X141.046 Y113.753 E0.01680
G1 X127.846 Y100.553 E0.58662
G1 X127.825 Y100.128 E0.01337
G1 X127.793 Y99.966 E0.00521
G1 X141.569 Y113.742 E0.61223
G1 X141.836 Y113.474 E0.01188
G1 X124.609 Y96.247 E0.76563
G1 X125.143 Y96.247 E0.01680
G1 X142.103 Y113.207 E0.75375
G1 X142.371 Y112.940 E0.01188
G1 X125.678 Y96.247 E0.74187
G1 X126.212 Y96.247 E0.01680
G1 X142.638 Y112.673 E0.73000
G1 X142.905 Y112.406 E0.01188
G1 X126.747 Y96.247 E0.71812
G1 X127.281 Y96.247 E0.01680
G1 X143.172 Y112.138 E0.70625
G1 X143.440 Y111.871 E0.01188
G1 X127.815 Y96.247 E0.69437
G1 X128.350 Y96.247 E0.01680
G1 X143.707 Y111.604 E0.68249
G1 X143.827 Y111.484 E0.00534
G1 X143.827 Y111.190 E0.00925
G1 X128.884 Y96.247 E0.66408
G1 X129.419 Y96.247 E0.01680
G1 X143.827 Y110.655 E0.64033
G1 X143.827 Y110.121 E0.01680
G1 X129.953 Y96.247 E0.61657
G1 X130.488 Y96.247 E0.01680
