; generated by Slic3r 1.33.8-prusa3d-win64 on 2017-03-23 at 17:56:29

; external perimeters extrusion width = 0.45mm
; perimeters extrusion width = 0.45mm
; infill extrusion width = 0.45mm
; solid infill extrusion width = 0.45mm
; top infill extrusion width = 0.40mm

M107
M115 U3.0.10 ; tell printer latest fw version
M83  ; extruder relative mode
M104 S215 ; set extruder temp
M140 S55 ; set bed temp
M190 S55 ; wait for bed temp
M109 S215 ; wait for extruder temp
G28 W ; home all without mesh bed level
G80 ; mesh bed leveling
G1 Y-3.0 F1000.0 ; go outside pritn area
G1 X60.0 E9.0  F1000.0 ; intro line
G1 X100.0 E12.5  F1000.0 ; intro line
G21 ; set units to millimeters
G90 ; use absolute coordinates
M83 ; use relative distances for extrusion
G1 E-0.80000 F2100.00000
G1 Z0.200 F7200.000
G1 X99.277 Y84.054 F7200.000
G1 E0.80000 F2100.00000
M204 S1000
G1 F2100
G1 X99.549 Y83.708 E0.01383
G1 X100.227 Y82.942 E0.03205
G1 X100.498 Y82.679 E0.01185
G1 X101.119 Y82.133 E0.02595
G1 X101.637 Y81.734 E0.02046
G1 X102.368 Y81.247 E0.02756
G1 X102.765 Y81.018 E0.01437
G1 X103.878 Y80.484 E0.03869
G1 X105.160 Y80.050 E0.04246
G1 X106.504 Y79.777 E0.04300
G1 X107.660 Y79.684 E0.03635
G1 X142.178 Y79.676 E1.08228
G1 X143.457 Y79.771 E0.04023
G1 X144.796 Y80.038 E0.04282
G1 X146.107 Y80.478 E0.04336
G1 X147.220 Y81.011 E0.03869
G1 X147.652 Y81.260 E0.01562
G1 X148.509 Y81.837 E0.03241
G1 X148.816 Y82.077 E0.01221
G1 X149.439 Y82.622 E0.02594
G1 X149.913 Y83.095 E0.02100
G1 X150.499 Y83.765 E0.02792
G1 X150.790 Y84.149 E0.01508
G1 X151.455 Y85.174 E0.03833
G1 X151.916 Y86.093 E0.03222
G1 X152.068 Y86.433 E0.01167
G1 X152.506 Y87.732 E0.04299
G1 X152.775 Y89.066 E0.04266
G1 X152.817 Y89.453 E0.01221
G1 X152.877 Y90.519 E0.03346
G1 X152.869 Y106.153 E0.49022
G1 X152.775 Y107.336 E0.03719
G1 X152.503 Y108.679 E0.04297
G1 X152.069 Y109.963 E0.04248
G1 X151.539 Y111.070 E0.03850
G1 X151.278 Y111.521 E0.01634
G1 X150.648 Y112.447 E0.03509
G1 X149.980 Y113.230 E0.03229
G1 X149.631 Y113.586 E0.01562
G1 X132.543 Y128.966 E0.72084
G1 X132.100 Y129.320 E0.01777
G1 X131.618 Y129.628 E0.01795
G1 X131.005 Y129.926 E0.02136
G1 X130.359 Y130.144 E0.02136
G1 X129.692 Y130.278 E0.02136
G1 X129.006 Y130.327 E0.02154
G1 X120.724 Y130.318 E0.25970
G1 X120.166 Y130.257 E0.01760
G1 X119.617 Y130.137 E0.01759
G1 X119.079 Y129.960 E0.01777
G1 X118.568 Y129.729 E0.01760
G1 X117.993 Y129.385 E0.02100
G1 X117.465 Y128.973 E0.02100
G1 X100.318 Y113.538 E0.72336
G1 X100.054 Y113.267 E0.01185
G1 X99.549 Y112.692 E0.02401
G1 X99.178 Y112.204 E0.01921
G1 X98.550 Y111.236 E0.03617
G1 X97.967 Y110.052 E0.04138
G1 X97.572 Y108.931 E0.03725
G1 X97.426 Y108.383 E0.01777
G1 X97.215 Y107.261 E0.03582
G1 X97.128 Y106.076 E0.03726
G1 X97.129 Y90.287 E0.49506
G1 X97.194 Y89.326 E0.03018
G1 X97.270 Y88.799 E0.01670
G1 X97.493 Y87.737 E0.03402
G1 X97.831 Y86.706 E0.03402
G1 X98.037 Y86.190 E0.01742
G1 X98.509 Y85.239 E0.03331
G1 X98.719 Y84.884 E0.01293
G1 X99.242 Y84.103 E0.02945
G1 F5760
G1 X99.549 Y83.708 E-0.17350
G1 F5760
G1 X100.227 Y82.942 E-0.35403
G1 F5760
G1 X100.498 Y82.679 E-0.13093
G1 F5760
G1 X100.718 Y82.485 E-0.10154
G1 E-0.04000 F2100.00000
G1 X148.394 Y98.390 F7200.000
G1 E0.80000 F2100.00000
G1 F2100
G1 X148.855 Y98.794 E0.01921
G1 X149.056 Y98.995 E0.00890
G1 X149.717 Y99.749 E0.03146
G1 X149.890 Y99.975 E0.00890
G1 X150.448 Y100.809 E0.03146
G1 X150.590 Y101.055 E0.00890
G1 X151.033 Y101.955 E0.03146
G1 X151.142 Y102.217 E0.00890
G1 X151.464 Y103.167 E0.03146
G1 X151.538 Y103.441 E0.00891
G1 X151.734 Y104.426 E0.03146
G1 X151.771 Y104.707 E0.00889
G1 X151.836 Y105.708 E0.03146
G1 X151.836 Y105.992 E0.00891
G1 X151.771 Y106.993 E0.03146
G1 X151.734 Y107.274 E0.00889
G1 X151.538 Y108.259 E0.03146
G1 X151.464 Y108.533 E0.00891
G1 X151.142 Y109.483 E0.03146
G1 X151.033 Y109.745 E0.00890
G1 X150.590 Y110.645 E0.03146
G1 X150.448 Y110.891 E0.00890
G1 X149.890 Y111.725 E0.03146
G1 X149.717 Y111.951 E0.00891
G1 X148.610 Y113.213 E0.05266
G1 X146.904 Y113.986 E0.05873
G1 X137.096 Y113.986 E0.30751
G1 X135.390 Y113.213 E0.05873
G1 X134.283 Y111.951 E0.05266
G1 X134.110 Y111.725 E0.00890
G1 X133.702 Y111.114 E0.02304
G1 X133.298 Y111.114 E0.01264
G1 X132.890 Y111.725 E0.02304
G1 X132.717 Y111.951 E0.00891
G1 X131.610 Y113.213 E0.05266
G1 X131.455 Y113.284 E0.00534
G1 X131.394 Y113.690 E0.01289
G1 X131.855 Y114.094 E0.01921
G1 X132.056 Y114.295 E0.00890
G1 X132.717 Y115.049 E0.03146
G1 X132.890 Y115.275 E0.00890
G1 X133.448 Y116.109 E0.03146
G1 X133.590 Y116.355 E0.00890
G1 X134.033 Y117.255 E0.03146
G1 X134.142 Y117.517 E0.00890
G1 X134.464 Y118.467 E0.03146
G1 X134.538 Y118.741 E0.00891
G1 X134.734 Y119.726 E0.03146
G1 X134.771 Y120.007 E0.00889
G1 X134.836 Y121.008 E0.03146
G1 X134.836 Y121.292 E0.00891
G1 X134.771 Y122.293 E0.03146
G1 X134.734 Y122.574 E0.00889
G1 X134.538 Y123.559 E0.03146
G1 X134.464 Y123.833 E0.00891
G1 X134.142 Y124.783 E0.03146
G1 X134.033 Y125.045 E0.00890
G1 X133.590 Y125.945 E0.03146
G1 X133.448 Y126.191 E0.00890
G1 X132.890 Y127.025 E0.03146
G1 X132.717 Y127.251 E0.00891
G1 X131.610 Y128.513 E0.05266
G1 X129.904 Y129.286 E0.05873
G1 X120.096 Y129.286 E0.30751
G1 X118.390 Y128.513 E0.05873
G1 X117.283 Y127.251 E0.05266
G1 X117.110 Y127.025 E0.00890
G1 X116.552 Y126.191 E0.03146
G1 X116.410 Y125.945 E0.00890
G1 X115.967 Y125.045 E0.03146
G1 X115.858 Y124.783 E0.00890
G1 X115.535 Y123.833 E0.03146
G1 X115.462 Y123.559 E0.00890
G1 X115.266 Y122.575 E0.03146
G1 X115.229 Y122.293 E0.00890
G1 X115.164 Y121.292 E0.03146
G1 X115.164 Y121.008 E0.00890
G1 X115.229 Y120.007 E0.03146
G1 X115.266 Y119.725 E0.00890
G1 X115.462 Y118.741 E0.03146
G1 X115.536 Y118.467 E0.00890
G1 X115.858 Y117.517 E0.03146
G1 X115.967 Y117.255 E0.00890
G1 X116.410 Y116.355 E0.03146
G1 X116.552 Y116.109 E0.00890
G1 X117.110 Y115.275 E0.03146
G1 X117.283 Y115.049 E0.00890
G1 X117.944 Y114.295 E0.03146
G1 X118.145 Y114.094 E0.00890
G1 X118.606 Y113.690 E0.01921
G1 X118.545 Y113.284 E0.01289
G1 X118.390 Y113.213 E0.00534
G1 X117.283 Y111.951 E0.05266
G1 X117.110 Y111.725 E0.00890
G1 X116.702 Y111.114 E0.02304
G1 X116.298 Y111.114 E0.01264
G1 X115.890 Y111.725 E0.02304
G1 X115.717 Y111.951 E0.00891
G1 X114.610 Y113.213 E0.05266
G1 X112.904 Y113.986 E0.05873
G1 X103.096 Y113.986 E0.30751
G1 X101.390 Y113.213 E0.05873
G1 X100.283 Y111.951 E0.05266
G1 X100.110 Y111.725 E0.00890
G1 X99.552 Y110.891 E0.03146
G1 X99.410 Y110.645 E0.00890
G1 X98.967 Y109.745 E0.03146
G1 X98.858 Y109.483 E0.00890
G1 X98.535 Y108.533 E0.03146
G1 X98.462 Y108.259 E0.00890
G1 X98.266 Y107.275 E0.03146
G1 X98.218 Y106.816 E0.01447
G1 X98.164 Y105.992 E0.02588
G1 X98.164 Y105.708 E0.00890
G1 X98.229 Y104.707 E0.03146
G1 X98.266 Y104.425 E0.00890
G1 X98.462 Y103.441 E0.03146
G1 X98.536 Y103.167 E0.00890
G1 X98.858 Y102.217 E0.03146
G1 X98.967 Y101.955 E0.00890
G1 X99.410 Y101.055 E0.03146
G1 X99.651 Y100.661 E0.01447
G1 X100.110 Y99.975 E0.02588
G1 X100.283 Y99.749 E0.00890
G1 X100.944 Y98.995 E0.03146
G1 X101.145 Y98.794 E0.00890
G1 X101.606 Y98.390 E0.01921
G1 X101.545 Y97.984 E0.01289
G1 X101.390 Y97.913 E0.00534
G1 X100.283 Y96.651 E0.05266
G1 X100.110 Y96.425 E0.00890
G1 X99.552 Y95.591 E0.03146
G1 X99.410 Y95.345 E0.00890
G1 X98.967 Y94.445 E0.03146
G1 X98.858 Y94.183 E0.00890
G1 X98.535 Y93.233 E0.03146
G1 X98.462 Y92.959 E0.00890
G1 X98.266 Y91.975 E0.03146
G1 X98.229 Y91.693 E0.00890
G1 X98.164 Y90.692 E0.03146
G1 X98.164 Y90.408 E0.00890
G1 X98.229 Y89.407 E0.03146
G1 X98.266 Y89.125 E0.00890
G1 X98.462 Y88.141 E0.03146
G1 X98.536 Y87.867 E0.00890
G1 X98.858 Y86.917 E0.03146
G1 X98.967 Y86.655 E0.00890
G1 X99.410 Y85.755 E0.03146
G1 X99.651 Y85.361 E0.01447
G1 X100.110 Y84.675 E0.02588
G1 X100.283 Y84.449 E0.00890
G1 X100.944 Y83.695 E0.03146
G1 X101.145 Y83.494 E0.00890
G1 X101.899 Y82.833 E0.03146
G1 X102.125 Y82.660 E0.00890
G1 X102.959 Y82.102 E0.03146
G1 X103.205 Y81.960 E0.00890
G1 X104.105 Y81.517 E0.03146
G1 X104.535 Y81.351 E0.01447
G1 X105.317 Y81.085 E0.02588
G1 X105.591 Y81.012 E0.00890
G1 X106.575 Y80.816 E0.03146
G1 X106.857 Y80.779 E0.00890
G1 X107.858 Y80.714 E0.03146
G1 X108.142 Y80.714 E0.00890
G1 X109.143 Y80.779 E0.03146
G1 X109.425 Y80.816 E0.00890
G1 X110.409 Y81.012 E0.03146
G1 X110.683 Y81.086 E0.00890
G1 X111.633 Y81.408 E0.03146
G1 X111.895 Y81.517 E0.00890
G1 X112.795 Y81.960 E0.03146
G1 X113.041 Y82.102 E0.00890
G1 X113.875 Y82.660 E0.03146
G1 X114.101 Y82.833 E0.00890
G1 X114.855 Y83.494 E0.03146
G1 X115.056 Y83.695 E0.00890
G1 X115.717 Y84.449 E0.03146
G1 X115.890 Y84.675 E0.00890
G1 X116.298 Y85.286 E0.02304
G1 X116.702 Y85.286 E0.01264
G1 X117.110 Y84.675 E0.02304
G1 X117.283 Y84.449 E0.00890
G1 X117.944 Y83.695 E0.03146
G1 X118.145 Y83.494 E0.00890
G1 X118.899 Y82.833 E0.03146
G1 X119.125 Y82.660 E0.00890
G1 X119.959 Y82.102 E0.03146
G1 X120.205 Y81.960 E0.00890
G1 X121.105 Y81.517 E0.03146
G1 X121.367 Y81.408 E0.00890
G1 X122.317 Y81.085 E0.03146
G1 X122.591 Y81.012 E0.00890
G1 X123.575 Y80.816 E0.03146
G1 X123.857 Y80.779 E0.00890
G1 X124.858 Y80.714 E0.03146
G1 X125.142 Y80.714 E0.00890
G1 X126.143 Y80.779 E0.03146
G1 X126.425 Y80.816 E0.00890
G1 X127.409 Y81.012 E0.03146
G1 X127.683 Y81.086 E0.00890
G1 X128.633 Y81.408 E0.03146
G1 X128.895 Y81.517 E0.00890
G1 X129.795 Y81.960 E0.03146
G1 X130.041 Y82.102 E0.00890
G1 X130.875 Y82.660 E0.03146
G1 X131.101 Y82.833 E0.00890
G1 X131.855 Y83.494 E0.03146
G1 X132.056 Y83.695 E0.00890
G1 X132.717 Y84.449 E0.03146
G1 X132.890 Y84.675 E0.00890
G1 X133.298 Y85.286 E0.02304
G1 X133.702 Y85.286 E0.01264
G1 X134.110 Y84.675 E0.02304
G1 X134.283 Y84.449 E0.00890
G1 X134.944 Y83.695 E0.03146
G1 X135.145 Y83.494 E0.00890
G1 X135.899 Y82.833 E0.03146
G1 X136.125 Y82.660 E0.00890
G1 X136.959 Y82.102 E0.03146
G1 X137.205 Y81.960 E0.00890
G1 X138.105 Y81.517 E0.03146
G1 X138.367 Y81.408 E0.00890
G1 X139.317 Y81.085 E0.03146
G1 X139.591 Y81.012 E0.00890
G1 X140.575 Y80.816 E0.03146
G1 X140.857 Y80.779 E0.00890
G1 X141.858 Y80.714 E0.03146
G1 X142.142 Y80.714 E0.00890
G1 X143.143 Y80.779 E0.03146
G1 X143.425 Y80.816 E0.00890
G1 X144.409 Y81.012 E0.03146
G1 X144.683 Y81.086 E0.00890
G1 X145.633 Y81.408 E0.03146
G1 X146.055 Y81.595 E0.01447
G1 X146.795 Y81.960 E0.02588
G1 X147.041 Y82.102 E0.00890
G1 X147.875 Y82.660 E0.03146
G1 X148.101 Y82.833 E0.00890
G1 X148.855 Y83.494 E0.03146
G1 X149.056 Y83.695 E0.00890
G1 X149.717 Y84.449 E0.03146
G1 X149.890 Y84.675 E0.00890
G1 X150.448 Y85.509 E0.03146
G1 X150.590 Y85.755 E0.00890
G1 X151.033 Y86.655 E0.03146
G1 X151.142 Y86.917 E0.00890
G1 X151.464 Y87.867 E0.03146
G1 X151.538 Y88.141 E0.00891
G1 X151.734 Y89.126 E0.03146
G1 X151.771 Y89.407 E0.00889
G1 X151.836 Y90.408 E0.03146
G1 X151.836 Y90.692 E0.00891
G1 X151.771 Y91.693 E0.03146
G1 X151.734 Y91.974 E0.00889
G1 X151.538 Y92.959 E0.03146
G1 X151.464 Y93.233 E0.00891
G1 X151.142 Y94.183 E0.03146
G1 X151.033 Y94.445 E0.00890
G1 X150.590 Y95.345 E0.03146
G1 X150.448 Y95.591 E0.00890
G1 X149.890 Y96.425 E0.03146
G1 X149.717 Y96.651 E0.00891
G1 X148.610 Y97.913 E0.05266
G1 X148.455 Y97.984 E0.00534
G1 X148.403 Y98.331 E0.01101
G1 X147.766 Y97.882 F7200.000
G1 F2100
G1 X147.706 Y98.288 E0.01289
G1 X148.597 Y99.070 E0.03716
G1 X148.780 Y99.253 E0.00813
G1 X149.426 Y99.989 E0.03069
G1 X149.584 Y100.194 E0.00813
G1 X150.127 Y101.008 E0.03069
G1 X150.257 Y101.233 E0.00813
G1 X150.690 Y102.110 E0.03068
G1 X150.789 Y102.350 E0.00812
G1 X151.103 Y103.276 E0.03069
G1 X151.171 Y103.527 E0.00814
G1 X151.361 Y104.487 E0.03068
G1 X151.395 Y104.744 E0.00812
G1 X151.459 Y105.720 E0.03069
G1 X151.459 Y105.980 E0.00814
G1 X151.395 Y106.956 E0.03069
G1 X151.361 Y107.213 E0.00812
G1 X151.171 Y108.173 E0.03068
G1 X151.103 Y108.424 E0.00814
G1 X150.789 Y109.350 E0.03069
G1 X150.690 Y109.590 E0.00812
G1 X150.257 Y110.467 E0.03068
G1 X150.127 Y110.692 E0.00813
G1 X149.584 Y111.506 E0.03068
G1 X149.426 Y111.711 E0.00813
G1 X148.380 Y112.903 E0.04972
G1 X146.822 Y113.609 E0.05362
G1 X137.178 Y113.609 E0.30240
G1 X135.620 Y112.903 E0.05362
G1 X134.574 Y111.711 E0.04972
G1 X134.416 Y111.506 E0.00813
G1 X133.873 Y110.692 E0.03069
G1 X133.718 Y110.423 E0.00973
G1 X133.282 Y110.423 E0.01365
G1 X133.127 Y110.692 E0.00972
G1 X132.584 Y111.506 E0.03068
G1 X132.426 Y111.711 E0.00813
G1 X131.380 Y112.903 E0.04972
G1 X130.766 Y113.182 E0.02113
G1 X130.706 Y113.588 E0.01289
G1 X131.597 Y114.370 E0.03716
G1 X131.780 Y114.553 E0.00813
G1 X132.426 Y115.289 E0.03069
G1 X132.584 Y115.494 E0.00813
G1 X133.127 Y116.308 E0.03069
G1 X133.257 Y116.533 E0.00813
G1 X133.690 Y117.410 E0.03068
G1 X133.789 Y117.650 E0.00812
G1 X134.103 Y118.576 E0.03069
G1 X134.171 Y118.827 E0.00814
G1 X134.361 Y119.787 E0.03068
G1 X134.395 Y120.044 E0.00812
G1 X134.459 Y121.020 E0.03069
G1 X134.459 Y121.280 E0.00814
G1 X134.395 Y122.256 E0.03069
G1 X134.361 Y122.513 E0.00812
G1 X134.171 Y123.473 E0.03068
G1 X134.103 Y123.724 E0.00814
G1 X133.789 Y124.650 E0.03069
G1 X133.690 Y124.890 E0.00812
G1 X133.257 Y125.767 E0.03068
G1 X133.127 Y125.992 E0.00813
G1 X132.584 Y126.806 E0.03068
G1 X132.426 Y127.011 E0.00813
G1 X131.380 Y128.203 E0.04972
G1 X129.822 Y128.909 E0.05362
G1 X120.178 Y128.909 E0.30240
G1 X118.620 Y128.203 E0.05362
G1 X117.574 Y127.011 E0.04972
G1 X117.416 Y126.806 E0.00813
G1 X116.873 Y125.992 E0.03069
G1 X116.743 Y125.767 E0.00813
G1 X116.310 Y124.890 E0.03068
G1 X116.211 Y124.650 E0.00813
G1 X115.897 Y123.723 E0.03069
G1 X115.829 Y123.473 E0.00813
G1 X115.639 Y122.513 E0.03068
G1 X115.605 Y122.256 E0.00813
G1 X115.541 Y121.280 E0.03069
G1 X115.551 Y120.855 E0.01331
G1 X115.605 Y120.044 E0.02550
G1 X115.639 Y119.787 E0.00813
G1 X115.829 Y118.827 E0.03068
G1 X115.897 Y118.577 E0.00813
G1 X116.211 Y117.650 E0.03068
G1 X116.384 Y117.262 E0.01331
G1 X116.743 Y116.533 E0.02550
G1 X116.873 Y116.308 E0.00813
G1 X117.417 Y115.494 E0.03069
G1 X117.574 Y115.289 E0.00813
G1 X118.220 Y114.553 E0.03069
G1 X118.403 Y114.370 E0.00813
G1 X119.294 Y113.588 E0.03716
G1 X119.234 Y113.182 E0.01289
G1 X118.620 Y112.903 E0.02113
G1 X117.574 Y111.711 E0.04972
G1 X117.416 Y111.506 E0.00813
G1 X116.873 Y110.692 E0.03069
G1 X116.718 Y110.423 E0.00973
G1 X116.282 Y110.423 E0.01365
G1 X116.127 Y110.692 E0.00972
G1 X115.584 Y111.506 E0.03068
G1 X115.426 Y111.711 E0.00813
G1 X114.380 Y112.903 E0.04972
G1 X112.822 Y113.609 E0.05362
G1 X103.178 Y113.609 E0.30240
G1 X101.620 Y112.903 E0.05362
G1 X100.574 Y111.711 E0.04972
G1 X100.416 Y111.506 E0.00813
G1 X99.873 Y110.692 E0.03069
G1 X99.743 Y110.467 E0.00813
G1 X99.310 Y109.590 E0.03068
G1 X99.211 Y109.350 E0.00813
G1 X98.897 Y108.423 E0.03069
G1 X98.829 Y108.173 E0.00813
G1 X98.639 Y107.213 E0.03068
G1 X98.605 Y106.956 E0.00813
G1 X98.541 Y105.980 E0.03069
G1 X98.541 Y105.720 E0.00813
G1 X98.605 Y104.744 E0.03069
G1 X98.639 Y104.487 E0.00813
G1 X98.829 Y103.527 E0.03068
G1 X98.897 Y103.277 E0.00813
G1 X99.211 Y102.350 E0.03068
G1 X99.310 Y102.110 E0.00813
G1 X99.743 Y101.233 E0.03069
G1 X99.873 Y101.008 E0.00813
G1 X100.417 Y100.194 E0.03069
G1 X100.574 Y99.989 E0.00813
G1 X101.220 Y99.253 E0.03069
G1 X101.403 Y99.070 E0.00813
G1 X102.294 Y98.288 E0.03716
G1 X102.234 Y97.882 E0.01289
G1 X101.620 Y97.603 E0.02113
G1 X100.574 Y96.411 E0.04972
G1 X100.416 Y96.206 E0.00813
G1 X99.873 Y95.392 E0.03069
G1 X99.743 Y95.167 E0.00813
G1 X99.310 Y94.290 E0.03068
G1 X99.211 Y94.050 E0.00813
G1 X98.897 Y93.123 E0.03069
G1 X98.829 Y92.873 E0.00813
G1 X98.639 Y91.913 E0.03068
G1 X98.594 Y91.491 E0.01331
G1 X98.541 Y90.680 E0.02549
G1 X98.541 Y90.420 E0.00813
G1 X98.605 Y89.444 E0.03069
G1 X98.639 Y89.187 E0.00813
G1 X98.829 Y88.227 E0.03068
G1 X98.897 Y87.977 E0.00813
G1 X99.211 Y87.050 E0.03068
G1 X99.310 Y86.810 E0.00813
G1 X99.743 Y85.933 E0.03069
G1 X99.873 Y85.708 E0.00813
G1 X100.417 Y84.894 E0.03069
G1 X100.574 Y84.689 E0.00813
G1 X101.220 Y83.953 E0.03069
G1 X101.403 Y83.770 E0.00813
G1 X102.139 Y83.124 E0.03069
G1 X102.344 Y82.967 E0.00813
G1 X103.158 Y82.423 E0.03069
G1 X103.383 Y82.293 E0.00813
G1 X104.260 Y81.860 E0.03069
G1 X104.500 Y81.761 E0.00813
G1 X105.427 Y81.447 E0.03069
G1 X105.677 Y81.379 E0.00813
G1 X106.637 Y81.189 E0.03068
