; generated by Slic3r 1.33.8-prusa3d-win64 on 2017-03-23 at 17:51:30

; external perimeters extrusion width = 0.45mm
; perimeters extrusion width = 0.45mm
; infill extrusion width = 0.45mm
; solid infill extrusion width = 0.45mm
; top infill extrusion width = 0.40mm

M107
M115 U3.0.10 ; tell printer latest fw version
M83  ; extruder relative mode
M104 S215 ; set extruder temp
M140 S55 ; set bed temp
M190 S55 ; wait for bed temp
M109 S215 ; wait for extruder temp
G28 W ; home all without mesh bed level
G80 ; mesh bed leveling
G1 Y-3.0 F1000.0 ; go outside pritn area
G1 X60.0 E9.0  F1000.0 ; intro line
G1 X100.0 E12.5  F1000.0 ; intro line
G21 ; set units to millimeters
G90 ; use absolute coordinates
M83 ; use relative distances for extrusion
G1 E-0.80000 F2100.00000
G1 Z0.200 F7200.000
G1 X116.098 Y103.926 F7200.000
G1 E0.80000 F2100.00000
M204 S1000
G1 F1605.688
G1 X122.789 Y97.226 E0.29690
G1 X123.102 Y96.953 E0.01301
G1 X123.410 Y96.746 E0.01164
G1 X123.740 Y96.576 E0.01164
G1 X124.089 Y96.447 E0.01164
G1 X124.450 Y96.360 E0.01164
G1 X124.818 Y96.317 E0.01164
G1 X125.190 Y96.317 E0.01164
G1 X125.559 Y96.362 E0.01164
G1 X125.919 Y96.450 E0.01164
G1 X126.255 Y96.574 E0.01123
G1 X126.579 Y96.739 E0.01137
G1 X126.877 Y96.937 E0.01123
G1 X127.154 Y97.171 E0.01137
G1 X133.778 Y103.793 E0.29369
G1 X133.985 Y104.024 E0.00973
G1 X134.168 Y104.275 E0.00973
G1 X134.367 Y104.624 E0.01260
G1 X134.518 Y104.992 E0.01247
G1 X134.621 Y105.376 E0.01247
G1 X134.675 Y105.774 E0.01260
G1 X134.681 Y108.772 E0.09401
G1 X134.641 Y109.181 E0.01288
G1 X134.546 Y109.585 E0.01301
G1 X134.439 Y109.881 E0.00986
G1 X134.302 Y110.164 E0.00986
G1 X134.141 Y110.429 E0.00973
G1 X133.951 Y110.680 E0.00986
G1 X131.852 Y112.796 E0.09345
G1 X131.543 Y113.060 E0.01274
G1 X131.203 Y113.283 E0.01274
G1 X130.841 Y113.458 E0.01260
G1 X130.456 Y113.586 E0.01274
G1 X130.079 Y113.660 E0.01205
G1 X129.695 Y113.688 E0.01205
G1 X120.329 Y113.688 E0.29367
G1 X119.876 Y113.654 E0.01424
G1 X119.429 Y113.553 E0.01438
G1 X119.076 Y113.423 E0.01178
G1 X118.746 Y113.253 E0.01164
G1 X118.434 Y113.043 E0.01178
G1 X118.150 Y112.797 E0.01178
G1 X116.073 Y110.708 E0.09236
G1 X115.896 Y110.481 E0.00904
G1 X115.737 Y110.235 E0.00918
G1 X115.605 Y109.979 E0.00904
G1 X115.495 Y109.708 E0.00918
G1 X115.374 Y109.261 E0.01452
G1 X115.319 Y108.796 E0.01465
G1 X115.317 Y105.982 E0.08825
G1 X115.332 Y105.689 E0.00918
G1 X115.413 Y105.225 E0.01479
G1 X115.565 Y104.773 E0.01493
G1 X115.781 Y104.354 E0.01479
G1 X116.059 Y103.971 E0.01483
G1 X116.365 Y104.193 F7200.000
G1 F1605.688
G1 X123.055 Y97.493 E0.29689
G1 X123.298 Y97.278 E0.01015
G1 X123.567 Y97.091 E0.01028
G1 X123.857 Y96.937 E0.01028
G1 X124.162 Y96.819 E0.01028
G1 X124.480 Y96.738 E0.01028
G1 X124.805 Y96.696 E0.01028
G1 X125.133 Y96.692 E0.01028
G1 X125.459 Y96.727 E0.01028
G1 X125.778 Y96.801 E0.01028
G1 X126.083 Y96.911 E0.01015
G1 X126.376 Y97.057 E0.01028
G1 X126.646 Y97.235 E0.01015
G1 X126.897 Y97.446 E0.01028
G1 X133.508 Y104.056 E0.29312
G1 X133.686 Y104.254 E0.00835
G1 X133.844 Y104.468 E0.00835
G1 X134.021 Y104.774 E0.01105
G1 X134.158 Y105.103 E0.01118
G1 X134.251 Y105.447 E0.01118
G1 X134.299 Y105.800 E0.01118
G1 X134.305 Y108.745 E0.09235
G1 X134.272 Y109.100 E0.01118
G1 X134.194 Y109.444 E0.01105
G1 X134.101 Y109.711 E0.00887
G1 X133.978 Y109.970 E0.00899
G1 X133.830 Y110.216 E0.00899
G1 X133.656 Y110.444 E0.00899
G1 X131.592 Y112.522 E0.09183
G1 X131.319 Y112.757 E0.01130
G1 X131.014 Y112.957 E0.01143
G1 X130.689 Y113.113 E0.01130
G1 X130.346 Y113.225 E0.01130
G1 X130.020 Y113.288 E0.01041
G1 X129.685 Y113.311 E0.01053
G1 X120.334 Y113.311 E0.29321
G1 X119.950 Y113.284 E0.01207
G1 X119.569 Y113.202 E0.01220
G1 X119.257 Y113.090 E0.01041
G1 X118.956 Y112.940 E0.01053
G1 X118.676 Y112.754 E0.01053
G1 X118.421 Y112.535 E0.01053
G1 X116.375 Y110.480 E0.09094
G1 X116.077 Y110.069 E0.01592
G1 X115.859 Y109.606 E0.01605
G1 X115.746 Y109.199 E0.01323
G1 X115.696 Y108.776 E0.01336
G1 X115.704 Y105.757 E0.09466
G1 X115.772 Y105.345 E0.01310
G1 X115.899 Y104.951 E0.01297
G1 X116.086 Y104.578 E0.01310
G1 X116.326 Y104.239 E0.01302
G1 X116.633 Y104.460 F7200.000
G1 F1605.688
G1 X123.319 Y97.762 E0.29674
G1 X123.503 Y97.596 E0.00776
G1 X123.735 Y97.430 E0.00895
G1 X123.982 Y97.295 E0.00883
G1 X124.247 Y97.188 E0.00895
G1 X124.523 Y97.114 E0.00895
G1 X124.802 Y97.074 E0.00883
G1 X125.087 Y97.067 E0.00895
G1 X125.367 Y97.094 E0.00883
G1 X125.646 Y97.155 E0.00895
G1 X125.916 Y97.249 E0.00895
G1 X126.176 Y97.377 E0.00907
G1 X126.418 Y97.535 E0.00907
G1 X126.639 Y97.721 E0.00907
G1 X133.241 Y104.322 E0.29271
G1 X133.523 Y104.666 E0.01395
G1 X133.680 Y104.936 E0.00979
G1 X133.801 Y105.224 E0.00979
G1 X133.882 Y105.525 E0.00979
G1 X133.924 Y105.834 E0.00979
G1 X133.928 Y108.724 E0.09061
G1 X133.903 Y109.020 E0.00931
G1 X133.839 Y109.314 E0.00943
G1 X133.757 Y109.556 E0.00800
G1 X133.649 Y109.787 E0.00800
G1 X133.517 Y110.005 E0.00800
G1 X133.360 Y110.211 E0.00812
G1 X131.330 Y112.251 E0.09025
G1 X131.090 Y112.457 E0.00991
G1 X130.826 Y112.630 E0.00991
G1 X130.540 Y112.766 E0.00991
G1 X130.240 Y112.863 E0.00991
G1 X129.963 Y112.915 E0.00883
G1 X129.678 Y112.934 E0.00895
G1 X120.334 Y112.934 E0.29298
G1 X120.011 Y112.912 E0.01014
G1 X119.698 Y112.846 E0.01002
G1 X119.421 Y112.750 E0.00919
G1 X119.158 Y112.621 E0.00919
G1 X118.913 Y112.460 E0.00919
G1 X118.690 Y112.270 E0.00919
G1 X116.673 Y110.248 E0.08954
G1 X116.411 Y109.893 E0.01383
G1 X116.220 Y109.496 E0.01383
G1 X116.117 Y109.133 E0.01181
G1 X116.073 Y108.759 E0.01181
G1 X116.078 Y105.816 E0.09228
G1 X116.131 Y105.462 E0.01122
G1 X116.238 Y105.121 E0.01122
G1 X116.394 Y104.799 E0.01122
G1 X116.595 Y104.506 E0.01113
G1 F5760
G1 X118.144 Y102.953 E-0.76000
G1 E-0.04000 F2100.00000
G1 X125.000 Y107.204 F7200.000
G1 E0.80000 F2100.00000
G1 F900.000
G1 X122.611 Y109.593 E0.10594
G1 X120.737 Y109.593 E0.05875
G1 X119.412 Y108.268 E0.05875
G1 X119.412 Y106.394 E0.05875
G1 X125.000 Y100.806 E0.24777
G1 X130.588 Y106.394 E0.24777
G1 X130.588 Y108.268 E0.05875
G1 X129.263 Y109.593 E0.05875
G1 X127.389 Y109.593 E0.05875
G1 X125.042 Y107.246 E0.10406
G1 X125.000 Y107.737 F7200.000
G1 F900.000
G1 X122.767 Y109.970 E0.09901
G1 X120.581 Y109.970 E0.06854
G1 X119.035 Y108.424 E0.06854
G1 X119.035 Y106.238 E0.06854
G1 X125.000 Y100.273 E0.26449
G1 X130.965 Y106.238 E0.26449
G1 X130.965 Y108.424 E0.06854
G1 X129.419 Y109.970 E0.06854
G1 X127.233 Y109.970 E0.06855
G1 X125.042 Y107.780 E0.09713
G1 X125.000 Y108.270 F7200.000
G1 F900.000
G1 X122.923 Y110.347 E0.09208
G1 X120.425 Y110.347 E0.07834
G1 X118.658 Y108.580 E0.07834
G1 X118.658 Y106.082 E0.07834
G1 X125.000 Y99.740 E0.28121
G1 X131.342 Y106.082 E0.28121
G1 X131.342 Y108.580 E0.07834
G1 X129.575 Y110.347 E0.07834
G1 X127.077 Y110.347 E0.07834
G1 X125.042 Y108.313 E0.09020
G1 X124.685 Y108.023 F7200.000
G1 F5760
G1 X123.459 Y109.832 E-0.76000
G1 E-0.04000 F2100.00000
G1 X119.525 Y107.970 F7200.000
G1 E0.80000 F2100.00000
G1 F1284.551
G1 X120.865 Y109.310 E0.06193
G1 X121.421 Y109.310 E0.01816
G1 X119.695 Y107.584 E0.07977
G1 X119.695 Y107.028 E0.01816
G1 X121.977 Y109.310 E0.10546
G1 X122.494 Y109.310 E0.01689
G1 X122.513 Y109.291 E0.00090
G1 X119.715 Y106.492 E0.12934
G1 X119.992 Y106.214 E0.01284
G1 X122.791 Y109.013 E0.12934
G1 X123.069 Y108.735 E0.01284
G1 X120.270 Y105.936 E0.12934
G1 X120.548 Y105.658 E0.01284
G1 X123.347 Y108.457 E0.12934
G1 X123.625 Y108.179 E0.01284
G1 X120.826 Y105.380 E0.12934
G1 X121.104 Y105.102 E0.01284
G1 X123.903 Y107.901 E0.12934
G1 X124.181 Y107.623 E0.01284
G1 X121.382 Y104.825 E0.12934
G1 X121.660 Y104.547 E0.01284
G1 X124.458 Y107.345 E0.12934
G1 X124.736 Y107.068 E0.01284
G1 X121.938 Y104.269 E0.12934
G1 X122.215 Y103.991 E0.01284
G1 X127.535 Y109.310 E0.24582
G1 X128.090 Y109.310 E0.01816
G1 X122.493 Y103.713 E0.25866
G1 X122.771 Y103.435 E0.01284
G1 X128.646 Y109.310 E0.27150
G1 X129.146 Y109.310 E0.01632
G1 X129.174 Y109.282 E0.00130
G1 X123.049 Y103.157 E0.28304
G1 X123.327 Y102.879 E0.01284
G1 X129.452 Y109.004 E0.28304
G1 X129.730 Y108.726 E0.01284
G1 X123.605 Y102.601 E0.28304
G1 X123.883 Y102.324 E0.01284
G1 X130.008 Y108.448 E0.28304
G1 X130.285 Y108.170 E0.01284
G1 X124.161 Y102.046 E0.28304
G1 X124.439 Y101.768 E0.01284
G1 X130.305 Y107.634 E0.27110
G1 X130.305 Y107.078 E0.01816
G1 X124.716 Y101.490 E0.25826
G1 X124.994 Y101.212 E0.01284
G1 X130.475 Y106.692 E0.25326
M106 S255
M104 S205 ; set temperature
G1 F5760
G1 X128.923 Y105.141 E-0.76000
G1 E-0.04000 F2100.00000
G1 Z0.400 F7200.000
G1 X125.000 Y107.098 F7200.000
G1 E0.80000 F2100.00000
M204 S800
G1 F900.000
G1 X122.580 Y109.518 E0.11585
G1 X120.768 Y109.518 E0.06132
G1 X119.487 Y108.237 E0.06132
G1 X119.487 Y106.425 E0.06132
G1 X125.000 Y100.913 E0.26389
G1 X130.513 Y106.425 E0.26389
G1 X130.513 Y108.237 E0.06132
G1 X129.232 Y109.518 E0.06132
G1 X127.420 Y109.518 E0.06132
G1 X125.042 Y107.140 E0.11382
M204 S1000
G1 X125.000 Y107.673 F7200.000
M204 S800
G1 F900.000
G1 X122.748 Y109.925 E0.10778
G1 X120.600 Y109.925 E0.07274
G1 X119.080 Y108.406 E0.07274
G1 X119.080 Y106.257 E0.07274
G1 X125.000 Y100.337 E0.28338
G1 X130.920 Y106.257 E0.28338
G1 X130.920 Y108.406 E0.07274
G1 X129.400 Y109.925 E0.07274
G1 X127.252 Y109.925 E0.07274
G1 X125.042 Y107.716 E0.10575
M204 S1000
G1 X125.000 Y108.249 F7200.000
M204 S800
G1 F900.000
G1 X122.917 Y110.332 E0.09971
G1 X120.431 Y110.332 E0.08415
G1 X118.673 Y108.574 E0.08415
G1 X118.673 Y106.088 E0.08415
G1 X125.000 Y99.761 E0.30287
G1 X131.327 Y106.088 E0.30287
G1 X131.327 Y108.574 E0.08415
G1 X129.569 Y110.332 E0.08415
G1 X127.083 Y110.332 E0.08415
G1 X125.042 Y108.292 E0.09768
M204 S1000
G1 X124.686 Y108.002 F7200.000
G1 F5760
G1 X123.460 Y109.811 E-0.76000
G1 E-0.04000 F2100.00000
G1 X122.338 Y109.396 F7200.000
G1 E0.80000 F2100.00000
M204 S2000
G1 F900.000
G1 X127.695 Y104.039 E0.26618
G1 X127.993 Y104.338 E0.01485
G1 X125.333 Y106.999 E0.13222
G1 X125.631 Y107.297 E0.01485
G1 X128.292 Y104.636 E0.13222
G1 X128.591 Y104.935 E0.01485
G1 X125.930 Y107.596 E0.13222
G1 X126.229 Y107.895 E0.01485
G1 X128.890 Y105.234 E0.13222
G1 X129.189 Y105.533 E0.01485
G1 X126.528 Y108.194 E0.13222
G1 X126.826 Y108.492 E0.01485
G1 X129.487 Y105.832 E0.13222
G1 X129.786 Y106.130 E0.01485
G1 X127.125 Y108.791 E0.13222
G1 X127.424 Y109.090 E0.01485
G1 X130.085 Y106.429 E0.13222
G1 X130.207 Y106.552 E0.00609
G1 X130.207 Y106.904 E0.01239
G1 X127.899 Y109.213 E0.11470
G1 X128.497 Y109.213 E0.02100
G1 X130.207 Y107.502 E0.08501
G1 X130.207 Y108.099 E0.02100
G1 X128.911 Y109.396 E0.06442
M204 S1000
G1 F5760
G1 X130.207 Y108.099 E-0.63498
G1 F5760
G1 X130.207 Y107.738 E-0.12502
G1 E-0.04000 F2100.00000
G1 X121.740 Y109.396 F7200.000
G1 E0.80000 F2100.00000
M204 S2000
G1 F900.000
G1 X127.396 Y103.740 E0.28103
G1 X127.097 Y103.441 E0.01485
G1 X121.326 Y109.213 E0.28678
G1 X120.895 Y109.213 E0.01514
G1 X120.811 Y109.129 E0.00414
G1 X126.798 Y103.142 E0.29748
G1 X126.499 Y102.844 E0.01485
G1 X120.513 Y108.831 E0.29748
G1 X120.214 Y108.532 E0.01485
G1 X126.201 Y102.545 E0.29748
G1 X125.902 Y102.246 E0.01485
G1 X119.915 Y108.233 E0.29748
G1 X119.793 Y108.110 E0.00609
G1 X119.793 Y107.758 E0.01239
G1 X125.603 Y101.947 E0.28872
G1 X125.304 Y101.649 E0.01485
G1 X119.793 Y107.160 E0.27388
G1 X119.793 Y106.563 E0.02100
G1 X125.135 Y101.220 E0.26546
M204 S1000
G1 F5760
G1 X123.583 Y102.772 E-0.76000
G1 E-0.04000 F2100.00000
G1 Z0.600 F7200.000
G1 X125.000 Y107.098 F7200.000
G1 E0.80000 F2100.00000
M204 S800
G1 F900.000
G1 X122.580 Y109.518 E0.11585
G1 X120.768 Y109.518 E0.06132
G1 X119.487 Y108.237 E0.06132
G1 X119.487 Y106.425 E0.06132
G1 X125.000 Y100.913 E0.26389
G1 X130.513 Y106.425 E0.26389
G1 X130.513 Y108.237 E0.06132
G1 X129.232 Y109.518 E0.06132
G1 X127.420 Y109.518 E0.06132
G1 X125.042 Y107.140 E0.11382
M204 S1000
G1 X125.000 Y107.673 F7200.000
M204 S800
G1 F900.000
G1 X122.748 Y109.925 E0.10778
G1 X120.600 Y109.925 E0.07274
G1 X119.080 Y108.406 E0.07274
G1 X119.080 Y106.257 E0.07274
G1 X125.000 Y100.337 E0.28338
G1 X130.920 Y106.257 E0.28338
G1 X130.920 Y108.406 E0.07274
G1 X129.400 Y109.925 E0.07274
G1 X127.252 Y109.925 E0.07274
G1 X125.042 Y107.716 E0.10575
M204 S1000
G1 X125.000 Y108.249 F7200.000
M204 S800
G1 F900.000
G1 X122.917 Y110.332 E0.09971
G1 X120.431 Y110.332 E0.08415
G1 X118.673 Y108.574 E0.08415
G1 X118.673 Y106.088 E0.08415
G1 X125.000 Y99.761 E0.30287
G1 X131.327 Y106.088 E0.30287
G1 X131.327 Y108.574 E0.08415
G1 X129.569 Y110.332 E0.08415
G1 X127.083 Y110.332 E0.08415
G1 X125.042 Y108.292 E0.09768
M204 S1000
G1 X124.686 Y108.002 F7200.000
G1 F5760
G1 X123.460 Y109.811 E-0.76000
G1 E-0.04000 F2100.00000
G1 X119.609 Y107.916 F7200.000
G1 E0.80000 F2100.00000
M204 S2000
G1 F900.000
G1 X120.906 Y109.213 E0.06441
G1 X121.503 Y109.213 E0.02100
G1 X119.793 Y107.502 E0.08500
G1 X119.793 Y106.904 E0.02100
G1 X122.101 Y109.213 E0.11469
G1 X122.453 Y109.213 E0.01239
G1 X122.576 Y109.090 E0.00609
G1 X119.915 Y106.429 E0.13222
G1 X120.214 Y106.130 E0.01485
G1 X122.875 Y108.791 E0.13222
G1 X123.173 Y108.493 E0.01485
G1 X120.513 Y105.832 E0.13222
G1 X120.811 Y105.533 E0.01485
G1 X123.472 Y108.194 E0.13222
G1 X123.771 Y107.895 E0.01485
G1 X121.110 Y105.234 E0.13222
G1 X121.409 Y104.935 E0.01485
G1 X124.070 Y107.596 E0.13222
G1 X124.369 Y107.297 E0.01485
G1 X121.708 Y104.637 E0.13222
G1 X122.007 Y104.338 E0.01485
G1 X124.667 Y106.999 E0.13222
G1 X124.966 Y106.700 E0.01485
G1 X122.305 Y104.039 E0.13222
G1 X122.604 Y103.740 E0.01485
G1 X128.077 Y109.213 E0.27193
G1 X128.674 Y109.213 E0.02100
G1 X122.903 Y103.441 E0.28677
G1 X123.202 Y103.143 E0.01485
G1 X129.189 Y109.129 E0.29748
G1 X129.487 Y108.831 E0.01485
G1 X123.501 Y102.844 E0.29748
G1 X123.799 Y102.545 E0.01485
G1 X129.786 Y108.532 E0.29748
G1 X130.085 Y108.233 E0.01485
G1 X124.098 Y102.246 E0.29748
G1 X124.397 Y101.947 E0.01485
G1 X130.207 Y107.758 E0.28872
G1 X130.207 Y107.160 E0.02100
G1 X124.696 Y101.649 E0.27388
G1 X124.994 Y101.350 E0.01485
G1 X130.391 Y106.746 E0.26813
M204 S1000
G1 F5760
G1 X128.839 Y105.194 E-0.76000
G1 E-0.04000 F2100.00000
G1 Z0.800 F7200.000
G1 X125.000 Y107.098 F7200.000
G1 E0.80000 F2100.00000
M204 S800
G1 F900.000
G1 X122.580 Y109.518 E0.11585
G1 X120.768 Y109.518 E0.06132
G1 X119.487 Y108.237 E0.06132
G1 X119.487 Y106.425 E0.06132
G1 X125.000 Y100.913 E0.26389
G1 X130.513 Y106.425 E0.26389
G1 X130.513 Y108.237 E0.06132
G1 X129.232 Y109.518 E0.06132
G1 X127.420 Y109.518 E0.06132
G1 X125.042 Y107.140 E0.11382
M204 S1000
G1 X125.000 Y107.673 F7200.000
M204 S800
G1 F900.000
G1 X122.748 Y109.925 E0.10778
G1 X120.600 Y109.925 E0.07274
G1 X119.080 Y108.406 E0.07274
G1 X119.080 Y106.257 E0.07274
G1 X125.000 Y100.337 E0.28338
G1 X130.920 Y106.257 E0.28338
G1 X130.920 Y108.406 E0.07274
G1 X129.400 Y109.925 E0.07274
G1 X127.252 Y109.925 E0.07274
G1 X125.042 Y107.716 E0.10575
M204 S1000
G1 X125.000 Y108.249 F7200.000
M204 S800
G1 F900.000
G1 X122.917 Y110.332 E0.09971
G1 X120.431 Y110.332 E0.08415
G1 X118.673 Y108.574 E0.08415
G1 X118.673 Y106.088 E0.08415
G1 X125.000 Y99.761 E0.30287
G1 X131.327 Y106.088 E0.30287
G1 X131.327 Y108.574 E0.08415
G1 X129.569 Y110.332 E0.08415
G1 X127.083 Y110.332 E0.08415
G1 X125.042 Y108.292 E0.09768
M204 S1000
G1 X124.686 Y108.002 F7200.000
G1 F5760
G1 X123.460 Y109.811 E-0.76000
G1 E-0.04000 F2100.00000
G1 X122.338 Y109.396 F7200.000
G1 E0.80000 F2100.00000
M204 S2000
G1 F900.000
G1 X127.695 Y104.039 E0.26618
G1 X127.993 Y104.338 E0.01485
G1 X125.333 Y106.999 E0.13222
G1 X125.631 Y107.297 E0.01485
G1 X128.292 Y104.636 E0.13222
G1 X128.591 Y104.935 E0.01485
G1 X125.930 Y107.596 E0.13222
G1 X126.229 Y107.895 E0.01485
G1 X128.890 Y105.234 E0.13222
G1 X129.189 Y105.533 E0.01485
G1 X126.528 Y108.194 E0.13222
G1 X126.826 Y108.492 E0.01485
G1 X129.487 Y105.832 E0.13222
G1 X129.786 Y106.130 E0.01485
G1 X127.125 Y108.791 E0.13222
G1 X127.424 Y109.090 E0.01485
G1 X130.085 Y106.429 E0.13222
G1 X130.207 Y106.552 E0.00609
G1 X130.207 Y106.904 E0.01239
G1 X127.899 Y109.213 E0.11470
G1 X128.497 Y109.213 E0.02100
G1 X130.207 Y107.502 E0.08501
G1 X130.207 Y108.099 E0.02100
G1 X128.911 Y109.396 E0.06442
