; generated by Slic3r 1.33.8-prusa3d-win64 on 2017-03-23 at 17:52:00

; external perimeters extrusion width = 0.45mm
; perimeters extrusion width = 0.45mm
; infill extrusion width = 0.45mm
; solid infill extrusion width = 0.45mm
; top infill extrusion width = 0.40mm

M107
M115 U3.0.10 ; tell printer latest fw version
M83  ; extruder relative mode
M104 S215 ; set extruder temp
M140 S55 ; set bed temp
M190 S55 ; wait for bed temp
M109 S215 ; wait for extruder temp
G28 W ; home all without mesh bed level
G80 ; mesh bed leveling
G1 Y-3.0 F1000.0 ; go outside pritn area
G1 X60.0 E9.0  F1000.0 ; intro line
G1 X100.0 E12.5  F1000.0 ; intro line
G21 ; set units to millimeters
G90 ; use absolute coordinates
M83 ; use relative distances for extrusion
G1 E-0.80000 F2100.00000
G1 Z0.200 F7200.000
G1 X116.285 Y97.021 F7200.000
G1 E0.80000 F2100.00000
M204 S1000
G1 F2100
G1 X116.468 Y96.780 E0.00951
G1 X116.677 Y96.560 E0.00951
G1 X117.856 Y95.542 E0.04886
G1 X119.073 Y94.734 E0.04579
G1 X120.392 Y94.079 E0.04618
G1 X121.771 Y93.598 E0.04579
G1 X122.092 Y93.512 E0.01041
G1 X123.461 Y93.246 E0.04374
G1 X124.926 Y93.147 E0.04605
G1 X126.384 Y93.231 E0.04579
G1 X126.713 Y93.274 E0.01041
G1 X128.080 Y93.553 E0.04374
G1 X129.521 Y94.042 E0.04772
G1 X130.790 Y94.660 E0.04425
G1 X131.074 Y94.825 E0.01028
G1 X132.223 Y95.601 E0.04348
G1 X133.332 Y96.569 E0.04618
G1 X133.585 Y96.844 E0.01169
G1 X133.797 Y97.150 E0.01169
G1 X136.181 Y101.278 E0.14947
G1 X136.330 Y101.580 E0.01053
G1 X136.475 Y102.032 E0.01489
G1 X136.744 Y103.392 E0.04347
G1 X136.854 Y104.984 E0.05002
G1 X136.745 Y106.600 E0.05080
G1 X136.477 Y107.961 E0.04348
G1 X136.339 Y108.398 E0.01438
G1 X136.181 Y108.722 E0.01130
G1 X133.808 Y112.833 E0.14883
G1 X133.637 Y113.089 E0.00964
G1 X133.436 Y113.327 E0.00976
G1 X132.343 Y114.301 E0.04591
G1 X132.080 Y114.503 E0.01041
G1 X130.916 Y115.272 E0.04374
G1 X129.548 Y115.947 E0.04784
G1 X128.217 Y116.406 E0.04413
G1 X127.896 Y116.490 E0.01041
G1 X126.535 Y116.754 E0.04348
G1 X125.016 Y116.854 E0.04772
G1 X123.607 Y116.769 E0.04425
G1 X123.279 Y116.724 E0.01041
G1 X121.916 Y116.446 E0.04361
G1 X120.475 Y115.956 E0.04772
G1 X119.210 Y115.340 E0.04413
G1 X118.930 Y115.177 E0.01015
G1 X117.777 Y114.399 E0.04360
G1 X116.674 Y113.436 E0.04593
G1 X116.418 Y113.159 E0.01182
G1 X116.203 Y112.850 E0.01182
G1 X113.819 Y108.722 E0.14947
G1 X113.672 Y108.424 E0.01041
G1 X113.526 Y107.972 E0.01489
G1 X113.257 Y106.612 E0.04347
G1 X113.147 Y105.070 E0.04849
G1 X113.252 Y103.416 E0.05195
G1 X113.521 Y102.051 E0.04361
G1 X113.643 Y101.647 E0.01323
G1 X113.817 Y101.281 E0.01272
G1 X116.251 Y97.072 E0.15247
G1 X116.613 Y97.210 F7200.000
G1 F2100
G1 X116.769 Y97.008 E0.00800
G1 X116.946 Y96.825 E0.00800
G1 X118.087 Y95.840 E0.04725
G1 X119.262 Y95.060 E0.04421
G1 X120.556 Y94.419 E0.04528
G1 X121.891 Y93.955 E0.04432
G1 X122.171 Y93.881 E0.00907
G1 X123.510 Y93.620 E0.04278
G1 X124.947 Y93.523 E0.04516
G1 X126.358 Y93.607 E0.04432
G1 X126.645 Y93.645 E0.00907
G1 X127.982 Y93.917 E0.04278
G1 X129.382 Y94.392 E0.04636
G1 X130.618 Y94.996 E0.04313
G1 X130.865 Y95.139 E0.00895
G1 X131.993 Y95.900 E0.04266
G1 X133.081 Y96.850 E0.04528
G1 X133.296 Y97.087 E0.01002
G1 X133.477 Y97.350 E0.01002
G1 X135.852 Y101.463 E0.14892
G1 X135.984 Y101.729 E0.00931
G1 X136.109 Y102.124 E0.01300
G1 X136.373 Y103.457 E0.04261
G1 X136.477 Y104.989 E0.04814
G1 X136.373 Y106.540 E0.04874
G1 X136.109 Y107.875 E0.04266
G1 X135.988 Y108.260 E0.01264
G1 X135.853 Y108.536 E0.00967
G1 X133.484 Y112.640 E0.14855
G1 X133.331 Y112.867 E0.00859
G1 X133.154 Y113.076 E0.00859
G1 X132.096 Y114.017 E0.04439
G1 X131.866 Y114.192 E0.00907
G1 X130.728 Y114.945 E0.04278
G1 X129.399 Y115.601 E0.04647
G1 X128.101 Y116.047 E0.04302
G1 X127.822 Y116.121 E0.00907
G1 X126.486 Y116.380 E0.04265
G1 X125.011 Y116.477 E0.04636
G1 X123.638 Y116.393 E0.04314
G1 X123.351 Y116.354 E0.00907
G1 X122.018 Y116.083 E0.04265
G1 X120.614 Y115.606 E0.04647
G1 X119.382 Y115.004 E0.04302
G1 X119.135 Y114.861 E0.00895
G1 X118.007 Y114.100 E0.04265
G1 X116.925 Y113.155 E0.04505
G1 X116.706 Y112.916 E0.01014
G1 X116.523 Y112.650 E0.01014
G1 X114.148 Y108.537 E0.14891
G1 X114.019 Y108.278 E0.00907
G1 X113.892 Y107.879 E0.01312
G1 X113.629 Y106.550 E0.04248
G1 X113.524 Y105.053 E0.04707
G1 X113.625 Y103.471 E0.04969
G1 X113.888 Y102.136 E0.04266
G1 X113.998 Y101.776 E0.01181
G1 X114.145 Y101.467 E0.01074
G1 X116.579 Y97.259 E0.15241
G1 F5760
G1 X116.769 Y97.008 E-0.10909
G1 F5760
G1 X116.946 Y96.825 E-0.08835
G1 F5760
G1 X118.087 Y95.840 E-0.52194
G1 F5760
G1 X118.185 Y95.775 E-0.04062
G1 E-0.04000 F2100.00000
G1 X119.547 Y98.987 F7200.000
G1 E0.80000 F2100.00000
G1 F1680
G1 X120.048 Y98.547 E0.02093
G1 X120.933 Y97.956 E0.03336
G1 X121.887 Y97.485 E0.03336
G1 X122.895 Y97.143 E0.03336
G1 X123.938 Y96.936 E0.03336
G1 X125.000 Y96.866 E0.03336
G1 X126.062 Y96.936 E0.03336
G1 X127.105 Y97.143 E0.03336
G1 X128.113 Y97.485 E0.03336
G1 X129.067 Y97.956 E0.03336
G1 X129.952 Y98.547 E0.03336
G1 X130.453 Y98.987 E0.02093
G1 X132.934 Y103.284 E0.15556
G1 X133.064 Y103.938 E0.02093
G1 X133.134 Y105.000 E0.03336
G1 X133.064 Y106.062 E0.03336
G1 X132.934 Y106.716 E0.02093
G1 X130.453 Y111.013 E0.15556
G1 X129.952 Y111.453 E0.02093
G1 X129.067 Y112.044 E0.03336
G1 X128.113 Y112.515 E0.03336
G1 X127.105 Y112.857 E0.03336
G1 X126.062 Y113.064 E0.03336
G1 X125.000 Y113.134 E0.03336
G1 X123.938 Y113.064 E0.03336
G1 X122.895 Y112.857 E0.03336
G1 X121.887 Y112.515 E0.03336
G1 X120.933 Y112.044 E0.03336
G1 X120.048 Y111.453 E0.03336
G1 X119.547 Y111.013 E0.02093
G1 X117.066 Y106.716 E0.15556
G1 X116.936 Y106.062 E0.02093
G1 X116.866 Y105.000 E0.03336
G1 X116.936 Y103.938 E0.03336
G1 X117.066 Y103.284 E0.02093
G1 X119.517 Y99.039 E0.15368
G1 X119.251 Y98.745 F7200.000
G1 F1680
G1 X119.818 Y98.247 E0.02365
G1 X120.744 Y97.629 E0.03491
G1 X121.743 Y97.136 E0.03491
G1 X122.797 Y96.778 E0.03491
G1 X123.889 Y96.561 E0.03491
G1 X125.000 Y96.488 E0.03491
G1 X126.111 Y96.561 E0.03491
G1 X127.203 Y96.778 E0.03491
G1 X128.257 Y97.136 E0.03491
G1 X129.256 Y97.629 E0.03491
G1 X130.182 Y98.247 E0.03491
G1 X130.749 Y98.745 E0.02365
G1 X133.292 Y103.149 E0.15946
G1 X133.439 Y103.889 E0.02365
G1 X133.512 Y105.000 E0.03491
G1 X133.439 Y106.111 E0.03491
G1 X133.292 Y106.851 E0.02365
G1 X130.749 Y111.255 E0.15946
G1 X130.182 Y111.753 E0.02365
G1 X129.256 Y112.371 E0.03491
G1 X128.257 Y112.864 E0.03491
G1 X127.203 Y113.222 E0.03491
G1 X126.111 Y113.439 E0.03491
G1 X125.000 Y113.512 E0.03491
G1 X123.889 Y113.439 E0.03491
G1 X122.797 Y113.222 E0.03491
G1 X121.743 Y112.864 E0.03491
G1 X120.744 Y112.371 E0.03491
G1 X119.818 Y111.753 E0.03491
G1 X119.251 Y111.255 E0.02365
G1 X116.708 Y106.851 E0.15946
G1 X116.561 Y106.111 E0.02365
G1 X116.488 Y105.000 E0.03491
G1 X116.561 Y103.889 E0.03491
G1 X116.708 Y103.149 E0.02365
G1 X119.221 Y98.797 E0.15758
G1 X118.872 Y98.575 F7200.000
G1 F1260
G1 X119.588 Y97.947 E0.02986
G1 X120.555 Y97.301 E0.03646
G1 X121.598 Y96.787 E0.03646
G1 X122.699 Y96.413 E0.03646
G1 X123.840 Y96.186 E0.03646
G1 X125.000 Y96.110 E0.03646
G1 X126.160 Y96.186 E0.03646
G1 X127.301 Y96.413 E0.03646
G1 X128.402 Y96.787 E0.03646
G1 X129.445 Y97.301 E0.03646
G1 X130.412 Y97.947 E0.03646
G1 X131.128 Y98.575 E0.02986
G1 X131.102 Y98.601 E0.00116
G1 X133.592 Y102.915 E0.15618
G1 X133.628 Y102.906 E0.00116
G1 X133.813 Y103.840 E0.02986
G1 X133.890 Y105.000 E0.03646
G1 X133.813 Y106.160 E0.03646
G1 X133.628 Y107.094 E0.02986
G1 X133.592 Y107.085 E0.00116
G1 X131.102 Y111.398 E0.15618
G1 X131.128 Y111.425 E0.00116
G1 X130.412 Y112.053 E0.02986
G1 X129.445 Y112.699 E0.03646
G1 X128.402 Y113.213 E0.03646
G1 X127.301 Y113.587 E0.03646
G1 X126.160 Y113.814 E0.03646
G1 X125.000 Y113.890 E0.03646
G1 X123.840 Y113.814 E0.03646
G1 X122.699 Y113.587 E0.03646
G1 X121.598 Y113.213 E0.03646
G1 X120.555 Y112.699 E0.03646
G1 X119.588 Y112.053 E0.03646
G1 X118.872 Y111.425 E0.02986
G1 X118.898 Y111.398 E0.00116
G1 X116.408 Y107.085 E0.15618
G1 X116.372 Y107.094 E0.00116
G1 X116.187 Y106.160 E0.02986
G1 X116.110 Y105.000 E0.03646
G1 X116.187 Y103.840 E0.03646
G1 X116.372 Y102.906 E0.02986
G1 X116.408 Y102.915 E0.00116
G1 X118.887 Y98.621 E0.15545
G1 X119.263 Y98.662 F7200.000
G1 F5760
G1 X119.588 Y97.947 E-0.33694
G1 F5760
G1 X120.555 Y97.301 E-0.40274
G1 F5760
G1 X120.608 Y97.275 E-0.02032
G1 E-0.04000 F2100.00000
G1 X117.829 Y107.812 F7200.000
G1 E0.80000 F2100.00000
G1 F1680
G1 X122.411 Y112.394 E0.20557
G1 X122.968 Y112.583 E0.01867
G1 X123.182 Y112.625 E0.00693
G1 X117.556 Y106.999 E0.25245
G1 X117.334 Y106.615 E0.01406
G1 X117.241 Y106.144 E0.01524
G1 X123.856 Y112.759 E0.29682
G1 X123.975 Y112.783 E0.00386
G1 X124.450 Y112.814 E0.01511
G1 X117.186 Y105.550 E0.32596
G1 X117.151 Y104.976 E0.01825
G1 X125.024 Y112.849 E0.35326
G1 X125.531 Y112.816 E0.01610
G1 X117.184 Y104.469 E0.37449
G1 X117.219 Y103.964 E0.01606
G1 X126.036 Y112.781 E0.39560
G1 X126.486 Y112.691 E0.01456
G1 X117.309 Y103.514 E0.41178
G1 X117.334 Y103.385 E0.00419
G1 X117.475 Y103.141 E0.00893
G1 X126.936 Y112.602 E0.42450
G1 X127.349 Y112.475 E0.01370
G1 X117.673 Y102.799 E0.43417
G1 X117.870 Y102.457 E0.01253
G1 X127.752 Y112.338 E0.44338
G1 X128.004 Y112.253 E0.00846
G1 X128.139 Y112.186 E0.00477
G1 X118.068 Y102.115 E0.45190
G1 X118.265 Y101.773 E0.01253
G1 X128.501 Y112.008 E0.45925
G1 X128.862 Y111.830 E0.01278
G1 X118.463 Y101.430 E0.46661
G1 X118.660 Y101.088 E0.01253
G1 X129.192 Y111.620 E0.47256
G1 X129.516 Y111.404 E0.01234
G1 X118.858 Y100.746 E0.47821
G1 X119.055 Y100.404 E0.01253
G1 X129.832 Y111.181 E0.48356
G1 X130.120 Y110.929 E0.01213
G1 X119.253 Y100.062 E0.48760
G1 X119.450 Y99.720 E0.01253
G1 X130.352 Y110.622 E0.48917
G1 X130.550 Y110.280 E0.01253
G1 X119.648 Y99.378 E0.48917
G1 X119.768 Y99.169 E0.00765
G1 X119.880 Y99.071 E0.00472
G1 X130.747 Y109.938 E0.48760
G1 X130.945 Y109.596 E0.01253
G1 X120.168 Y98.819 E0.48356
G1 X120.484 Y98.596 E0.01229
G1 X131.142 Y109.254 E0.47821
G1 X131.340 Y108.912 E0.01253
G1 X120.808 Y98.380 E0.47256
G1 X121.138 Y98.170 E0.01240
G1 X131.537 Y108.570 E0.46661
G1 X131.735 Y108.227 E0.01253
G1 X121.499 Y97.992 E0.45925
G1 X121.861 Y97.814 E0.01278
G1 X131.932 Y107.885 E0.45190
G1 X132.130 Y107.543 E0.01253
G1 X122.248 Y97.662 E0.44338
G1 X122.651 Y97.525 E0.01350
G1 X132.327 Y107.201 E0.43417
G1 X132.525 Y106.859 E0.01253
G1 X123.064 Y97.398 E0.42450
G1 X123.514 Y97.309 E0.01456
G1 X132.691 Y106.486 E0.41178
G1 X132.781 Y106.036 E0.01456
G1 X123.964 Y97.219 E0.39560
G1 X124.469 Y97.184 E0.01606
G1 X132.816 Y105.531 E0.37450
G1 X132.849 Y105.024 E0.01610
G1 X124.976 Y97.151 E0.35326
G1 X125.550 Y97.186 E0.01824
G1 X132.814 Y104.450 E0.32596
G1 X132.783 Y103.975 E0.01511
G1 X132.759 Y103.856 E0.00386
G1 X126.153 Y97.250 E0.29642
G1 X126.820 Y97.377 E0.02154
G1 X132.841 Y103.398 E0.27018
G1 F5760
G1 X131.290 Y101.847 E-0.76000
G1 E-0.04000 F2100.00000
G1 X132.171 Y102.188 F7200.000
G1 E0.80000 F2100.00000
G1 F1680
G1 X127.589 Y97.606 E0.20558
G1 X128.004 Y97.747 E0.01391
G1 X128.528 Y98.005 E0.01852
G1 X131.434 Y100.911 E0.13039
G1 F5760
G1 X129.882 Y99.360 E-0.76000
G1 E-0.04000 F2100.00000
G1 X130.697 Y99.635 F7200.000
G1 E0.80000 F2100.00000
G1 F1680
G1 X129.329 Y98.267 E0.06136
G1 F5760
G1 X130.697 Y99.635 E-0.66985
G1 E-0.13015 F2100.00000
G1 X118.566 Y109.089 F7200.000
G1 E0.80000 F2100.00000
G1 F1680
G1 X121.845 Y112.368 E0.14713
G1 F5760
G1 X120.294 Y110.816 E-0.76000
G1 E-0.04000 F2100.00000
G1 X120.671 Y111.733 F7200.000
G1 E0.80000 F2100.00000
G1 F1680
G1 X119.304 Y110.366 E0.06134
M106 S255
M104 S205 ; set temperature
G1 F5760
G1 X120.671 Y111.733 E-0.66965
G1 E-0.13035 F2100.00000
G1 Z0.400 F7200.000
G1 X119.916 Y111.502 F7200.000
G1 E0.80000 F2100.00000
M204 S800
G1 F1627.305
G1 X116.827 Y106.152 E0.20913
G1 X116.741 Y105.000 E0.03909
G1 X116.827 Y103.848 E0.03910
G1 X119.916 Y98.498 E0.20912
G1 X120.871 Y97.848 E0.03910
G1 X121.840 Y97.370 E0.03657
G1 X122.863 Y97.023 E0.03657
G1 X123.922 Y96.812 E0.03657
G1 X125.000 Y96.741 E0.03657
G1 X126.078 Y96.812 E0.03657
G1 X127.138 Y97.023 E0.03657
G1 X128.160 Y97.370 E0.03657
G1 X129.129 Y97.848 E0.03657
G1 X130.028 Y98.448 E0.03657
G1 X130.084 Y98.498 E0.00255
G1 X133.173 Y103.848 E0.20913
G1 X133.259 Y105.000 E0.03909
G1 X133.173 Y106.152 E0.03909
G1 X130.084 Y111.502 E0.20913
G1 X129.129 Y112.152 E0.03909
G1 X128.160 Y112.630 E0.03657
G1 X127.138 Y112.977 E0.03657
G1 X126.078 Y113.188 E0.03657
G1 X125.000 Y113.259 E0.03657
G1 X123.922 Y113.188 E0.03657
G1 X122.863 Y112.977 E0.03657
G1 X121.840 Y112.630 E0.03657
G1 X120.871 Y112.152 E0.03657
G1 X119.961 Y111.542 E0.03708
M204 S1000
G1 X119.348 Y111.546 F7200.000
M204 S800
G1 F1627.305
G1 X119.426 Y111.468 E0.00373
G1 X116.612 Y106.593 E0.19053
G1 X116.505 Y106.622 E0.00373
G1 X116.408 Y106.131 E0.01693
G1 X116.333 Y105.000 E0.03837
G1 X116.408 Y103.869 E0.03837
G1 X116.505 Y103.378 E0.01693
G1 X116.612 Y103.407 E0.00373
G1 X119.426 Y98.532 E0.19053
G1 X119.348 Y98.454 E0.00373
G1 X119.724 Y98.124 E0.01693
G1 X120.667 Y97.495 E0.03837
G1 X121.683 Y96.993 E0.03837
G1 X122.757 Y96.629 E0.03837
G1 X123.869 Y96.408 E0.03837
G1 X125.000 Y96.333 E0.03837
G1 X126.131 Y96.408 E0.03837
G1 X127.243 Y96.629 E0.03837
G1 X128.317 Y96.993 E0.03837
G1 X129.333 Y97.495 E0.03837
G1 X130.276 Y98.124 E0.03837
G1 X130.652 Y98.454 E0.01693
G1 X130.574 Y98.532 E0.00373
G1 X133.388 Y103.407 E0.19053
G1 X133.495 Y103.378 E0.00373
G1 X133.592 Y103.869 E0.01693
G1 X133.667 Y105.000 E0.03837
G1 X133.592 Y106.131 E0.03837
G1 X133.495 Y106.622 E0.01693
G1 X133.388 Y106.593 E0.00373
G1 X130.574 Y111.468 E0.19053
G1 X130.652 Y111.546 E0.00373
G1 X130.276 Y111.876 E0.01693
G1 X129.333 Y112.505 E0.03837
G1 X128.317 Y113.007 E0.03837
G1 X127.243 Y113.371 E0.03837
G1 X126.131 Y113.592 E0.03837
G1 X125.000 Y113.667 E0.03837
G1 X123.869 Y113.592 E0.03837
G1 X122.757 Y113.371 E0.03837
G1 X121.683 Y113.007 E0.03837
G1 X120.667 Y112.505 E0.03837
G1 X119.724 Y111.876 E0.03837
G1 X119.393 Y111.585 E0.01490
M204 S1000
G1 F5760
G1 X119.426 Y111.468 E-0.04224
G1 F5760
G1 X118.390 Y109.673 E-0.71776
G1 E-0.04000 F2100.00000
G1 X131.083 Y98.599 F7200.000
G1 E0.80000 F2100.00000
M204 S800
G1 F1220.478
G1 X133.585 Y102.933 E0.16938
G1 X133.809 Y102.872 E0.00787
G1 X133.997 Y103.816 E0.03255
G1 X134.075 Y105.000 E0.04018
G1 X133.997 Y106.184 E0.04018
G1 X133.809 Y107.127 E0.03255
G1 X133.585 Y107.067 E0.00787
G1 X131.083 Y111.401 E0.16938
G1 X131.247 Y111.565 E0.00787
G1 X130.524 Y112.199 E0.03255
G1 X129.537 Y112.859 E0.04018
G1 X128.473 Y113.384 E0.04018
G1 X127.349 Y113.765 E0.04018
G1 X126.184 Y113.997 E0.04018
G1 X125.000 Y114.075 E0.04018
G1 X123.816 Y113.997 E0.04018
G1 X122.651 Y113.765 E0.04018
G1 X121.527 Y113.384 E0.04018
G1 X120.463 Y112.859 E0.04018
G1 X119.476 Y112.199 E0.04018
G1 X118.753 Y111.565 E0.03255
G1 X118.917 Y111.401 E0.00787
G1 X116.415 Y107.067 E0.16938
G1 X116.191 Y107.127 E0.00787
G1 X116.003 Y106.184 E0.03255
G1 X115.925 Y105.000 E0.04018
G1 X116.003 Y103.816 E0.04018
G1 X116.191 Y102.872 E0.03255
G1 X116.415 Y102.933 E0.00787
G1 X118.917 Y98.599 E0.16938
G1 X118.753 Y98.435 E0.00787
G1 X119.476 Y97.801 E0.03255
G1 X120.463 Y97.141 E0.04018
G1 X121.527 Y96.616 E0.04018
G1 X122.651 Y96.235 E0.04018
G1 X123.816 Y96.003 E0.04018
G1 X125.000 Y95.925 E0.04018
G1 X126.184 Y96.003 E0.04018
G1 X127.349 Y96.235 E0.04018
G1 X128.473 Y96.616 E0.04018
G1 X129.537 Y97.141 E0.04018
G1 X130.524 Y97.801 E0.04018
G1 X131.247 Y98.435 E0.03255
G1 X131.125 Y98.557 E0.00584
M204 S1000
G1 X130.893 Y98.951 F7200.000
G1 F5760
G1 X132.200 Y100.469 E-0.76000
G1 E-0.04000 F2100.00000
G1 X132.754 Y106.634 F7200.000
G1 E0.80000 F2100.00000
M204 S2000
G1 F1627.305
G1 X126.385 Y113.002 E0.31070
M204 S1000
G1 X125.711 Y113.090 F7200.000
M204 S2000
G1 F1627.305
G1 X132.893 Y105.908 E0.35038
G1 X132.934 Y105.280 E0.02171
G1 X125.280 Y112.934 E0.37344
G1 X125.000 Y112.953 E0.00968
G1 X124.695 Y112.933 E0.01055
G1 X132.930 Y104.697 E0.40177
G1 X132.890 Y104.151 E0.01890
G1 X124.144 Y112.897 E0.42666
G1 X123.962 Y112.885 E0.00630
G1 X123.635 Y112.819 E0.01152
