; generated by Slic3r 1.33.8-prusa3d-win64 on 2017-04-05 at 17:18:28

; external perimeters extrusion width = 0.45mm
; perimeters extrusion width = 0.45mm
; infill extrusion width = 0.45mm
; solid infill extrusion width = 0.45mm
; top infill extrusion width = 0.40mm

M107
M115 U3.0.10 ; tell printer latest fw version
M83  ; extruder relative mode
M104 S215 ; set extruder temp
M140 S55 ; set bed temp
M190 S55 ; wait for bed temp
M109 S215 ; wait for extruder temp
G28 W ; home all without mesh bed level
G80 ; mesh bed leveling
G1 Y-3.0 F1000.0 ; go outside pritn area
G1 X60.0 E9.0  F1000.0 ; intro line
G1 X100.0 E12.5  F1000.0 ; intro line
G21 ; set units to millimeters
G90 ; use absolute coordinates
M83 ; use relative distances for extrusion
G1 E-0.80000 F2100.00000
G1 Z0.200 F7200.000
G1 X66.991 Y86.281 F7200.000
G1 E0.80000 F2100.00000
M204 S1000
G1 F2100
G1 X67.888 Y85.670 E0.03402
G1 X68.701 Y85.186 E0.02967
G1 X69.537 Y84.752 E0.02951
G1 X70.530 Y84.311 E0.03409
G1 X71.482 Y83.962 E0.03178
G1 X72.463 Y83.667 E0.03213
G1 X73.516 Y83.427 E0.03385
G1 X74.447 Y83.271 E0.02961
G1 X75.385 Y83.172 E0.02957
G1 X76.424 Y83.124 E0.03262
G1 X165.472 Y83.123 E2.79203
G1 X165.791 Y83.144 E0.01002
G1 X166.104 Y83.209 E0.01002
G1 X166.346 Y83.289 E0.00800
G1 X166.578 Y83.396 E0.00800
G1 X166.797 Y83.526 E0.00800
G1 X167.001 Y83.680 E0.00800
G1 X188.840 Y102.139 E0.89660
G1 X189.095 Y102.391 E0.01122
G1 X189.308 Y102.678 E0.01122
G1 X189.464 Y102.966 E0.01026
G1 X189.580 Y103.276 E0.01038
G1 X189.651 Y103.599 E0.01038
G1 X189.677 Y103.930 E0.01038
G1 X189.677 Y118.528 E0.45774
G1 X189.621 Y119.330 E0.02520
G1 X189.457 Y120.142 E0.02596
G1 X189.187 Y120.929 E0.02609
G1 X188.894 Y121.530 E0.02095
G1 X188.766 Y121.751 E0.00800
G1 X188.383 Y122.316 E0.02142
G1 X187.944 Y122.824 E0.02105
G1 X187.766 Y123.007 E0.00800
G1 X187.325 Y123.393 E0.01840
G1 X187.126 Y123.547 E0.00788
G1 X186.566 Y123.918 E0.02106
G1 X185.809 Y124.295 E0.02654
G1 X185.007 Y124.566 E0.02654
G1 X184.123 Y124.733 E0.02820
G1 X183.498 Y124.773 E0.01963
G1 X132.467 Y126.876 E1.60138
G1 X120.350 Y126.875 E0.37993
G1 X119.299 Y126.804 E0.03302
G1 X118.215 Y126.585 E0.03468
G1 X117.280 Y126.272 E0.03091
G1 X61.870 Y105.727 E1.85292
G1 X61.539 Y105.574 E0.01145
G1 X61.231 Y105.369 E0.01157
G1 X61.031 Y105.193 E0.00836
G1 X60.852 Y104.996 E0.00836
G1 X60.699 Y104.783 E0.00824
G1 X60.568 Y104.551 E0.00836
G1 X60.464 Y104.305 E0.00836
G1 X60.388 Y104.054 E0.00824
G1 X60.341 Y103.795 E0.00824
G1 X60.323 Y103.529 E0.00836
G1 X60.331 Y98.298 E0.16401
G1 X60.432 Y97.319 E0.03085
G1 X60.597 Y96.324 E0.03165
G1 X60.823 Y95.336 E0.03176
G1 X61.093 Y94.421 E0.02992
G1 X61.462 Y93.403 E0.03394
G1 X61.898 Y92.412 E0.03395
G1 X62.333 Y91.568 E0.02978
G1 X62.815 Y90.755 E0.02964
G1 X63.417 Y89.866 E0.03365
G1 X64.048 Y89.053 E0.03227
G1 X64.765 Y88.244 E0.03390
G1 X65.487 Y87.526 E0.03191
G1 X66.194 Y86.903 E0.02954
G1 X66.943 Y86.317 E0.02984
G1 F5760
G1 X67.888 Y85.670 E-0.39661
G1 F5760
G1 X68.701 Y85.186 E-0.32776
G1 F5760
G1 X68.792 Y85.138 E-0.03563
G1 E-0.04000 F2100.00000
G1 X116.099 Y116.017 F7200.000
G1 E0.80000 F2100.00000
G1 F840
G1 X116.459 Y115.476 E0.02036
G1 X116.889 Y114.987 E0.02043
G1 X117.376 Y114.559 E0.02034
G1 X117.918 Y114.199 E0.02038
G1 X118.500 Y113.911 E0.02036
G1 X119.114 Y113.703 E0.02033
G1 X119.752 Y113.576 E0.02041
G1 X120.389 Y113.535 E0.01999
G1 X121.047 Y113.576 E0.02067
G1 X121.686 Y113.703 E0.02045
G1 X122.300 Y113.911 E0.02033
G1 X122.882 Y114.199 E0.02036
G1 X123.414 Y114.552 E0.02002
G1 X123.910 Y114.986 E0.02066
G1 X124.341 Y115.476 E0.02047
G1 X124.701 Y116.017 E0.02036
G1 X124.988 Y116.598 E0.02032
G1 X125.197 Y117.214 E0.02042
G1 X125.324 Y117.852 E0.02039
G1 X125.366 Y118.500 E0.02035
G1 X125.324 Y119.148 E0.02036
G1 X125.197 Y119.784 E0.02033
G1 X124.989 Y120.400 E0.02038
G1 X124.701 Y120.983 E0.02041
G1 X124.340 Y121.522 E0.02033
G1 X123.911 Y122.011 E0.02040
G1 X123.425 Y122.438 E0.02029
G1 X122.882 Y122.801 E0.02047
G1 X122.299 Y123.087 E0.02038
G1 X121.686 Y123.295 E0.02028
G1 X121.050 Y123.422 E0.02035
G1 X120.400 Y123.466 E0.02041
G1 X119.750 Y123.422 E0.02041
G1 X119.114 Y123.295 E0.02035
G1 X118.501 Y123.087 E0.02028
G1 X117.918 Y122.801 E0.02038
G1 X117.375 Y122.438 E0.02047
G1 X116.889 Y122.011 E0.02029
G1 X116.460 Y121.522 E0.02040
G1 X116.099 Y120.983 E0.02033
G1 X115.811 Y120.400 E0.02041
G1 X115.603 Y119.784 E0.02038
G1 X115.476 Y119.148 E0.02033
G1 X115.434 Y118.500 E0.02036
G1 X115.476 Y117.852 E0.02035
G1 X115.603 Y117.214 E0.02039
G1 X115.812 Y116.598 E0.02042
G1 X116.073 Y116.071 E0.01844
G1 X116.427 Y116.206 F7200.000
G1 F840
G1 X116.759 Y115.706 E0.01882
G1 X117.156 Y115.254 E0.01887
G1 X117.606 Y114.859 E0.01878
G1 X118.106 Y114.526 E0.01883
G1 X118.645 Y114.261 E0.01882
G1 X119.212 Y114.068 E0.01878
G1 X119.801 Y113.951 E0.01885
G1 X120.389 Y113.912 E0.01846
G1 X120.998 Y113.951 E0.01913
G1 X121.588 Y114.068 E0.01888
G1 X122.155 Y114.261 E0.01878
G1 X122.694 Y114.526 E0.01882
G1 X123.185 Y114.853 E0.01849
G1 X123.643 Y115.253 E0.01910
G1 X124.041 Y115.706 E0.01889
G1 X124.373 Y116.206 E0.01882
G1 X124.639 Y116.742 E0.01878
G1 X124.832 Y117.312 E0.01886
G1 X124.949 Y117.901 E0.01884
G1 X124.988 Y118.500 E0.01881
G1 X124.949 Y119.099 E0.01881
G1 X124.832 Y119.686 E0.01878
G1 X124.640 Y120.255 E0.01883
G1 X124.373 Y120.794 E0.01885
G1 X124.041 Y121.292 E0.01878
G1 X123.644 Y121.744 E0.01885
G1 X123.194 Y122.138 E0.01875
G1 X122.694 Y122.474 E0.01890
G1 X122.154 Y122.738 E0.01882
G1 X121.588 Y122.930 E0.01875
G1 X121.000 Y123.047 E0.01882
G1 X120.400 Y123.088 E0.01885
G1 X119.800 Y123.047 E0.01885
G1 X119.212 Y122.930 E0.01882
G1 X118.646 Y122.738 E0.01875
G1 X118.106 Y122.474 E0.01882
G1 X117.606 Y122.138 E0.01890
G1 X117.156 Y121.744 E0.01875
G1 X116.759 Y121.292 E0.01885
G1 X116.427 Y120.794 E0.01878
G1 X116.160 Y120.255 E0.01885
G1 X115.968 Y119.686 E0.01883
G1 X115.851 Y119.099 E0.01878
G1 X115.812 Y118.500 E0.01881
G1 X115.851 Y117.901 E0.01881
G1 X115.968 Y117.312 E0.01884
G1 X116.161 Y116.742 E0.01886
G1 X116.400 Y116.260 E0.01690
G1 X116.754 Y116.395 F7200.000
G1 F840
G1 X117.059 Y115.936 E0.01728
G1 X117.423 Y115.521 E0.01731
G1 X117.836 Y115.159 E0.01722
G1 X118.295 Y114.854 E0.01728
G1 X118.789 Y114.610 E0.01729
G1 X119.310 Y114.433 E0.01723
G1 X119.851 Y114.325 E0.01730
G1 X120.390 Y114.290 E0.01693
G1 X120.949 Y114.325 E0.01758
G1 X121.490 Y114.433 E0.01730
G1 X122.011 Y114.610 E0.01723
G1 X122.505 Y114.854 E0.01729
G1 X122.955 Y115.153 E0.01695
G1 X123.377 Y115.521 E0.01754
G1 X123.741 Y115.936 E0.01732
G1 X124.046 Y116.395 E0.01728
G1 X124.290 Y116.887 E0.01724
G1 X124.467 Y117.410 E0.01729
G1 X124.575 Y117.951 E0.01729
G1 X124.610 Y118.500 E0.01726
G1 X124.575 Y119.049 E0.01726
G1 X124.467 Y119.588 E0.01723
G1 X124.290 Y120.111 E0.01728
G1 X124.046 Y120.605 E0.01730
G1 X123.741 Y121.062 E0.01723
G1 X123.377 Y121.477 E0.01730
G1 X122.964 Y121.839 E0.01721
G1 X122.505 Y122.146 E0.01733
G1 X122.010 Y122.389 E0.01727
G1 X121.490 Y122.565 E0.01721
G1 X120.950 Y122.673 E0.01728
G1 X120.400 Y122.710 E0.01728
G1 X119.850 Y122.673 E0.01728
G1 X119.310 Y122.565 E0.01728
G1 X118.790 Y122.389 E0.01721
G1 X118.295 Y122.146 E0.01727
G1 X117.836 Y121.839 E0.01733
G1 X117.423 Y121.477 E0.01721
G1 X117.059 Y121.062 E0.01730
G1 X116.754 Y120.605 E0.01723
G1 X116.510 Y120.111 E0.01730
G1 X116.333 Y119.588 E0.01728
G1 X116.225 Y119.049 E0.01723
G1 X116.190 Y118.500 E0.01726
G1 X116.225 Y117.951 E0.01726
G1 X116.333 Y117.410 E0.01729
G1 X116.510 Y116.887 E0.01729
G1 X116.727 Y116.449 E0.01535
G1 X116.553 Y116.049 F7200.000
G1 F5760
G1 X117.059 Y115.936 E-0.21148
G1 F5760
G1 X117.423 Y115.521 E-0.19121
G1 F5760
G1 X117.836 Y115.159 E-0.19022
G1 F5760
G1 X118.238 Y114.892 E-0.16709
G1 E-0.04000 F2100.00000
G1 X119.060 Y94.044 F7200.000
G1 E0.80000 F2100.00000
G1 F840
G1 X118.735 Y93.977 E0.01039
G1 X118.418 Y93.871 E0.01049
G1 X118.115 Y93.720 E0.01062
G1 X117.839 Y93.535 E0.01041
G1 X117.587 Y93.315 E0.01049
G1 X117.364 Y93.064 E0.01054
G1 X117.176 Y92.781 E0.01063
G1 X117.030 Y92.482 E0.01046
G1 X116.920 Y92.164 E0.01055
G1 X116.856 Y91.833 E0.01057
G1 X116.834 Y91.500 E0.01045
G1 X116.856 Y91.165 E0.01055
G1 X116.920 Y90.837 E0.01047
G1 X117.052 Y90.449 E0.01286
G1 X117.347 Y89.957 E0.01799
G1 X117.585 Y89.685 E0.01132
G1 X117.839 Y89.463 E0.01059
G1 X118.119 Y89.276 E0.01053
G1 X118.418 Y89.130 E0.01046
G1 X118.726 Y89.024 E0.01021
G1 X119.063 Y88.953 E0.01080
G1 X119.496 Y88.929 E0.01357
G1 X120.046 Y89.014 E0.01748
G1 X120.382 Y89.130 E0.01112
G1 X120.681 Y89.276 E0.01046
G1 X120.961 Y89.463 E0.01054
G1 X121.215 Y89.685 E0.01059
G1 X121.437 Y89.939 E0.01059
G1 X121.623 Y90.217 E0.01047
G1 X121.770 Y90.515 E0.01045
G1 X121.880 Y90.837 E0.01065
G1 X121.944 Y91.165 E0.01047
G1 X121.966 Y91.500 E0.01055
G1 X121.944 Y91.833 E0.01045
G1 X121.880 Y92.164 E0.01057
G1 X121.770 Y92.482 E0.01055
G1 X121.624 Y92.781 E0.01046
G1 X121.436 Y93.064 E0.01063
G1 X121.213 Y93.315 E0.01054
G1 X120.961 Y93.535 E0.01049
G1 X120.685 Y93.720 E0.01041
G1 X120.382 Y93.871 E0.01062
G1 X120.064 Y93.977 E0.01052
G1 X119.737 Y94.044 E0.01044
G1 X119.400 Y94.066 E0.01059
G1 X119.120 Y94.048 E0.00881
G1 X119.111 Y93.669 F7200.000
G1 F840
G1 X118.833 Y93.612 E0.00888
G1 X118.563 Y93.522 E0.00895
G1 X118.305 Y93.393 E0.00904
G1 X118.069 Y93.235 E0.00890
G1 X117.853 Y93.047 E0.00896
G1 X117.664 Y92.833 E0.00897
G1 X117.504 Y92.593 E0.00904
G1 X117.379 Y92.337 E0.00893
G1 X117.285 Y92.066 E0.00899
G1 X117.231 Y91.784 E0.00901
G1 X117.212 Y91.500 E0.00892
G1 X117.231 Y91.214 E0.00900
G1 X117.285 Y90.934 E0.00893
G1 X117.396 Y90.608 E0.01081
G1 X117.653 Y90.179 E0.01567
G1 X117.852 Y89.952 E0.00946
G1 X118.069 Y89.763 E0.00902
G1 X118.307 Y89.604 E0.00898
G1 X118.563 Y89.479 E0.00893
G1 X118.826 Y89.388 E0.00874
G1 X119.113 Y89.328 E0.00918
G1 X119.477 Y89.308 E0.01144
G1 X119.956 Y89.382 E0.01518
G1 X120.237 Y89.479 E0.00934
G1 X120.493 Y89.604 E0.00893
G1 X120.731 Y89.763 E0.00898
G1 X120.948 Y89.952 E0.00902
G1 X121.137 Y90.169 E0.00902
G1 X121.295 Y90.406 E0.00894
G1 X121.421 Y90.660 E0.00890
G1 X121.515 Y90.934 E0.00907
G1 X121.569 Y91.214 E0.00893
G1 X121.588 Y91.500 E0.00900
G1 X121.569 Y91.784 E0.00892
G1 X121.515 Y92.066 E0.00901
G1 X121.421 Y92.337 E0.00899
G1 X121.296 Y92.593 E0.00893
G1 X121.136 Y92.833 E0.00904
G1 X120.947 Y93.047 E0.00897
G1 X120.731 Y93.235 E0.00896
G1 X120.495 Y93.393 E0.00890
G1 X120.237 Y93.522 E0.00904
G1 X119.966 Y93.612 E0.00896
G1 X119.687 Y93.669 E0.00894
G1 X119.400 Y93.688 E0.00900
G1 X119.171 Y93.673 E0.00721
G1 X119.162 Y93.295 F7200.000
G1 F840
G1 X118.931 Y93.247 E0.00737
G1 X118.707 Y93.173 E0.00740
G1 X118.494 Y93.066 E0.00747
G1 X118.298 Y92.935 E0.00740
G1 X118.120 Y92.779 E0.00743
G1 X117.963 Y92.602 E0.00740
G1 X117.832 Y92.405 E0.00744
G1 X117.728 Y92.193 E0.00741
G1 X117.651 Y91.968 E0.00743
G1 X117.605 Y91.735 E0.00745
G1 X117.590 Y91.500 E0.00739
G1 X117.605 Y91.263 E0.00746
G1 X117.651 Y91.032 E0.00738
G1 X117.741 Y90.767 E0.00875
G1 X117.960 Y90.402 E0.01336
G1 X118.119 Y90.219 E0.00761
G1 X118.298 Y90.063 E0.00745
G1 X118.495 Y89.932 E0.00742
G1 X118.707 Y89.828 E0.00741
G1 X118.926 Y89.752 E0.00726
G1 X119.162 Y89.703 E0.00756
G1 X119.459 Y89.686 E0.00931
G1 X119.865 Y89.749 E0.01288
G1 X120.093 Y89.828 E0.00756
G1 X120.305 Y89.932 E0.00741
G1 X120.502 Y90.063 E0.00742
G1 X120.681 Y90.219 E0.00745
G1 X120.837 Y90.398 E0.00745
G1 X120.968 Y90.595 E0.00741
G1 X121.072 Y90.805 E0.00736
G1 X121.149 Y91.032 E0.00750
G1 X121.195 Y91.263 E0.00738
G1 X121.210 Y91.500 E0.00746
G1 X121.195 Y91.735 E0.00739
G1 X121.149 Y91.968 E0.00745
G1 X121.072 Y92.193 E0.00743
G1 X120.968 Y92.405 E0.00741
G1 X120.837 Y92.602 E0.00744
G1 X120.680 Y92.779 E0.00740
G1 X120.502 Y92.935 E0.00743
G1 X120.306 Y93.066 E0.00740
G1 X120.093 Y93.173 E0.00747
G1 X119.868 Y93.247 E0.00741
G1 X119.636 Y93.295 E0.00743
G1 X119.400 Y93.310 E0.00742
G1 X119.222 Y93.299 E0.00561
G1 X119.018 Y93.480 F7200.000
G1 F5760
G1 X118.931 Y93.247 E-0.10206
G1 F5760
G1 X118.707 Y93.173 E-0.08178
G1 F5760
G1 X118.494 Y93.066 E-0.08250
G1 F5760
G1 X118.298 Y92.935 E-0.08169
G1 F5760
G1 X118.120 Y92.779 E-0.08207
G1 F5760
G1 X117.963 Y92.602 E-0.08178
G1 F5760
G1 X117.832 Y92.405 E-0.08223
G1 F5760
G1 X117.728 Y92.193 E-0.08186
G1 F5760
G1 X117.651 Y91.968 E-0.08210
G1 F5760
G1 X117.650 Y91.963 E-0.00192
G1 E-0.04000 F2100.00000
G1 X71.966 Y94.500 F7200.000
G1 E0.80000 F2100.00000
G1 F840
G1 X71.944 Y94.833 E0.01045
G1 X71.880 Y95.164 E0.01057
G1 X71.770 Y95.482 E0.01055
G1 X71.624 Y95.781 E0.01046
G1 X71.436 Y96.064 E0.01063
G1 X71.213 Y96.315 E0.01054
G1 X70.961 Y96.535 E0.01049
G1 X70.685 Y96.720 E0.01041
G1 X70.382 Y96.871 E0.01062
G1 X70.064 Y96.977 E0.01052
G1 X69.737 Y97.044 E0.01044
G1 X69.400 Y97.066 E0.01060
G1 X69.063 Y97.044 E0.01060
G1 X68.736 Y96.977 E0.01044
G1 X68.418 Y96.871 E0.01052
G1 X68.115 Y96.720 E0.01062
G1 X67.839 Y96.535 E0.01041
G1 X67.587 Y96.315 E0.01049
G1 X67.364 Y96.064 E0.01054
G1 X67.176 Y95.781 E0.01063
G1 X67.030 Y95.482 E0.01046
G1 X66.920 Y95.164 E0.01055
G1 X66.856 Y94.833 E0.01057
G1 X66.834 Y94.500 E0.01045
G1 X66.856 Y94.165 E0.01055
G1 X66.920 Y93.837 E0.01047
G1 X67.030 Y93.515 E0.01065
G1 X67.177 Y93.217 E0.01045
G1 X67.363 Y92.939 E0.01047
G1 X67.585 Y92.685 E0.01059
G1 X67.839 Y92.463 E0.01059
G1 X68.118 Y92.276 E0.01053
G1 X68.418 Y92.130 E0.01046
G1 X68.732 Y92.022 E0.01041
G1 X69.067 Y91.953 E0.01072
G1 X69.395 Y91.935 E0.01028
G1 X69.732 Y91.953 E0.01058
G1 X70.068 Y92.022 E0.01076
G1 X70.382 Y92.130 E0.01041
G1 X70.681 Y92.276 E0.01046
G1 X70.961 Y92.463 E0.01054
G1 X71.215 Y92.685 E0.01059
G1 X71.437 Y92.939 E0.01059
G1 X71.623 Y93.217 E0.01047
G1 X71.770 Y93.515 E0.01045
G1 X71.880 Y93.837 E0.01065
G1 X71.944 Y94.165 E0.01047
G1 X71.962 Y94.440 E0.00867
G1 X71.588 Y94.500 F7200.000
G1 F840
G1 X71.569 Y94.784 E0.00892
G1 X71.515 Y95.066 E0.00901
G1 X71.421 Y95.337 E0.00899
G1 X71.296 Y95.593 E0.00893
G1 X71.136 Y95.833 E0.00904
G1 X70.947 Y96.047 E0.00897
G1 X70.731 Y96.235 E0.00896
G1 X70.495 Y96.393 E0.00890
G1 X70.237 Y96.522 E0.00904
G1 X69.966 Y96.612 E0.00896
G1 X69.687 Y96.669 E0.00894
G1 X69.400 Y96.688 E0.00901
G1 X69.113 Y96.669 E0.00901
G1 X68.834 Y96.612 E0.00894
G1 X68.563 Y96.522 E0.00896
G1 X68.305 Y96.393 E0.00904
G1 X68.069 Y96.235 E0.00890
G1 X67.853 Y96.047 E0.00896
G1 X67.664 Y95.833 E0.00897
G1 X67.504 Y95.593 E0.00904
G1 X67.379 Y95.337 E0.00893
G1 X67.285 Y95.066 E0.00899
G1 X67.231 Y94.784 E0.00901
G1 X67.212 Y94.500 E0.00892
G1 X67.231 Y94.214 E0.00900
G1 X67.285 Y93.934 E0.00893
G1 X67.379 Y93.660 E0.00907
G1 X67.505 Y93.406 E0.00891
G1 X67.663 Y93.169 E0.00894
G1 X67.852 Y92.952 E0.00902
G1 X68.069 Y92.763 E0.00902
G1 X68.307 Y92.604 E0.00898
G1 X68.563 Y92.479 E0.00894
G1 X68.831 Y92.386 E0.00891
G1 X69.116 Y92.328 E0.00911
G1 X69.395 Y92.312 E0.00877
G1 X69.683 Y92.328 E0.00905
G1 X69.969 Y92.386 E0.00913
G1 X70.237 Y92.479 E0.00890
G1 X70.493 Y92.604 E0.00893
G1 X70.731 Y92.763 E0.00898
G1 X70.948 Y92.952 E0.00902
G1 X71.137 Y93.169 E0.00902
G1 X71.295 Y93.406 E0.00894
G1 X71.421 Y93.660 E0.00891
G1 X71.515 Y93.934 E0.00907
G1 X71.569 Y94.214 E0.00893
G1 X71.584 Y94.440 E0.00712
G1 X71.210 Y94.500 F7200.000
G1 F840
G1 X71.195 Y94.735 E0.00739
G1 X71.149 Y94.968 E0.00745
G1 X71.072 Y95.193 E0.00743
G1 X70.968 Y95.405 E0.00741
G1 X70.837 Y95.602 E0.00744
G1 X70.680 Y95.779 E0.00740
G1 X70.502 Y95.935 E0.00743
G1 X70.306 Y96.066 E0.00740
G1 X70.093 Y96.173 E0.00747
G1 X69.868 Y96.247 E0.00741
G1 X69.636 Y96.295 E0.00743
G1 X69.400 Y96.310 E0.00742
G1 X69.164 Y96.295 E0.00742
G1 X68.932 Y96.247 E0.00743
G1 X68.707 Y96.173 E0.00741
G1 X68.494 Y96.066 E0.00747
G1 X68.298 Y95.935 E0.00740
G1 X68.120 Y95.779 E0.00743
G1 X67.963 Y95.602 E0.00740
G1 X67.832 Y95.405 E0.00744
G1 X67.728 Y95.193 E0.00741
G1 X67.651 Y94.968 E0.00743
G1 X67.605 Y94.735 E0.00745
G1 X67.590 Y94.500 E0.00739
G1 X67.605 Y94.263 E0.00746
G1 X67.651 Y94.032 E0.00738
G1 X67.728 Y93.805 E0.00750
G1 X67.832 Y93.595 E0.00736
G1 X67.963 Y93.398 E0.00741
G1 X68.119 Y93.219 E0.00745
