; generated by Slic3r 1.33.8-prusa3d-win64 on 2017-03-23 at 17:52:34

; external perimeters extrusion width = 0.45mm
; perimeters extrusion width = 0.45mm
; infill extrusion width = 0.45mm
; solid infill extrusion width = 0.45mm
; top infill extrusion width = 0.40mm

M107
M115 U3.0.10 ; tell printer latest fw version
M83  ; extruder relative mode
M104 S215 ; set extruder temp
M140 S55 ; set bed temp
M190 S55 ; wait for bed temp
M109 S215 ; wait for extruder temp
G28 W ; home all without mesh bed level
G80 ; mesh bed leveling
G1 Y-3.0 F1000.0 ; go outside pritn area
G1 X60.0 E9.0  F1000.0 ; intro line
G1 X100.0 E12.5  F1000.0 ; intro line
G21 ; set units to millimeters
G90 ; use absolute coordinates
M83 ; use relative distances for extrusion
G1 E-0.80000 F2100.00000
G1 Z0.200 F7200.000
G1 X83.149 Y83.563 F7200.000
G1 E0.80000 F2100.00000
M204 S1000
G1 F2100
G1 X83.462 Y83.375 E0.01145
G1 X83.800 Y83.237 E0.01145
G1 X84.156 Y83.152 E0.01145
G1 X84.523 Y83.123 E0.01157
G1 X173.508 Y83.123 E2.79004
G1 X174.612 Y83.173 E0.03466
G1 X175.553 Y83.273 E0.02968
G1 X176.532 Y83.436 E0.03111
G1 X177.612 Y83.690 E0.03478
G1 X178.516 Y83.962 E0.02960
G1 X179.469 Y84.312 E0.03183
G1 X180.391 Y84.718 E0.03159
G1 X181.239 Y85.154 E0.02992
G1 X182.228 Y85.745 E0.03612
G1 X183.009 Y86.281 E0.02968
G1 X183.806 Y86.903 E0.03171
G1 X184.563 Y87.574 E0.03171
G1 X185.236 Y88.246 E0.02980
G1 X185.997 Y89.110 E0.03612
G1 X186.581 Y89.864 E0.02990
G1 X187.147 Y90.695 E0.03153
G1 X187.703 Y91.636 E0.03428
G1 X188.135 Y92.480 E0.02971
G1 X188.538 Y93.404 E0.03162
G1 X188.884 Y94.352 E0.03164
G1 X189.155 Y95.262 E0.02975
G1 X189.407 Y96.344 E0.03485
G1 X189.569 Y97.331 E0.03137
G1 X189.676 Y98.430 E0.03463
G1 X189.677 Y103.520 E0.15957
G1 X189.635 Y103.947 E0.01348
G1 X189.560 Y104.239 E0.00943
G1 X189.449 Y104.518 E0.00943
G1 X189.303 Y104.781 E0.00943
G1 X189.128 Y105.021 E0.00931
G1 X188.921 Y105.239 E0.00943
G1 X188.689 Y105.430 E0.00943
G1 X188.434 Y105.590 E0.00943
G1 X188.161 Y105.716 E0.00943
G1 X132.715 Y126.275 E1.85412
G1 X131.764 Y126.593 E0.03145
G1 X130.764 Y126.795 E0.03197
G1 X129.615 Y126.877 E0.03614
G1 X117.509 Y126.875 E0.37958
G1 X66.483 Y124.774 E1.60122
G1 X65.780 Y124.723 E0.02211
G1 X65.086 Y124.590 E0.02215
G1 X64.826 Y124.518 E0.00844
G1 X64.100 Y124.256 E0.02422
G1 X63.441 Y123.924 E0.02311
G1 X62.763 Y123.468 E0.02563
G1 X62.158 Y122.935 E0.02528
G1 X61.617 Y122.318 E0.02573
G1 X61.165 Y121.641 E0.02552
G1 X60.806 Y120.915 E0.02539
G1 X60.542 Y120.142 E0.02561
G1 X60.389 Y119.401 E0.02373
G1 X60.323 Y118.510 E0.02800
G1 X60.323 Y103.928 E0.45722
G1 X60.339 Y103.677 E0.00788
G1 X60.382 Y103.426 E0.00800
G1 X60.451 Y103.181 E0.00800
G1 X60.547 Y102.944 E0.00800
G1 X60.665 Y102.722 E0.00788
G1 X60.809 Y102.511 E0.00800
G1 X60.971 Y102.320 E0.00788
G1 X61.153 Y102.146 E0.00788
G1 X83.101 Y83.599 E0.90097
G1 F5760
G1 X83.462 Y83.375 E-0.14723
G1 F5760
G1 X83.800 Y83.237 E-0.12652
G1 F5760
G1 X84.156 Y83.152 E-0.12652
G1 F5760
G1 X84.523 Y83.123 E-0.12784
G1 F5760
G1 X85.193 Y83.123 E-0.23188
G1 E-0.04000 F2100.00000
G1 X125.660 Y115.477 F7200.000
G1 E0.80000 F2100.00000
G1 F840
G1 X126.088 Y114.988 E0.02037
G1 X126.577 Y114.560 E0.02037
G1 X127.117 Y114.199 E0.02036
G1 X127.700 Y113.912 E0.02037
G1 X128.315 Y113.703 E0.02037
G1 X128.952 Y113.576 E0.02036
G1 X129.589 Y113.535 E0.02001
G1 X130.247 Y113.576 E0.02068
G1 X130.885 Y113.703 E0.02040
G1 X131.501 Y113.912 E0.02037
G1 X132.083 Y114.199 E0.02037
G1 X132.623 Y114.560 E0.02037
G1 X133.112 Y114.988 E0.02037
G1 X133.540 Y115.477 E0.02037
G1 X133.901 Y116.017 E0.02036
G1 X134.188 Y116.600 E0.02037
G1 X134.397 Y117.215 E0.02037
G1 X134.524 Y117.852 E0.02037
G1 X134.566 Y118.500 E0.02037
G1 X134.524 Y119.148 E0.02037
G1 X134.397 Y119.785 E0.02036
G1 X134.188 Y120.401 E0.02037
G1 X133.901 Y120.983 E0.02037
G1 X133.540 Y121.523 E0.02036
G1 X133.112 Y122.012 E0.02037
G1 X132.623 Y122.440 E0.02037
G1 X132.083 Y122.801 E0.02037
G1 X131.501 Y123.088 E0.02037
G1 X130.885 Y123.297 E0.02037
G1 X130.248 Y123.424 E0.02037
G1 X129.600 Y123.466 E0.02037
G1 X128.952 Y123.424 E0.02037
G1 X128.326 Y123.299 E0.02001
G1 X127.701 Y123.089 E0.02069
G1 X127.117 Y122.801 E0.02041
G1 X126.577 Y122.440 E0.02037
G1 X126.088 Y122.012 E0.02037
G1 X125.660 Y121.523 E0.02037
G1 X125.299 Y120.983 E0.02037
G1 X125.012 Y120.401 E0.02037
G1 X124.803 Y119.785 E0.02037
G1 X124.676 Y119.148 E0.02036
G1 X124.634 Y118.500 E0.02037
G1 X124.676 Y117.852 E0.02037
G1 X124.803 Y117.215 E0.02037
G1 X125.012 Y116.600 E0.02037
G1 X125.299 Y116.017 E0.02037
G1 X125.627 Y115.527 E0.01849
G1 X125.960 Y115.707 F7200.000
G1 F840
G1 X126.356 Y115.256 E0.01882
G1 X126.807 Y114.860 E0.01882
G1 X127.306 Y114.527 E0.01881
G1 X127.844 Y114.261 E0.01882
G1 X128.413 Y114.068 E0.01882
G1 X129.001 Y113.951 E0.01881
G1 X129.589 Y113.913 E0.01848
G1 X130.198 Y113.951 E0.01913
G1 X130.787 Y114.068 E0.01884
G1 X131.356 Y114.261 E0.01882
G1 X131.894 Y114.527 E0.01882
G1 X132.393 Y114.860 E0.01882
G1 X132.844 Y115.256 E0.01882
G1 X133.240 Y115.707 E0.01882
G1 X133.574 Y116.206 E0.01882
G1 X133.839 Y116.744 E0.01882
G1 X134.032 Y117.313 E0.01882
G1 X134.149 Y117.901 E0.01882
G1 X134.188 Y118.500 E0.01882
G1 X134.149 Y119.099 E0.01882
G1 X134.032 Y119.688 E0.01881
G1 X133.839 Y120.256 E0.01882
G1 X133.574 Y120.794 E0.01882
G1 X133.240 Y121.293 E0.01882
G1 X132.844 Y121.745 E0.01882
G1 X132.393 Y122.140 E0.01882
G1 X131.894 Y122.474 E0.01882
G1 X131.356 Y122.739 E0.01882
G1 X130.787 Y122.932 E0.01882
G1 X130.199 Y123.049 E0.01882
G1 X129.600 Y123.088 E0.01882
G1 X129.001 Y123.049 E0.01882
G1 X128.423 Y122.934 E0.01847
G1 X127.845 Y122.740 E0.01914
G1 X127.306 Y122.474 E0.01884
G1 X126.807 Y122.140 E0.01882
G1 X126.356 Y121.745 E0.01882
G1 X125.960 Y121.293 E0.01882
G1 X125.626 Y120.794 E0.01882
G1 X125.361 Y120.256 E0.01882
G1 X125.168 Y119.688 E0.01882
G1 X125.051 Y119.099 E0.01881
G1 X125.012 Y118.500 E0.01882
G1 X125.051 Y117.901 E0.01882
G1 X125.168 Y117.313 E0.01882
G1 X125.361 Y116.744 E0.01882
G1 X125.626 Y116.206 E0.01882
G1 X125.926 Y115.757 E0.01694
G1 X126.260 Y115.937 F7200.000
G1 F840
G1 X126.623 Y115.523 E0.01727
G1 X127.037 Y115.160 E0.01727
G1 X127.495 Y114.854 E0.01727
G1 X127.989 Y114.610 E0.01727
G1 X128.510 Y114.433 E0.01727
G1 X129.050 Y114.326 E0.01727
G1 X129.590 Y114.290 E0.01694
G1 X130.149 Y114.326 E0.01758
G1 X130.690 Y114.433 E0.01728
G1 X131.211 Y114.610 E0.01727
G1 X131.705 Y114.854 E0.01727
G1 X132.163 Y115.160 E0.01727
G1 X132.577 Y115.523 E0.01727
G1 X132.940 Y115.937 E0.01727
G1 X133.246 Y116.395 E0.01727
G1 X133.490 Y116.889 E0.01727
G1 X133.667 Y117.410 E0.01727
G1 X133.774 Y117.951 E0.01727
G1 X133.810 Y118.500 E0.01727
G1 X133.774 Y119.050 E0.01727
G1 X133.667 Y119.590 E0.01727
G1 X133.490 Y120.111 E0.01727
G1 X133.246 Y120.605 E0.01727
G1 X132.940 Y121.063 E0.01727
G1 X132.577 Y121.477 E0.01727
G1 X132.163 Y121.841 E0.01727
G1 X131.705 Y122.147 E0.01727
G1 X131.211 Y122.390 E0.01727
G1 X130.690 Y122.567 E0.01727
G1 X130.150 Y122.674 E0.01727
G1 X129.600 Y122.711 E0.01727
G1 X129.050 Y122.674 E0.01727
G1 X128.521 Y122.569 E0.01694
G1 X127.989 Y122.390 E0.01759
G1 X127.495 Y122.147 E0.01728
G1 X127.037 Y121.841 E0.01727
G1 X126.623 Y121.477 E0.01727
G1 X126.260 Y121.063 E0.01727
G1 X125.954 Y120.605 E0.01727
G1 X125.710 Y120.111 E0.01727
G1 X125.533 Y119.590 E0.01727
G1 X125.426 Y119.050 E0.01727
G1 X125.389 Y118.500 E0.01727
G1 X125.426 Y117.951 E0.01727
G1 X125.533 Y117.410 E0.01727
G1 X125.710 Y116.889 E0.01727
G1 X125.954 Y116.395 E0.01727
G1 X126.226 Y115.987 E0.01539
G1 X126.107 Y115.567 F7200.000
G1 F5760
G1 X126.623 Y115.523 E-0.21139
G1 F5760
G1 X127.037 Y115.160 E-0.19077
G1 F5760
G1 X127.495 Y114.854 E-0.19072
G1 F5760
G1 X127.927 Y114.640 E-0.16712
G1 E-0.04000 F2100.00000
G1 X130.265 Y94.044 F7200.000
G1 E0.80000 F2100.00000
G1 F840
G1 X129.936 Y93.979 E0.01052
G1 X129.618 Y93.871 E0.01053
G1 X129.317 Y93.723 E0.01053
G1 X129.038 Y93.536 E0.01052
G1 X128.786 Y93.315 E0.01052
G1 X128.564 Y93.062 E0.01053
G1 X128.378 Y92.783 E0.01052
G1 X128.229 Y92.482 E0.01052
G1 X128.121 Y92.164 E0.01053
G1 X128.056 Y91.835 E0.01053
G1 X128.034 Y91.500 E0.01052
G1 X128.056 Y91.165 E0.01052
G1 X128.121 Y90.836 E0.01053
G1 X128.229 Y90.518 E0.01053
G1 X128.378 Y90.217 E0.01052
G1 X128.564 Y89.938 E0.01052
G1 X128.786 Y89.686 E0.01053
G1 X129.038 Y89.464 E0.01052
G1 X129.313 Y89.281 E0.01035
G1 X129.617 Y89.130 E0.01065
G1 X129.936 Y89.021 E0.01056
G1 X130.265 Y88.956 E0.01052
G1 X130.595 Y88.934 E0.01036
G1 X130.934 Y88.956 E0.01065
G1 X131.264 Y89.021 E0.01056
G1 X131.582 Y89.129 E0.01053
G1 X131.883 Y89.278 E0.01053
G1 X132.162 Y89.464 E0.01052
G1 X132.415 Y89.686 E0.01053
G1 X132.636 Y89.938 E0.01053
G1 X132.823 Y90.217 E0.01052
G1 X132.971 Y90.518 E0.01052
G1 X133.079 Y90.836 E0.01053
G1 X133.144 Y91.165 E0.01053
G1 X133.166 Y91.500 E0.01052
G1 X133.144 Y91.835 E0.01052
G1 X133.079 Y92.164 E0.01053
G1 X132.971 Y92.482 E0.01053
G1 X132.823 Y92.783 E0.01052
G1 X132.639 Y93.058 E0.01035
G1 X132.416 Y93.314 E0.01066
G1 X132.162 Y93.536 E0.01056
G1 X131.888 Y93.720 E0.01035
G1 X131.583 Y93.871 E0.01066
G1 X131.264 Y93.979 E0.01056
G1 X130.935 Y94.044 E0.01052
G1 X130.600 Y94.066 E0.01052
G1 X130.325 Y94.048 E0.00864
G1 X130.315 Y93.670 F7200.000
G1 F840
G1 X130.034 Y93.614 E0.00898
G1 X129.763 Y93.522 E0.00898
G1 X129.506 Y93.395 E0.00898
G1 X129.268 Y93.236 E0.00897
G1 X129.053 Y93.048 E0.00898
G1 X128.864 Y92.832 E0.00898
G1 X128.705 Y92.594 E0.00897
G1 X128.578 Y92.338 E0.00897
G1 X128.486 Y92.067 E0.00898
G1 X128.431 Y91.786 E0.00898
G1 X128.412 Y91.500 E0.00897
G1 X128.431 Y91.215 E0.00897
G1 X128.486 Y90.934 E0.00898
G1 X128.578 Y90.663 E0.00898
G1 X128.705 Y90.406 E0.00897
G1 X128.864 Y90.168 E0.00897
G1 X129.053 Y89.953 E0.00898
G1 X129.268 Y89.764 E0.00898
G1 X129.502 Y89.608 E0.00882
G1 X129.762 Y89.479 E0.00910
G1 X130.034 Y89.386 E0.00900
G1 X130.315 Y89.331 E0.00898
G1 X130.595 Y89.312 E0.00882
G1 X130.885 Y89.330 E0.00910
G1 X131.166 Y89.386 E0.00900
G1 X131.438 Y89.478 E0.00898
G1 X131.694 Y89.605 E0.00898
G1 X131.932 Y89.764 E0.00897
G1 X132.148 Y89.953 E0.00898
G1 X132.336 Y90.168 E0.00898
G1 X132.495 Y90.406 E0.00897
G1 X132.622 Y90.663 E0.00897
G1 X132.714 Y90.934 E0.00898
G1 X132.770 Y91.215 E0.00898
G1 X132.788 Y91.500 E0.00897
G1 X132.770 Y91.786 E0.00897
G1 X132.714 Y92.067 E0.00898
G1 X132.622 Y92.338 E0.00898
G1 X132.495 Y92.594 E0.00897
G1 X132.339 Y92.828 E0.00882
G1 X132.148 Y93.047 E0.00911
G1 X131.932 Y93.236 E0.00900
G1 X131.698 Y93.393 E0.00882
G1 X131.438 Y93.522 E0.00910
G1 X131.166 Y93.614 E0.00900
G1 X130.886 Y93.670 E0.00897
G1 X130.600 Y93.689 E0.00897
G1 X130.374 Y93.674 E0.00709
G1 X130.364 Y93.295 F7200.000
G1 F840
G1 X130.132 Y93.249 E0.00743
G1 X129.907 Y93.173 E0.00743
G1 X129.695 Y93.068 E0.00743
G1 X129.498 Y92.937 E0.00742
G1 X129.320 Y92.780 E0.00743
G1 X129.164 Y92.602 E0.00743
G1 X129.032 Y92.405 E0.00742
G1 X128.928 Y92.193 E0.00742
G1 X128.851 Y91.969 E0.00743
G1 X128.805 Y91.737 E0.00743
G1 X128.790 Y91.500 E0.00743
G1 X128.805 Y91.264 E0.00743
G1 X128.851 Y91.032 E0.00743
G1 X128.928 Y90.807 E0.00743
G1 X129.032 Y90.595 E0.00742
G1 X129.164 Y90.398 E0.00742
G1 X129.320 Y90.220 E0.00743
G1 X129.498 Y90.064 E0.00743
G1 X129.691 Y89.935 E0.00729
G1 X129.907 Y89.828 E0.00755
G1 X130.132 Y89.751 E0.00743
G1 X130.364 Y89.705 E0.00743
G1 X130.596 Y89.690 E0.00729
G1 X130.836 Y89.705 E0.00755
G1 X131.069 Y89.751 E0.00743
G1 X131.293 Y89.828 E0.00743
G1 X131.505 Y89.932 E0.00743
G1 X131.702 Y90.064 E0.00742
G1 X131.880 Y90.220 E0.00743
G1 X132.037 Y90.398 E0.00743
G1 X132.168 Y90.595 E0.00742
G1 X132.273 Y90.807 E0.00742
G1 X132.349 Y91.032 E0.00743
G1 X132.395 Y91.264 E0.00743
G1 X132.411 Y91.500 E0.00742
G1 X132.395 Y91.737 E0.00742
G1 X132.349 Y91.969 E0.00743
G1 X132.273 Y92.193 E0.00743
G1 X132.168 Y92.405 E0.00742
G1 X132.039 Y92.599 E0.00729
G1 X131.881 Y92.780 E0.00755
G1 X131.702 Y92.937 E0.00743
G1 X131.509 Y93.066 E0.00729
G1 X131.293 Y93.173 E0.00755
G1 X131.069 Y93.249 E0.00743
G1 X130.836 Y93.295 E0.00743
G1 X130.600 Y93.311 E0.00742
G1 X130.424 Y93.299 E0.00554
G1 X130.220 Y93.483 F7200.000
G1 F5760
G1 X130.132 Y93.249 E-0.10267
G1 F5760
G1 X129.907 Y93.173 E-0.08203
G1 F5760
G1 X129.695 Y93.068 E-0.08202
G1 F5760
G1 X129.498 Y92.937 E-0.08201
G1 F5760
G1 X129.320 Y92.780 E-0.08203
G1 F5760
G1 X129.164 Y92.602 E-0.08204
G1 F5760
G1 X129.032 Y92.405 E-0.08201
G1 F5760
G1 X128.928 Y92.193 E-0.08201
G1 F5760
G1 X128.851 Y91.969 E-0.08204
G1 F5760
G1 X128.851 Y91.966 E-0.00114
G1 E-0.04000 F2100.00000
G1 X178.034 Y94.500 F7200.000
G1 E0.80000 F2100.00000
G1 F840
G1 X178.056 Y94.165 E0.01052
G1 X178.121 Y93.836 E0.01053
G1 X178.229 Y93.518 E0.01053
G1 X178.378 Y93.217 E0.01052
G1 X178.564 Y92.938 E0.01052
G1 X178.786 Y92.686 E0.01053
G1 X179.038 Y92.464 E0.01052
G1 X179.317 Y92.278 E0.01052
G1 X179.618 Y92.129 E0.01053
G1 X179.936 Y92.021 E0.01053
G1 X180.265 Y91.956 E0.01053
G1 X180.595 Y91.934 E0.01036
G1 X180.934 Y91.956 E0.01065
G1 X181.264 Y92.021 E0.01056
G1 X181.582 Y92.129 E0.01053
G1 X181.883 Y92.278 E0.01053
G1 X182.162 Y92.464 E0.01052
G1 X182.415 Y92.686 E0.01053
G1 X182.636 Y92.938 E0.01053
G1 X182.823 Y93.217 E0.01052
G1 X182.971 Y93.518 E0.01052
G1 X183.079 Y93.836 E0.01053
G1 X183.144 Y94.165 E0.01053
G1 X183.166 Y94.500 E0.01052
G1 X183.144 Y94.835 E0.01052
G1 X183.079 Y95.164 E0.01053
G1 X182.971 Y95.482 E0.01053
G1 X182.823 Y95.783 E0.01052
G1 X182.636 Y96.062 E0.01053
G1 X182.415 Y96.315 E0.01053
G1 X182.162 Y96.536 E0.01052
G1 X181.883 Y96.723 E0.01052
G1 X181.582 Y96.871 E0.01053
G1 X181.264 Y96.979 E0.01053
G1 X180.935 Y97.045 E0.01053
G1 X180.600 Y97.066 E0.01052
G1 X180.265 Y97.045 E0.01052
G1 X179.936 Y96.979 E0.01053
G1 X179.618 Y96.871 E0.01053
G1 X179.317 Y96.723 E0.01053
G1 X179.038 Y96.536 E0.01051
G1 X178.786 Y96.315 E0.01052
G1 X178.564 Y96.062 E0.01054
G1 X178.378 Y95.783 E0.01052
G1 X178.229 Y95.482 E0.01052
G1 X178.121 Y95.164 E0.01053
G1 X178.056 Y94.835 E0.01053
G1 X178.038 Y94.560 E0.00864
G1 X178.412 Y94.500 F7200.000
G1 F840
G1 X178.431 Y94.215 E0.00897
G1 X178.486 Y93.934 E0.00898
G1 X178.578 Y93.663 E0.00898
G1 X178.705 Y93.406 E0.00897
G1 X178.864 Y93.168 E0.00897
G1 X179.053 Y92.953 E0.00898
G1 X179.268 Y92.764 E0.00898
G1 X179.506 Y92.605 E0.00897
G1 X179.763 Y92.478 E0.00898
G1 X180.034 Y92.386 E0.00898
G1 X180.315 Y92.331 E0.00898
G1 X180.595 Y92.312 E0.00882
G1 X180.885 Y92.330 E0.00910
G1 X181.166 Y92.386 E0.00900
G1 X181.438 Y92.478 E0.00898
G1 X181.694 Y92.605 E0.00898
G1 X181.932 Y92.764 E0.00897
G1 X182.148 Y92.953 E0.00898
G1 X182.336 Y93.168 E0.00898
G1 X182.495 Y93.406 E0.00897
G1 X182.622 Y93.663 E0.00897
G1 X182.714 Y93.934 E0.00898
G1 X182.770 Y94.215 E0.00898
G1 X182.788 Y94.500 E0.00897
G1 X182.770 Y94.786 E0.00897
G1 X182.714 Y95.067 E0.00898
G1 X182.622 Y95.338 E0.00898
G1 X182.495 Y95.594 E0.00897
G1 X182.336 Y95.832 E0.00897
G1 X182.148 Y96.048 E0.00898
G1 X181.932 Y96.236 E0.00897
G1 X181.694 Y96.395 E0.00897
G1 X181.438 Y96.522 E0.00898
G1 X181.166 Y96.614 E0.00898
G1 X180.886 Y96.670 E0.00898
G1 X180.600 Y96.689 E0.00897
G1 X180.315 Y96.670 E0.00897
G1 X180.034 Y96.614 E0.00898
G1 X179.763 Y96.522 E0.00898
G1 X179.506 Y96.395 E0.00898
G1 X179.268 Y96.236 E0.00897
G1 X179.053 Y96.048 E0.00897
G1 X178.864 Y95.832 E0.00898
G1 X178.705 Y95.594 E0.00897
G1 X178.578 Y95.338 E0.00897
G1 X178.486 Y95.067 E0.00898
G1 X178.431 Y94.786 E0.00898
G1 X178.416 Y94.560 E0.00709
G1 X178.790 Y94.500 F7200.000
G1 F840
G1 X178.805 Y94.264 E0.00742
G1 X178.851 Y94.032 E0.00743
G1 X178.928 Y93.807 E0.00743
G1 X179.032 Y93.595 E0.00742
G1 X179.164 Y93.398 E0.00742
G1 X179.320 Y93.220 E0.00743
G1 X179.498 Y93.064 E0.00743
G1 X179.695 Y92.932 E0.00742
G1 X179.907 Y92.828 E0.00743
G1 X180.132 Y92.751 E0.00743
G1 X180.364 Y92.705 E0.00743
G1 X180.596 Y92.690 E0.00729
G1 X180.836 Y92.705 E0.00755
G1 X181.069 Y92.751 E0.00743
G1 X181.293 Y92.828 E0.00743
G1 X181.505 Y92.932 E0.00743
G1 X181.702 Y93.064 E0.00742
G1 X181.880 Y93.220 E0.00743
G1 X182.037 Y93.398 E0.00743
