; generated by Slic3r 1.33.8-prusa3d-win64 on 2017-03-23 at 17:53:20

; external perimeters extrusion width = 0.45mm
; perimeters extrusion width = 0.45mm
; infill extrusion width = 0.45mm
; solid infill extrusion width = 0.45mm
; top infill extrusion width = 0.40mm

M107
M115 U3.0.10 ; tell printer latest fw version
M83  ; extruder relative mode
M104 S215 ; set extruder temp
M140 S55 ; set bed temp
M190 S55 ; wait for bed temp
M109 S215 ; wait for extruder temp
G28 W ; home all without mesh bed level
G80 ; mesh bed leveling
G1 Y-3.0 F1000.0 ; go outside pritn area
G1 X60.0 E9.0  F1000.0 ; intro line
G1 X100.0 E12.5  F1000.0 ; intro line
G21 ; set units to millimeters
G90 ; use absolute coordinates
M83 ; use relative distances for extrusion
G1 E-0.80000 F2100.00000
G1 Z0.200 F7200.000
G1 X82.158 Y51.818 F7200.000
G1 E0.80000 F2100.00000
M204 S1000
G1 F2100
G1 X94.254 Y47.743 E0.40018
G1 X94.552 Y47.666 E0.00967
G1 X94.862 Y47.627 E0.00979
G1 X155.019 Y47.623 E1.88620
G1 X155.383 Y47.654 E0.01145
G1 X155.738 Y47.740 E0.01145
G1 X167.697 Y51.761 E0.39558
G1 X167.994 Y51.889 E0.01014
G1 X168.270 Y52.058 E0.01014
G1 X168.521 Y52.262 E0.01014
G1 X168.745 Y52.501 E0.01026
G1 X168.972 Y52.834 E0.01264
G1 X169.139 Y53.201 E0.01264
G1 X169.242 Y53.591 E0.01264
G1 X169.277 Y53.989 E0.01253
G1 X169.277 Y156.008 E3.19872
G1 X169.262 Y156.270 E0.00824
G1 X169.218 Y156.529 E0.00824
G1 X169.145 Y156.781 E0.00824
G1 X169.045 Y157.024 E0.00824
G1 X168.919 Y157.255 E0.00824
G1 X168.768 Y157.470 E0.00824
G1 X168.595 Y157.667 E0.00824
G1 X168.400 Y157.844 E0.00824
G1 X168.054 Y158.078 E0.01312
G1 X167.668 Y158.250 E0.01324
G1 X155.743 Y162.258 E0.39445
G1 X155.448 Y162.334 E0.00955
G1 X155.146 Y162.373 E0.00955
G1 X94.992 Y162.377 E1.88608
G1 X94.621 Y162.347 E0.01169
G1 X94.262 Y162.260 E0.01157
G1 X82.303 Y158.239 E0.39559
G1 X82.006 Y158.111 E0.01014
G1 X81.730 Y157.942 E0.01014
G1 X81.479 Y157.738 E0.01014
G1 X81.258 Y157.502 E0.01014
G1 X81.030 Y157.169 E0.01264
G1 X80.863 Y156.803 E0.01264
G1 X80.759 Y156.413 E0.01264
G1 X80.723 Y156.011 E0.01264
G1 X80.723 Y53.981 E3.19908
G1 X80.749 Y53.647 E0.01050
G1 X80.823 Y53.317 E0.01062
G1 X80.942 Y53.003 E0.01050
G1 X81.103 Y52.710 E0.01050
G1 X81.305 Y52.442 E0.01050
G1 X81.541 Y52.205 E0.01050
G1 X81.809 Y52.004 E0.01050
G1 X82.103 Y51.842 E0.01053
G1 F5760
G1 X84.182 Y51.141 E-0.76000
G1 E-0.04000 F2100.00000
G1 X106.336 Y144.521 F7200.000
G1 E0.80000 F2100.00000
G1 F840
G1 X106.665 Y144.456 E0.01052
G1 X106.991 Y144.434 E0.01025
G1 X107.333 Y144.455 E0.01074
G1 X107.664 Y144.521 E0.01059
G1 X107.982 Y144.629 E0.01052
G1 X108.283 Y144.777 E0.01052
G1 X108.562 Y144.964 E0.01053
G1 X108.815 Y145.185 E0.01052
G1 X109.036 Y145.438 E0.01052
G1 X109.217 Y145.709 E0.01024
G1 X109.370 Y146.016 E0.01075
G1 X109.479 Y146.336 E0.01059
G1 X109.544 Y146.665 E0.01052
G1 X109.566 Y147.000 E0.01053
G1 X109.544 Y147.335 E0.01053
G1 X109.479 Y147.664 E0.01052
G1 X109.371 Y147.982 E0.01052
G1 X109.222 Y148.283 E0.01053
G1 X109.036 Y148.562 E0.01053
G1 X108.815 Y148.814 E0.01052
G1 X108.562 Y149.036 E0.01052
G1 X108.283 Y149.222 E0.01052
G1 X107.982 Y149.371 E0.01053
G1 X107.664 Y149.479 E0.01053
G1 X107.335 Y149.544 E0.01053
G1 X107.000 Y149.566 E0.01052
G1 X106.665 Y149.544 E0.01053
G1 X106.336 Y149.479 E0.01052
G1 X106.018 Y149.371 E0.01053
G1 X105.717 Y149.222 E0.01053
G1 X105.438 Y149.036 E0.01052
G1 X105.186 Y148.814 E0.01052
G1 X104.964 Y148.562 E0.01052
G1 X104.778 Y148.283 E0.01053
G1 X104.629 Y147.982 E0.01052
G1 X104.521 Y147.664 E0.01052
G1 X104.456 Y147.335 E0.01053
G1 X104.434 Y147.000 E0.01052
G1 X104.456 Y146.665 E0.01053
G1 X104.521 Y146.336 E0.01052
G1 X104.629 Y146.018 E0.01052
G1 X104.778 Y145.717 E0.01052
G1 X104.964 Y145.438 E0.01053
G1 X105.185 Y145.185 E0.01053
G1 X105.438 Y144.964 E0.01053
G1 X105.717 Y144.777 E0.01053
G1 X106.018 Y144.629 E0.01052
G1 X106.279 Y144.540 E0.00864
G1 X106.434 Y144.886 F7200.000
G1 F840
G1 X106.714 Y144.830 E0.00897
G1 X106.992 Y144.812 E0.00872
G1 X107.284 Y144.830 E0.00919
G1 X107.566 Y144.886 E0.00901
G1 X107.837 Y144.978 E0.00897
G1 X108.094 Y145.105 E0.00897
G1 X108.332 Y145.264 E0.00898
G1 X108.547 Y145.452 E0.00897
G1 X108.736 Y145.668 E0.00897
G1 X108.891 Y145.899 E0.00872
G1 X109.021 Y146.161 E0.00920
G1 X109.114 Y146.433 E0.00901
G1 X109.170 Y146.714 E0.00897
G1 X109.188 Y147.000 E0.00898
G1 X109.170 Y147.285 E0.00898
G1 X109.114 Y147.566 E0.00897
G1 X109.022 Y147.837 E0.00897
G1 X108.895 Y148.094 E0.00898
G1 X108.736 Y148.332 E0.00898
G1 X108.547 Y148.547 E0.00897
G1 X108.332 Y148.736 E0.00897
G1 X108.094 Y148.895 E0.00898
G1 X107.838 Y149.022 E0.00898
G1 X107.566 Y149.114 E0.00898
G1 X107.286 Y149.169 E0.00898
G1 X107.000 Y149.188 E0.00897
G1 X106.714 Y149.169 E0.00898
G1 X106.434 Y149.114 E0.00897
G1 X106.163 Y149.022 E0.00898
G1 X105.906 Y148.895 E0.00898
G1 X105.668 Y148.736 E0.00897
G1 X105.453 Y148.547 E0.00897
G1 X105.264 Y148.332 E0.00897
G1 X105.105 Y148.094 E0.00898
G1 X104.978 Y147.837 E0.00897
G1 X104.886 Y147.566 E0.00897
G1 X104.830 Y147.285 E0.00898
G1 X104.812 Y147.000 E0.00897
G1 X104.830 Y146.714 E0.00898
G1 X104.886 Y146.433 E0.00897
G1 X104.978 Y146.162 E0.00897
G1 X105.105 Y145.906 E0.00897
G1 X105.264 Y145.668 E0.00898
G1 X105.453 Y145.452 E0.00898
G1 X105.668 Y145.264 E0.00898
G1 X105.906 Y145.105 E0.00898
G1 X106.163 Y144.978 E0.00897
G1 X106.377 Y144.905 E0.00709
G1 X106.532 Y145.251 F7200.000
G1 F840
G1 X106.764 Y145.205 E0.00742
G1 X106.993 Y145.190 E0.00720
G1 X107.236 Y145.205 E0.00764
G1 X107.469 Y145.251 E0.00744
G1 X107.693 Y145.327 E0.00743
G1 X107.905 Y145.432 E0.00742
G1 X108.102 Y145.563 E0.00743
G1 X108.280 Y145.720 E0.00742
G1 X108.436 Y145.898 E0.00743
G1 X108.564 Y146.088 E0.00719
G1 X108.673 Y146.307 E0.00764
G1 X108.749 Y146.531 E0.00744
G1 X108.795 Y146.763 E0.00742
G1 X108.811 Y147.000 E0.00743
G1 X108.795 Y147.236 E0.00743
G1 X108.749 Y147.468 E0.00743
G1 X108.673 Y147.693 E0.00742
G1 X108.568 Y147.905 E0.00743
G1 X108.436 Y148.102 E0.00743
G1 X108.280 Y148.280 E0.00742
G1 X108.102 Y148.436 E0.00742
G1 X107.905 Y148.568 E0.00743
G1 X107.693 Y148.672 E0.00743
G1 X107.469 Y148.749 E0.00743
G1 X107.236 Y148.795 E0.00743
G1 X107.000 Y148.810 E0.00742
G1 X106.764 Y148.795 E0.00743
G1 X106.532 Y148.749 E0.00742
G1 X106.307 Y148.672 E0.00743
G1 X106.095 Y148.568 E0.00743
G1 X105.898 Y148.436 E0.00742
G1 X105.720 Y148.280 E0.00743
G1 X105.564 Y148.102 E0.00742
G1 X105.432 Y147.905 E0.00743
G1 X105.327 Y147.693 E0.00742
G1 X105.251 Y147.468 E0.00743
G1 X105.205 Y147.236 E0.00743
G1 X105.190 Y147.000 E0.00742
G1 X105.205 Y146.763 E0.00743
G1 X105.251 Y146.531 E0.00742
G1 X105.327 Y146.307 E0.00743
G1 X105.432 Y146.095 E0.00742
G1 X105.564 Y145.898 E0.00743
G1 X105.720 Y145.720 E0.00743
G1 X105.898 Y145.563 E0.00743
G1 X106.095 Y145.432 E0.00743
G1 X106.307 Y145.327 E0.00742
G1 X106.475 Y145.270 E0.00554
G1 X106.593 Y145.022 F7200.000
G1 F5760
G1 X106.764 Y145.205 E-0.10264
G1 F5760
G1 X106.993 Y145.190 E-0.07948
G1 F5760
G1 X107.236 Y145.205 E-0.08439
G1 F5760
G1 X107.469 Y145.251 E-0.08219
G1 F5760
G1 X107.693 Y145.327 E-0.08203
G1 F5760
G1 X107.905 Y145.432 E-0.08201
G1 F5760
G1 X108.102 Y145.563 E-0.08204
G1 F5760
G1 X108.280 Y145.720 E-0.08201
G1 F5760
G1 X108.436 Y145.898 E-0.08202
G1 F5760
G1 X108.438 Y145.901 E-0.00119
G1 E-0.04000 F2100.00000
G1 X107.000 Y129.640 F7200.000
G1 E0.80000 F2100.00000
G1 F1680
G1 X105.751 Y129.558 E0.03923
G1 X104.524 Y129.314 E0.03923
G1 X103.339 Y128.911 E0.03924
G1 X102.217 Y128.358 E0.03924
G1 X101.176 Y127.663 E0.03923
G1 X100.236 Y126.838 E0.03923
G1 X99.411 Y125.897 E0.03923
G1 X98.715 Y124.856 E0.03924
G1 X98.162 Y123.734 E0.03923
G1 X97.760 Y122.549 E0.03923
G1 X97.523 Y121.361 E0.03800
G1 X97.434 Y120.075 E0.04039
G1 X97.516 Y118.825 E0.03930
G1 X97.760 Y117.597 E0.03923
G1 X98.162 Y116.412 E0.03924
G1 X98.715 Y115.290 E0.03923
G1 X99.411 Y114.250 E0.03923
G1 X100.236 Y113.309 E0.03923
G1 X101.176 Y112.484 E0.03923
G1 X102.217 Y111.789 E0.03923
G1 X103.339 Y111.235 E0.03924
G1 X104.524 Y110.833 E0.03924
G1 X105.751 Y110.589 E0.03923
G1 X106.961 Y110.510 E0.03800
G1 X108.247 Y110.589 E0.04039
G1 X109.476 Y110.833 E0.03930
G1 X110.661 Y111.235 E0.03924
G1 X111.783 Y111.789 E0.03923
G1 X112.824 Y112.484 E0.03924
G1 X113.764 Y113.309 E0.03923
G1 X114.589 Y114.250 E0.03924
G1 X115.284 Y115.290 E0.03923
G1 X115.838 Y116.412 E0.03923
G1 X116.240 Y117.597 E0.03924
G1 X116.484 Y118.825 E0.03923
G1 X116.566 Y120.073 E0.03923
G1 X116.484 Y121.322 E0.03923
G1 X116.240 Y122.549 E0.03924
G1 X115.838 Y123.734 E0.03924
G1 X115.284 Y124.856 E0.03923
G1 X114.589 Y125.897 E0.03924
G1 X113.764 Y126.838 E0.03924
G1 X112.824 Y127.663 E0.03923
G1 X111.783 Y128.358 E0.03924
G1 X110.661 Y128.911 E0.03923
G1 X109.476 Y129.314 E0.03924
G1 X108.248 Y129.558 E0.03924
G1 X107.060 Y129.636 E0.03735
G1 X107.000 Y129.262 F7200.000
G1 F1680
G1 X105.801 Y129.183 E0.03768
G1 X104.622 Y128.949 E0.03768
G1 X103.484 Y128.562 E0.03769
G1 X102.406 Y128.031 E0.03768
G1 X101.406 Y127.363 E0.03768
G1 X100.503 Y126.570 E0.03768
G1 X99.710 Y125.667 E0.03768
G1 X99.043 Y124.667 E0.03769
G1 X98.511 Y123.590 E0.03768
G1 X98.125 Y122.451 E0.03768
G1 X97.898 Y121.310 E0.03648
G1 X97.811 Y120.075 E0.03884
G1 X97.890 Y118.874 E0.03772
G1 X98.125 Y117.695 E0.03768
G1 X98.511 Y116.557 E0.03769
G1 X99.043 Y115.479 E0.03768
G1 X99.710 Y114.480 E0.03768
G1 X100.503 Y113.576 E0.03768
G1 X101.406 Y112.784 E0.03768
G1 X102.406 Y112.116 E0.03768
G1 X103.484 Y111.584 E0.03769
G1 X104.622 Y111.198 E0.03769
G1 X105.801 Y110.964 E0.03768
G1 X106.961 Y110.887 E0.03647
G1 X108.198 Y110.963 E0.03884
G1 X109.378 Y111.198 E0.03773
G1 X110.516 Y111.584 E0.03768
G1 X111.594 Y112.116 E0.03768
G1 X112.593 Y112.784 E0.03769
G1 X113.497 Y113.576 E0.03768
G1 X114.290 Y114.480 E0.03769
G1 X114.957 Y115.479 E0.03768
G1 X115.489 Y116.557 E0.03768
G1 X115.875 Y117.695 E0.03769
G1 X116.110 Y118.874 E0.03768
G1 X116.188 Y120.073 E0.03768
G1 X116.110 Y121.273 E0.03768
G1 X115.875 Y122.451 E0.03769
G1 X115.489 Y123.590 E0.03768
G1 X114.957 Y124.667 E0.03768
G1 X114.290 Y125.667 E0.03769
G1 X113.497 Y126.570 E0.03768
G1 X112.593 Y127.363 E0.03768
G1 X111.594 Y128.031 E0.03769
G1 X110.516 Y128.562 E0.03768
G1 X109.378 Y128.949 E0.03768
G1 X108.199 Y129.183 E0.03769
G1 X107.060 Y129.258 E0.03580
G1 X107.000 Y128.884 F7200.000
G1 F1260
G1 X105.850 Y128.808 E0.03613
G1 X104.720 Y128.584 E0.03613
G1 X103.628 Y128.213 E0.03614
G1 X102.595 Y127.703 E0.03613
G1 X101.636 Y127.063 E0.03613
G1 X100.770 Y126.303 E0.03613
G1 X100.010 Y125.437 E0.03613
G1 X99.370 Y124.479 E0.03614
G1 X98.860 Y123.445 E0.03613
G1 X98.490 Y122.354 E0.03613
G1 X98.272 Y121.260 E0.03495
G1 X98.189 Y120.074 E0.03729
G1 X98.265 Y118.923 E0.03615
G1 X98.490 Y117.793 E0.03613
G1 X98.860 Y116.702 E0.03614
G1 X99.370 Y115.668 E0.03613
G1 X100.010 Y114.710 E0.03613
G1 X100.770 Y113.843 E0.03613
G1 X101.636 Y113.084 E0.03613
G1 X102.595 Y112.443 E0.03613
G1 X103.628 Y111.933 E0.03613
G1 X104.720 Y111.563 E0.03614
G1 X105.850 Y111.338 E0.03613
G1 X106.962 Y111.265 E0.03495
G1 X108.149 Y111.338 E0.03730
G1 X109.280 Y111.563 E0.03615
G1 X110.372 Y111.933 E0.03613
G1 X111.405 Y112.443 E0.03613
G1 X112.363 Y113.084 E0.03614
G1 X113.230 Y113.843 E0.03613
G1 X113.990 Y114.710 E0.03614
G1 X114.630 Y115.668 E0.03613
G1 X115.140 Y116.702 E0.03613
G1 X115.510 Y117.793 E0.03614
G1 X115.735 Y118.923 E0.03613
G1 X115.810 Y120.073 E0.03613
G1 X115.735 Y121.223 E0.03613
G1 X115.510 Y122.354 E0.03614
G1 X115.140 Y123.445 E0.03613
G1 X114.630 Y124.479 E0.03613
G1 X113.990 Y125.437 E0.03613
G1 X113.230 Y126.303 E0.03613
G1 X112.363 Y127.063 E0.03613
G1 X111.405 Y127.703 E0.03614
G1 X110.372 Y128.213 E0.03613
G1 X109.280 Y128.584 E0.03613
G1 X108.150 Y128.808 E0.03614
G1 X107.060 Y128.880 E0.03425
G1 X106.800 Y129.230 F7200.000
G1 F5760
G1 X105.850 Y128.808 E-0.41976
G1 F5760
G1 X104.886 Y128.617 E-0.34024
G1 E-0.04000 F2100.00000
G1 X133.364 Y105.000 F7200.000
G1 E0.80000 F2100.00000
G1 F1680
G1 X125.747 Y112.616 E0.33771
G1 X122.193 Y112.616 E0.11143
G1 X119.680 Y110.103 E0.11143
G1 X119.680 Y106.549 E0.11143
G1 X121.229 Y105.000 E0.06868
G1 X119.680 Y103.451 E0.06868
G1 X119.680 Y99.897 E0.11143
G1 X122.193 Y97.384 E0.11143
G1 X125.747 Y97.384 E0.11143
G1 X133.321 Y104.957 E0.33583
G1 X132.830 Y105.000 F7200.000
G1 F1680
G1 X125.591 Y112.239 E0.32099
G1 X122.350 Y112.239 E0.10164
G1 X120.057 Y109.947 E0.10164
G1 X120.057 Y106.705 E0.10164
G1 X121.763 Y105.000 E0.07561
G1 X120.057 Y103.295 E0.07561
G1 X120.057 Y100.053 E0.10164
G1 X122.350 Y97.761 E0.10164
G1 X125.591 Y97.761 E0.10164
G1 X132.788 Y104.957 E0.31911
G1 X132.297 Y105.000 F7200.000
G1 F1260
G1 X125.435 Y111.862 E0.30427
G1 X122.506 Y111.862 E0.09185
G1 X120.434 Y109.790 E0.09185
G1 X120.434 Y106.861 E0.09185
G1 X122.296 Y105.000 E0.08253
G1 X120.434 Y103.138 E0.08253
G1 X120.434 Y100.209 E0.09185
G1 X122.506 Y98.138 E0.09185
G1 X125.435 Y98.138 E0.09185
G1 X132.255 Y104.957 E0.30239
G1 X132.596 Y105.266 F7200.000
G1 F5760
G1 X130.713 Y106.519 E-0.76000
G1 E-0.04000 F2100.00000
G1 X131.964 Y113.226 F7200.000
G1 E0.80000 F2100.00000
G1 F1680
G1 X131.964 Y132.964 E0.61888
G1 X118.036 Y132.964 E0.43671
G1 X118.036 Y117.578 E0.48240
G1 X131.907 Y113.244 E0.45565
G1 X131.587 Y113.739 F7200.000
G1 F1680
G1 X131.587 Y132.587 E0.59097
G1 X118.413 Y132.587 E0.41307
G1 X118.413 Y117.856 E0.46189
G1 X131.530 Y113.757 E0.43088
G1 X131.210 Y114.252 F7200.000
G1 F1260
G1 X131.210 Y132.210 E0.56307
G1 X118.790 Y132.210 E0.38942
G1 X118.790 Y118.133 E0.44137
G1 X131.153 Y114.270 E0.40611
G1 X131.589 Y114.125 F7200.000
G1 F5760
G1 X131.160 Y116.464 E-0.76000
G1 E-0.04000 F2100.00000
G1 X134.162 Y116.412 F7200.000
G1 E0.80000 F2100.00000
G1 F1680
G1 X134.715 Y115.290 E0.03923
G1 X135.411 Y114.250 E0.03923
G1 X136.236 Y113.309 E0.03923
G1 X137.176 Y112.484 E0.03923
G1 X138.217 Y111.789 E0.03923
G1 X139.339 Y111.235 E0.03924
G1 X140.524 Y110.833 E0.03924
G1 X141.751 Y110.589 E0.03923
G1 X142.961 Y110.510 E0.03800
G1 X144.247 Y110.589 E0.04039
G1 X145.476 Y110.833 E0.03930
G1 X146.661 Y111.235 E0.03924
G1 X147.783 Y111.789 E0.03923
G1 X148.824 Y112.484 E0.03924
G1 X149.764 Y113.309 E0.03923
G1 X150.589 Y114.250 E0.03924
G1 X151.284 Y115.290 E0.03923
G1 X151.838 Y116.412 E0.03923
G1 X152.240 Y117.597 E0.03924
G1 X152.484 Y118.825 E0.03923
G1 X152.566 Y120.073 E0.03923
G1 X152.484 Y121.322 E0.03923
G1 X152.240 Y122.549 E0.03924
G1 X151.838 Y123.734 E0.03924
G1 X151.284 Y124.856 E0.03923
G1 X150.589 Y125.897 E0.03924
G1 X149.764 Y126.838 E0.03924
G1 X148.824 Y127.663 E0.03923
G1 X147.783 Y128.358 E0.03924
G1 X146.661 Y128.911 E0.03923
G1 X145.476 Y129.314 E0.03924
G1 X144.248 Y129.558 E0.03924
G1 X143.000 Y129.640 E0.03923
G1 X141.751 Y129.558 E0.03923
G1 X140.524 Y129.314 E0.03923
G1 X139.339 Y128.911 E0.03924
G1 X138.217 Y128.358 E0.03924
G1 X137.176 Y127.663 E0.03923
G1 X136.236 Y126.838 E0.03923
G1 X135.411 Y125.897 E0.03923
G1 X134.715 Y124.856 E0.03924
G1 X134.162 Y123.734 E0.03923
G1 X133.760 Y122.549 E0.03923
G1 X133.516 Y121.322 E0.03924
G1 X133.434 Y120.073 E0.03923
G1 X133.516 Y118.825 E0.03923
G1 X133.760 Y117.597 E0.03923
G1 X134.143 Y116.469 E0.03735
G1 X134.511 Y116.557 F7200.000
G1 F1680
G1 X135.043 Y115.479 E0.03768
G1 X135.710 Y114.480 E0.03768
G1 X136.503 Y113.576 E0.03768
G1 X137.406 Y112.784 E0.03768
G1 X138.406 Y112.116 E0.03768
G1 X139.484 Y111.584 E0.03769
G1 X140.622 Y111.198 E0.03769
G1 X141.801 Y110.964 E0.03768
G1 X142.961 Y110.887 E0.03648
G1 X144.198 Y110.963 E0.03884
G1 X145.378 Y111.198 E0.03773
G1 X146.516 Y111.584 E0.03768
G1 X147.594 Y112.116 E0.03768
G1 X148.593 Y112.784 E0.03769
G1 X149.497 Y113.576 E0.03768
G1 X150.290 Y114.480 E0.03769
G1 X150.957 Y115.479 E0.03768
G1 X151.489 Y116.557 E0.03768
G1 X151.875 Y117.695 E0.03769
G1 X152.110 Y118.874 E0.03768
G1 X152.188 Y120.073 E0.03768
G1 X152.110 Y121.273 E0.03768
G1 X151.875 Y122.451 E0.03769
G1 X151.489 Y123.590 E0.03768
G1 X150.957 Y124.667 E0.03768
G1 X150.290 Y125.667 E0.03769
G1 X149.497 Y126.570 E0.03768
G1 X148.593 Y127.363 E0.03768
