; generated by Slic3r 1.33.8-prusa3d-win64 on 2017-03-23 at 17:54:52

; external perimeters extrusion width = 0.45mm
; perimeters extrusion width = 0.45mm
; infill extrusion width = 0.45mm
; solid infill extrusion width = 0.45mm
; top infill extrusion width = 0.40mm

M107
M115 U3.0.10 ; tell printer latest fw version
M83  ; extruder relative mode
M104 S215 ; set extruder temp
M140 S55 ; set bed temp
M190 S55 ; wait for bed temp
M109 S215 ; wait for extruder temp
G28 W ; home all without mesh bed level
G80 ; mesh bed leveling
G1 Y-3.0 F1000.0 ; go outside pritn area
G1 X60.0 E9.0  F1000.0 ; intro line
G1 X100.0 E12.5  F1000.0 ; intro line
G21 ; set units to millimeters
G90 ; use absolute coordinates
M83 ; use relative distances for extrusion
G1 E-0.80000 F2100.00000
G1 Z0.200 F7200.000
G1 X82.801 Y84.131 F7200.000
G1 E0.80000 F2100.00000
M204 S1000
G1 F2100
G1 X167.004 Y84.123 E2.64012
G1 X167.469 Y84.170 E0.01467
G1 X167.920 Y84.308 E0.01478
G1 X168.222 Y84.461 E0.01062
G1 X168.497 Y84.653 E0.01050
G1 X168.744 Y84.885 E0.01062
G1 X168.956 Y85.149 E0.01062
G1 X169.128 Y85.441 E0.01062
G1 X169.256 Y85.750 E0.01050
G1 X169.339 Y86.078 E0.01062
G1 X169.376 Y86.415 E0.01062
G1 X169.377 Y119.511 E1.03771
G1 X169.329 Y119.977 E0.01467
G1 X169.192 Y120.420 E0.01455
G1 X169.062 Y120.683 E0.00919
G1 X168.901 Y120.928 E0.00919
G1 X168.711 Y121.151 E0.00919
G1 X168.494 Y121.349 E0.00919
G1 X168.256 Y121.518 E0.00919
G1 X167.998 Y121.658 E0.00919
G1 X167.725 Y121.764 E0.00919
G1 X167.437 Y121.837 E0.00931
G1 X140.348 Y125.851 E0.85861
G1 X140.034 Y125.877 E0.00991
G1 X109.829 Y125.871 E0.94705
G1 X82.648 Y121.851 E0.86151
G1 X82.361 Y121.790 E0.00919
G1 X82.081 Y121.692 E0.00931
G1 X81.782 Y121.541 E0.01050
G1 X81.507 Y121.350 E0.01050
G1 X81.262 Y121.122 E0.01050
G1 X81.049 Y120.858 E0.01062
G1 X80.878 Y120.570 E0.01050
G1 X80.747 Y120.258 E0.01062
G1 X80.663 Y119.934 E0.01050
G1 X80.625 Y119.597 E0.01062
G1 X80.623 Y86.458 E1.03905
G1 X80.670 Y86.031 E0.01348
G1 X80.792 Y85.619 E0.01348
G1 X80.985 Y85.239 E0.01336
G1 X81.245 Y84.897 E0.01348
G1 X81.559 Y84.609 E0.01336
G1 X81.924 Y84.381 E0.01348
G1 X82.323 Y84.221 E0.01348
G1 X82.741 Y84.137 E0.01339
G1 F5760
G1 X84.936 Y84.137 E-0.76000
G1 E-0.04000 F2100.00000
G1 X156.451 Y91.601 F7200.000
G1 E0.80000 F2100.00000
G1 F840
G1 X156.568 Y91.012 E0.01882
G1 X156.761 Y90.444 E0.01882
G1 X157.026 Y89.906 E0.01882
G1 X157.360 Y89.407 E0.01882
G1 X157.756 Y88.956 E0.01882
G1 X158.207 Y88.560 E0.01882
G1 X158.706 Y88.226 E0.01882
G1 X159.244 Y87.961 E0.01882
G1 X159.814 Y87.768 E0.01886
G1 X160.420 Y87.650 E0.01936
G1 X161.000 Y87.612 E0.01823
G1 X161.599 Y87.651 E0.01882
G1 X162.188 Y87.768 E0.01882
G1 X162.756 Y87.961 E0.01882
G1 X163.294 Y88.226 E0.01882
G1 X163.793 Y88.560 E0.01882
G1 X164.244 Y88.956 E0.01882
G1 X164.640 Y89.407 E0.01882
G1 X164.974 Y89.906 E0.01882
G1 X165.239 Y90.444 E0.01882
G1 X165.432 Y91.012 E0.01882
G1 X165.549 Y91.601 E0.01882
G1 X165.588 Y92.200 E0.01882
G1 X165.549 Y92.799 E0.01882
G1 X165.432 Y93.388 E0.01882
G1 X165.239 Y93.956 E0.01882
G1 X164.974 Y94.494 E0.01882
G1 X164.640 Y94.994 E0.01884
G1 X164.238 Y95.450 E0.01907
G1 X163.793 Y95.840 E0.01855
G1 X163.294 Y96.174 E0.01882
G1 X162.756 Y96.439 E0.01882
G1 X162.188 Y96.632 E0.01882
G1 X161.599 Y96.749 E0.01882
G1 X161.000 Y96.788 E0.01882
G1 X160.401 Y96.749 E0.01882
G1 X159.812 Y96.632 E0.01882
G1 X159.244 Y96.439 E0.01882
G1 X158.706 Y96.174 E0.01882
G1 X158.207 Y95.840 E0.01882
G1 X157.756 Y95.444 E0.01882
G1 X157.360 Y94.993 E0.01882
G1 X157.026 Y94.494 E0.01882
G1 X156.761 Y93.956 E0.01882
G1 X156.568 Y93.388 E0.01882
G1 X156.451 Y92.799 E0.01882
G1 X156.412 Y92.200 E0.01882
G1 X156.447 Y91.661 E0.01694
G1 X156.826 Y91.650 F7200.000
G1 F840
G1 X156.933 Y91.110 E0.01727
G1 X157.110 Y90.589 E0.01727
G1 X157.354 Y90.095 E0.01727
G1 X157.660 Y89.637 E0.01727
G1 X158.023 Y89.223 E0.01727
G1 X158.437 Y88.860 E0.01727
G1 X158.895 Y88.554 E0.01727
G1 X159.389 Y88.310 E0.01727
G1 X159.911 Y88.133 E0.01728
G1 X160.468 Y88.024 E0.01781
G1 X161.000 Y87.990 E0.01671
G1 X161.550 Y88.026 E0.01727
G1 X162.090 Y88.133 E0.01727
G1 X162.611 Y88.310 E0.01727
G1 X163.105 Y88.554 E0.01727
G1 X163.563 Y88.860 E0.01727
G1 X163.977 Y89.223 E0.01727
G1 X164.340 Y89.637 E0.01727
G1 X164.646 Y90.095 E0.01727
G1 X164.890 Y90.589 E0.01727
G1 X165.067 Y91.110 E0.01727
G1 X165.174 Y91.650 E0.01727
G1 X165.210 Y92.200 E0.01727
G1 X165.174 Y92.750 E0.01727
G1 X165.067 Y93.290 E0.01727
G1 X164.890 Y93.811 E0.01727
G1 X164.646 Y94.305 E0.01727
G1 X164.340 Y94.763 E0.01728
G1 X163.971 Y95.183 E0.01752
G1 X163.563 Y95.540 E0.01701
G1 X163.105 Y95.846 E0.01727
G1 X162.611 Y96.090 E0.01727
G1 X162.090 Y96.267 E0.01727
G1 X161.550 Y96.374 E0.01727
G1 X161.000 Y96.410 E0.01727
G1 X160.450 Y96.374 E0.01727
G1 X159.910 Y96.267 E0.01727
G1 X159.389 Y96.090 E0.01727
G1 X158.895 Y95.846 E0.01727
G1 X158.437 Y95.540 E0.01727
G1 X158.023 Y95.177 E0.01727
G1 X157.660 Y94.763 E0.01727
G1 X157.354 Y94.305 E0.01727
G1 X157.110 Y93.811 E0.01727
G1 X156.933 Y93.290 E0.01727
G1 X156.826 Y92.750 E0.01727
G1 X156.790 Y92.200 E0.01727
G1 X156.822 Y91.710 E0.01539
G1 X156.508 Y91.407 F7200.000
G1 F5760
G1 X156.933 Y91.110 E-0.21138
G1 F5760
G1 X157.110 Y90.589 E-0.19075
G1 F5760
G1 X157.354 Y90.095 E-0.19075
G1 F5760
G1 X157.622 Y89.694 E-0.16711
G1 E-0.04000 F2100.00000
G1 X135.042 Y117.075 F7200.000
G1 E0.80000 F2100.00000
G1 F840
G1 X135.585 Y117.502 E0.02169
G1 X135.978 Y118.014 E0.02022
G1 X136.235 Y118.634 E0.02106
G1 X136.322 Y119.300 E0.02105
G1 X136.235 Y119.966 E0.02105
G1 X135.978 Y120.586 E0.02106
G1 X135.569 Y121.119 E0.02106
G1 X135.036 Y121.528 E0.02105
G1 X134.416 Y121.785 E0.02105
G1 X133.750 Y121.872 E0.02106
G1 X133.084 Y121.785 E0.02106
G1 X132.464 Y121.528 E0.02105
G1 X131.931 Y121.119 E0.02106
G1 X131.522 Y120.586 E0.02106
G1 X131.265 Y119.966 E0.02105
G1 X131.177 Y119.300 E0.02106
G1 X131.265 Y118.634 E0.02106
G1 X131.522 Y118.014 E0.02105
G1 X131.931 Y117.481 E0.02106
G1 X132.469 Y117.069 E0.02125
G1 X133.111 Y116.812 E0.02169
G1 X133.750 Y116.728 E0.02021
G1 X134.416 Y116.815 E0.02106
G1 X134.986 Y117.052 E0.01936
G1 X134.849 Y117.403 F7200.000
G1 F840
G1 X135.315 Y117.769 E0.01857
G1 X135.648 Y118.204 E0.01718
G1 X135.867 Y118.733 E0.01794
G1 X135.942 Y119.300 E0.01794
G1 X135.867 Y119.867 E0.01794
G1 X135.648 Y120.396 E0.01794
G1 X135.300 Y120.850 E0.01795
G1 X134.846 Y121.198 E0.01794
G1 X134.317 Y121.417 E0.01794
G1 X133.750 Y121.492 E0.01794
G1 X133.183 Y121.417 E0.01794
G1 X132.654 Y121.198 E0.01794
G1 X132.200 Y120.850 E0.01794
G1 X131.852 Y120.396 E0.01794
G1 X131.632 Y119.867 E0.01794
G1 X131.558 Y119.300 E0.01794
G1 X131.632 Y118.733 E0.01794
G1 X131.852 Y118.204 E0.01794
G1 X132.200 Y117.750 E0.01794
G1 X132.657 Y117.399 E0.01806
G1 X133.207 Y117.179 E0.01858
G1 X133.750 Y117.108 E0.01717
G1 X134.317 Y117.183 E0.01794
G1 X134.794 Y117.380 E0.01618
G1 X134.657 Y117.731 F7200.000
G1 F840
G1 X135.045 Y118.036 E0.01546
G1 X135.319 Y118.394 E0.01414
G1 X135.500 Y118.831 E0.01483
G1 X135.562 Y119.300 E0.01483
G1 X135.500 Y119.769 E0.01483
G1 X135.319 Y120.206 E0.01483
G1 X135.031 Y120.581 E0.01483
G1 X134.656 Y120.869 E0.01483
G1 X134.219 Y121.050 E0.01483
G1 X133.750 Y121.112 E0.01483
G1 X133.281 Y121.050 E0.01483
G1 X132.844 Y120.869 E0.01483
G1 X132.469 Y120.581 E0.01483
G1 X132.181 Y120.206 E0.01483
G1 X132.000 Y119.769 E0.01483
G1 X131.938 Y119.300 E0.01483
G1 X132.000 Y118.831 E0.01483
G1 X132.181 Y118.394 E0.01483
G1 X132.469 Y118.019 E0.01483
G1 X132.845 Y117.730 E0.01487
G1 X133.303 Y117.547 E0.01546
G1 X133.750 Y117.488 E0.01413
G1 X134.219 Y117.550 E0.01483
G1 X134.602 Y117.709 E0.01299
G1 X135.005 Y117.534 F7200.000
G1 F5760
G1 X135.045 Y118.036 E-0.19089
G1 F5760
G1 X135.319 Y118.394 E-0.15616
G1 F5760
G1 X135.500 Y118.831 E-0.16382
G1 F5760
G1 X135.562 Y119.300 E-0.16381
G1 F5760
G1 X135.530 Y119.544 E-0.08533
G1 E-0.04000 F2100.00000
G1 X118.823 Y119.300 F7200.000
G1 E0.80000 F2100.00000
G1 F840
G1 X118.735 Y119.966 E0.02106
G1 X118.478 Y120.586 E0.02105
G1 X118.069 Y121.119 E0.02106
G1 X117.536 Y121.528 E0.02106
G1 X116.916 Y121.785 E0.02105
G1 X116.250 Y121.872 E0.02106
G1 X115.584 Y121.785 E0.02106
G1 X114.964 Y121.528 E0.02105
G1 X114.431 Y121.119 E0.02105
G1 X114.022 Y120.586 E0.02106
G1 X113.765 Y119.966 E0.02106
G1 X113.678 Y119.300 E0.02105
G1 X113.765 Y118.634 E0.02105
G1 X114.022 Y118.014 E0.02106
G1 X114.431 Y117.481 E0.02106
G1 X114.969 Y117.069 E0.02124
G1 X115.611 Y116.812 E0.02169
G1 X116.250 Y116.728 E0.02021
G1 X116.916 Y116.815 E0.02106
G1 X117.536 Y117.072 E0.02105
G1 X118.069 Y117.481 E0.02106
G1 X118.478 Y118.014 E0.02106
G1 X118.735 Y118.634 E0.02105
G1 X118.815 Y119.241 E0.01918
G1 X118.442 Y119.300 F7200.000
G1 F840
G1 X118.368 Y119.867 E0.01794
G1 X118.148 Y120.396 E0.01794
G1 X117.800 Y120.850 E0.01794
G1 X117.346 Y121.198 E0.01794
G1 X116.817 Y121.417 E0.01794
G1 X116.250 Y121.492 E0.01794
G1 X115.683 Y121.417 E0.01794
G1 X115.154 Y121.198 E0.01794
G1 X114.700 Y120.850 E0.01794
G1 X114.352 Y120.396 E0.01795
G1 X114.133 Y119.867 E0.01794
G1 X114.058 Y119.300 E0.01794
G1 X114.133 Y118.733 E0.01794
G1 X114.352 Y118.204 E0.01794
G1 X114.700 Y117.750 E0.01795
G1 X115.157 Y117.399 E0.01806
G1 X115.707 Y117.179 E0.01858
G1 X116.250 Y117.108 E0.01717
G1 X116.817 Y117.183 E0.01794
G1 X117.346 Y117.402 E0.01794
G1 X117.800 Y117.750 E0.01794
G1 X118.148 Y118.204 E0.01794
G1 X118.368 Y118.733 E0.01794
G1 X118.434 Y119.241 E0.01606
G1 X118.062 Y119.300 F7200.000
G1 F840
G1 X118.000 Y119.769 E0.01483
G1 X117.819 Y120.206 E0.01483
G1 X117.531 Y120.581 E0.01483
G1 X117.156 Y120.869 E0.01483
G1 X116.719 Y121.050 E0.01483
G1 X116.250 Y121.112 E0.01483
G1 X115.781 Y121.050 E0.01483
G1 X115.344 Y120.869 E0.01483
G1 X114.969 Y120.581 E0.01483
G1 X114.681 Y120.206 E0.01483
G1 X114.500 Y119.769 E0.01483
G1 X114.438 Y119.300 E0.01483
G1 X114.500 Y118.831 E0.01483
G1 X114.681 Y118.394 E0.01483
G1 X114.969 Y118.019 E0.01483
G1 X115.345 Y117.730 E0.01487
G1 X115.803 Y117.547 E0.01546
G1 X116.250 Y117.488 E0.01413
G1 X116.719 Y117.550 E0.01483
G1 X117.156 Y117.731 E0.01483
G1 X117.531 Y118.019 E0.01483
G1 X117.819 Y118.394 E0.01483
G1 X118.000 Y118.831 E0.01483
G1 X118.054 Y119.241 E0.01295
G1 X118.408 Y119.500 F7200.000
G1 F5760
G1 X118.000 Y119.769 E-0.18397
G1 F5760
G1 X117.819 Y120.206 E-0.16382
G1 F5760
G1 X117.531 Y120.581 E-0.16381
G1 F5760
G1 X117.156 Y120.869 E-0.16381
G1 F5760
G1 X116.930 Y120.963 E-0.08458
G1 E-0.04000 F2100.00000
G1 X110.023 Y107.440 F7200.000
G1 E0.80000 F2100.00000
G1 F840
G1 X109.483 Y107.801 E0.02037
G1 X108.901 Y108.088 E0.02037
G1 X108.285 Y108.297 E0.02037
G1 X107.648 Y108.424 E0.02037
G1 X107.000 Y108.466 E0.02037
G1 X106.352 Y108.424 E0.02037
G1 X105.715 Y108.297 E0.02037
G1 X105.100 Y108.088 E0.02037
G1 X104.517 Y107.801 E0.02037
G1 X103.977 Y107.440 E0.02037
G1 X103.488 Y107.012 E0.02037
G1 X103.060 Y106.523 E0.02037
G1 X102.699 Y105.983 E0.02037
G1 X102.412 Y105.400 E0.02037
G1 X102.203 Y104.785 E0.02037
G1 X102.076 Y104.148 E0.02037
G1 X102.034 Y103.500 E0.02037
G1 X102.076 Y102.852 E0.02037
G1 X102.203 Y102.215 E0.02037
G1 X102.412 Y101.600 E0.02037
G1 X102.699 Y101.017 E0.02037
G1 X103.060 Y100.477 E0.02037
G1 X103.488 Y99.988 E0.02037
G1 X103.977 Y99.560 E0.02037
G1 X104.517 Y99.199 E0.02037
G1 X105.100 Y98.912 E0.02037
G1 X105.717 Y98.702 E0.02043
G1 X106.371 Y98.575 E0.02091
G1 X107.000 Y98.534 E0.01976
G1 X107.648 Y98.576 E0.02037
G1 X108.285 Y98.703 E0.02037
G1 X108.901 Y98.912 E0.02037
G1 X109.483 Y99.199 E0.02037
G1 X110.023 Y99.560 E0.02037
G1 X110.512 Y99.988 E0.02037
G1 X110.940 Y100.477 E0.02037
G1 X111.301 Y101.017 E0.02037
G1 X111.588 Y101.600 E0.02037
G1 X111.797 Y102.215 E0.02037
G1 X111.924 Y102.852 E0.02037
G1 X111.966 Y103.500 E0.02037
G1 X111.924 Y104.148 E0.02037
G1 X111.797 Y104.785 E0.02037
G1 X111.588 Y105.400 E0.02037
G1 X111.301 Y105.983 E0.02037
G1 X110.940 Y106.523 E0.02037
G1 X110.512 Y107.012 E0.02037
G1 X110.068 Y107.400 E0.01849
G1 X109.793 Y107.140 F7200.000
G1 F840
G1 X109.294 Y107.474 E0.01882
G1 X108.756 Y107.739 E0.01882
G1 X108.188 Y107.932 E0.01882
G1 X107.599 Y108.049 E0.01882
G1 X107.000 Y108.088 E0.01882
G1 X106.401 Y108.049 E0.01882
G1 X105.812 Y107.932 E0.01882
G1 X105.244 Y107.739 E0.01882
G1 X104.706 Y107.474 E0.01882
G1 X104.207 Y107.140 E0.01882
G1 X103.756 Y106.744 E0.01882
G1 X103.360 Y106.293 E0.01882
G1 X103.026 Y105.794 E0.01882
G1 X102.761 Y105.256 E0.01882
G1 X102.568 Y104.688 E0.01882
G1 X102.451 Y104.099 E0.01882
G1 X102.412 Y103.500 E0.01882
G1 X102.451 Y102.901 E0.01882
G1 X102.568 Y102.312 E0.01882
G1 X102.761 Y101.744 E0.01882
G1 X103.026 Y101.206 E0.01882
G1 X103.360 Y100.707 E0.01882
G1 X103.756 Y100.256 E0.01882
G1 X104.207 Y99.860 E0.01882
G1 X104.706 Y99.526 E0.01882
G1 X105.244 Y99.261 E0.01882
G1 X105.814 Y99.068 E0.01885
G1 X106.420 Y98.950 E0.01936
G1 X107.000 Y98.912 E0.01823
G1 X107.599 Y98.951 E0.01882
G1 X108.188 Y99.068 E0.01882
G1 X108.756 Y99.261 E0.01882
G1 X109.294 Y99.526 E0.01882
G1 X109.793 Y99.860 E0.01882
G1 X110.244 Y100.256 E0.01882
G1 X110.640 Y100.707 E0.01882
G1 X110.974 Y101.206 E0.01882
G1 X111.239 Y101.744 E0.01882
G1 X111.432 Y102.312 E0.01882
G1 X111.549 Y102.901 E0.01882
G1 X111.588 Y103.500 E0.01882
G1 X111.549 Y104.099 E0.01882
G1 X111.432 Y104.688 E0.01882
G1 X111.239 Y105.256 E0.01882
G1 X110.974 Y105.794 E0.01882
G1 X110.640 Y106.293 E0.01882
G1 X110.244 Y106.744 E0.01882
G1 X109.838 Y107.101 E0.01694
G1 X109.563 Y106.840 F7200.000
G1 F840
G1 X109.105 Y107.146 E0.01727
G1 X108.611 Y107.390 E0.01727
G1 X108.090 Y107.567 E0.01727
G1 X107.550 Y107.674 E0.01727
G1 X107.000 Y107.710 E0.01727
G1 X106.450 Y107.674 E0.01727
G1 X105.910 Y107.567 E0.01727
G1 X105.389 Y107.390 E0.01727
G1 X104.895 Y107.146 E0.01727
G1 X104.437 Y106.840 E0.01727
G1 X104.023 Y106.477 E0.01727
G1 X103.660 Y106.063 E0.01727
G1 X103.354 Y105.605 E0.01727
G1 X103.110 Y105.111 E0.01727
G1 X102.933 Y104.590 E0.01727
G1 X102.826 Y104.050 E0.01727
G1 X102.790 Y103.500 E0.01727
G1 X102.826 Y102.950 E0.01727
G1 X102.933 Y102.410 E0.01727
G1 X103.110 Y101.889 E0.01727
G1 X103.354 Y101.395 E0.01727
G1 X103.660 Y100.937 E0.01727
G1 X104.023 Y100.523 E0.01727
G1 X104.437 Y100.160 E0.01727
G1 X104.895 Y99.854 E0.01727
G1 X105.389 Y99.610 E0.01727
G1 X105.911 Y99.433 E0.01728
G1 X106.468 Y99.324 E0.01781
G1 X107.000 Y99.290 E0.01671
G1 X107.550 Y99.326 E0.01727
G1 X108.090 Y99.433 E0.01727
G1 X108.611 Y99.610 E0.01727
G1 X109.105 Y99.854 E0.01727
G1 X109.563 Y100.160 E0.01727
G1 X109.977 Y100.523 E0.01727
G1 X110.340 Y100.937 E0.01727
G1 X110.646 Y101.395 E0.01727
G1 X110.890 Y101.889 E0.01727
G1 X111.067 Y102.410 E0.01727
G1 X111.174 Y102.950 E0.01727
G1 X111.210 Y103.500 E0.01727
G1 X111.174 Y104.050 E0.01727
G1 X111.067 Y104.590 E0.01727
G1 X110.890 Y105.111 E0.01727
G1 X110.646 Y105.605 E0.01727
G1 X110.340 Y106.063 E0.01727
G1 X109.977 Y106.477 E0.01727
G1 X109.608 Y106.801 E0.01539
G1 X109.615 Y107.237 F7200.000
G1 F5760
G1 X109.105 Y107.146 E-0.21137
G1 F5760
G1 X108.611 Y107.390 E-0.19076
G1 F5760
G1 X108.090 Y107.567 E-0.19074
G1 F5760
G1 X107.617 Y107.661 E-0.16713
G1 E-0.04000 F2100.00000
G1 X116.364 Y103.686 F7200.000
G1 E0.80000 F2100.00000
G1 F1680
G1 X115.367 Y101.281 E0.08163
G1 X115.028 Y98.700 E0.08163
G1 X115.367 Y96.119 E0.08163
G1 X116.364 Y93.714 E0.08163
G1 X117.948 Y91.648 E0.08163
G1 X120.014 Y90.064 E0.08163
G1 X122.419 Y89.067 E0.08162
G1 X125.000 Y88.728 E0.08163
G1 X127.581 Y89.067 E0.08162
G1 X129.986 Y90.064 E0.08163
G1 X132.052 Y91.648 E0.08162
G1 X133.636 Y93.714 E0.08163
G1 X134.633 Y96.119 E0.08163
G1 X134.973 Y98.700 E0.08163
G1 X134.633 Y101.281 E0.08163
G1 X133.636 Y103.686 E0.08162
G1 X132.052 Y105.752 E0.08163
G1 X129.986 Y107.336 E0.08162
G1 X127.581 Y108.333 E0.08163
G1 X125.000 Y108.672 E0.08162
G1 X122.419 Y108.333 E0.08163
G1 X120.014 Y107.336 E0.08162
G1 X117.948 Y105.752 E0.08163
G1 X116.400 Y103.734 E0.07975
G1 X116.693 Y103.496 F7200.000
G1 F1680
G1 X115.735 Y101.183 E0.07851
G1 X115.408 Y98.700 E0.07851
G1 X115.735 Y96.217 E0.07851
