; generated by Slic3r 1.33.8-prusa3d-win64 on 2017-03-23 at 17:54:27

; external perimeters extrusion width = 0.45mm
; perimeters extrusion width = 0.45mm
; infill extrusion width = 0.45mm
; solid infill extrusion width = 0.45mm
; top infill extrusion width = 0.40mm

M107
M115 U3.0.10 ; tell printer latest fw version
M83  ; extruder relative mode
M104 S215 ; set extruder temp
M140 S55 ; set bed temp
M190 S55 ; wait for bed temp
M109 S215 ; wait for extruder temp
G28 W ; home all without mesh bed level
G80 ; mesh bed leveling
G1 Y-3.0 F1000.0 ; go outside pritn area
G1 X60.0 E9.0  F1000.0 ; intro line
G1 X100.0 E12.5  F1000.0 ; intro line
G21 ; set units to millimeters
G90 ; use absolute coordinates
M83 ; use relative distances for extrusion
G1 E-0.80000 F2100.00000
G1 Z0.200 F7200.000
G1 X121.778 Y98.729 F7200.000
G1 E0.80000 F2100.00000
M204 S1000
G1 F2100
G1 X151.013 Y62.669 E1.45554
G1 X151.184 Y62.480 E0.00800
G1 X151.745 Y61.946 E0.02429
G1 X152.461 Y61.407 E0.02810
G1 X152.699 Y61.256 E0.00883
G1 X153.438 Y60.857 E0.02632
G1 X154.309 Y60.519 E0.02930
G1 X155.133 Y60.311 E0.02668
G1 X155.407 Y60.264 E0.00871
G1 X156.235 Y60.179 E0.02608
G1 X157.162 Y60.199 E0.02906
G1 X158.011 Y60.323 E0.02691
G1 X158.282 Y60.384 E0.00871
G1 X159.079 Y60.623 E0.02608
G1 X159.934 Y60.999 E0.02930
G1 X160.665 Y61.436 E0.02668
G1 X160.886 Y61.591 E0.00847
G1 X161.531 Y62.116 E0.02608
G1 X162.145 Y62.754 E0.02775
G1 X162.755 Y63.574 E0.03204
G1 X163.221 Y64.419 E0.03026
G1 X163.576 Y65.328 E0.03061
G1 X163.803 Y66.254 E0.02990
G1 X164.871 Y77.354 E0.34963
G1 X164.877 Y77.727 E0.01169
G1 X161.005 Y111.502 E1.06594
G1 X160.949 Y111.763 E0.00836
G1 X160.864 Y112.016 E0.00836
G1 X159.088 Y116.303 E0.14551
G1 X158.922 Y116.624 E0.01133
G1 X158.707 Y116.920 E0.01145
G1 X126.507 Y149.131 E1.42806
G1 X126.188 Y149.397 E0.01300
G1 X125.825 Y149.605 E0.01312
G1 X125.592 Y149.697 E0.00788
G1 X125.350 Y149.765 E0.00788
G1 X125.098 Y149.807 E0.00800
G1 X124.847 Y149.822 E0.00788
G1 X89.384 Y149.822 E1.11192
G1 X89.039 Y149.796 E0.01086
G1 X88.705 Y149.720 E0.01074
G1 X88.382 Y149.595 E0.01086
G1 X88.080 Y149.425 E0.01086
G1 X87.867 Y149.266 E0.00836
G1 X87.670 Y149.080 E0.00847
G1 X87.496 Y148.874 E0.00847
G1 X87.348 Y148.652 E0.00836
G1 X87.224 Y148.412 E0.00847
G1 X87.129 Y148.163 E0.00836
G1 X87.063 Y147.905 E0.00836
G1 X87.026 Y147.637 E0.00847
G1 X87.023 Y142.305 E0.16719
G1 X87.062 Y141.995 E0.00979
G1 X87.141 Y141.693 E0.00979
G1 X87.259 Y141.404 E0.00979
G1 X87.416 Y141.130 E0.00991
G1 X121.740 Y98.776 E1.70932
G1 F5760
G1 X123.122 Y97.071 E-0.76000
G1 E-0.04000 F2100.00000
G1 X154.634 Y82.558 F7200.000
G1 E0.80000 F2100.00000
G1 F840
G1 X154.526 Y82.240 E0.01053
G1 X154.460 Y81.911 E0.01053
G1 X154.438 Y81.576 E0.01052
G1 X154.460 Y81.241 E0.01052
G1 X154.525 Y80.916 E0.01038
G1 X154.633 Y80.595 E0.01063
G1 X154.782 Y80.293 E0.01056
G1 X154.968 Y80.014 E0.01052
G1 X155.190 Y79.761 E0.01052
G1 X155.442 Y79.540 E0.01053
G1 X155.721 Y79.354 E0.01052
G1 X156.022 Y79.205 E0.01052
G1 X156.340 Y79.097 E0.01053
G1 X156.670 Y79.032 E0.01053
G1 X157.000 Y79.010 E0.01038
G1 X157.338 Y79.031 E0.01063
G1 X157.669 Y79.097 E0.01056
G1 X157.987 Y79.205 E0.01053
G1 X158.287 Y79.354 E0.01052
G1 X158.567 Y79.540 E0.01052
G1 X158.819 Y79.761 E0.01053
G1 X159.040 Y80.014 E0.01052
G1 X159.227 Y80.293 E0.01052
G1 X159.375 Y80.594 E0.01053
G1 X159.483 Y80.912 E0.01053
G1 X159.549 Y81.241 E0.01053
G1 X159.571 Y81.576 E0.01052
G1 X159.549 Y81.911 E0.01052
G1 X159.484 Y82.236 E0.01038
G1 X159.376 Y82.557 E0.01063
G1 X159.227 Y82.859 E0.01056
G1 X159.040 Y83.138 E0.01052
G1 X158.819 Y83.390 E0.01052
G1 X158.567 Y83.612 E0.01053
G1 X158.287 Y83.798 E0.01052
G1 X157.987 Y83.947 E0.01052
G1 X157.669 Y84.055 E0.01053
G1 X157.339 Y84.120 E0.01053
G1 X157.004 Y84.142 E0.01052
G1 X156.670 Y84.120 E0.01052
G1 X156.340 Y84.055 E0.01053
G1 X156.022 Y83.947 E0.01053
G1 X155.721 Y83.798 E0.01052
G1 X155.442 Y83.612 E0.01052
G1 X155.190 Y83.391 E0.01053
G1 X154.968 Y83.138 E0.01052
G1 X154.782 Y82.859 E0.01052
G1 X154.660 Y82.612 E0.00864
G1 X154.983 Y82.413 F7200.000
G1 F840
G1 X154.891 Y82.142 E0.00898
G1 X154.835 Y81.862 E0.00898
G1 X154.816 Y81.576 E0.00897
G1 X154.835 Y81.290 E0.00897
G1 X154.890 Y81.014 E0.00885
G1 X154.982 Y80.739 E0.00908
G1 X155.109 Y80.482 E0.00900
G1 X155.268 Y80.244 E0.00897
G1 X155.457 Y80.029 E0.00898
G1 X155.672 Y79.840 E0.00898
G1 X155.910 Y79.681 E0.00897
G1 X156.167 Y79.554 E0.00897
G1 X156.438 Y79.462 E0.00898
G1 X156.719 Y79.406 E0.00898
G1 X157.000 Y79.388 E0.00885
G1 X157.289 Y79.406 E0.00908
G1 X157.571 Y79.462 E0.00900
G1 X157.842 Y79.554 E0.00898
G1 X158.099 Y79.681 E0.00897
G1 X158.337 Y79.840 E0.00897
G1 X158.552 Y80.029 E0.00898
G1 X158.741 Y80.244 E0.00898
G1 X158.900 Y80.482 E0.00897
G1 X159.026 Y80.738 E0.00898
G1 X159.118 Y81.010 E0.00898
G1 X159.174 Y81.290 E0.00898
G1 X159.193 Y81.576 E0.00897
G1 X159.174 Y81.862 E0.00897
G1 X159.119 Y82.138 E0.00885
G1 X159.026 Y82.413 E0.00908
G1 X158.900 Y82.670 E0.00900
G1 X158.741 Y82.908 E0.00897
G1 X158.552 Y83.123 E0.00898
G1 X158.337 Y83.312 E0.00898
G1 X158.099 Y83.471 E0.00897
G1 X157.842 Y83.598 E0.00897
G1 X157.571 Y83.690 E0.00898
G1 X157.290 Y83.746 E0.00898
G1 X157.004 Y83.764 E0.00897
G1 X156.719 Y83.746 E0.00897
G1 X156.438 Y83.690 E0.00898
G1 X156.167 Y83.598 E0.00898
G1 X155.910 Y83.471 E0.00897
G1 X155.672 Y83.312 E0.00897
G1 X155.457 Y83.123 E0.00898
G1 X155.268 Y82.908 E0.00898
G1 X155.109 Y82.670 E0.00897
G1 X155.009 Y82.467 E0.00709
G1 X155.332 Y82.269 F7200.000
G1 F840
G1 X155.256 Y82.045 E0.00743
G1 X155.209 Y81.812 E0.00743
G1 X155.194 Y81.576 E0.00742
G1 X155.209 Y81.340 E0.00742
G1 X155.255 Y81.111 E0.00731
G1 X155.332 Y80.883 E0.00753
G1 X155.437 Y80.671 E0.00743
G1 X155.568 Y80.474 E0.00742
G1 X155.724 Y80.296 E0.00743
G1 X155.902 Y80.140 E0.00743
G1 X156.099 Y80.008 E0.00742
G1 X156.312 Y79.903 E0.00742
G1 X156.536 Y79.827 E0.00743
G1 X156.768 Y79.781 E0.00743
G1 X157.001 Y79.766 E0.00731
G1 X157.241 Y79.781 E0.00753
G1 X157.473 Y79.827 E0.00743
G1 X157.697 Y79.903 E0.00743
G1 X157.910 Y80.008 E0.00742
G1 X158.107 Y80.140 E0.00742
G1 X158.285 Y80.296 E0.00743
G1 X158.441 Y80.474 E0.00743
G1 X158.572 Y80.671 E0.00742
G1 X158.677 Y80.883 E0.00743
G1 X158.753 Y81.107 E0.00743
G1 X158.799 Y81.340 E0.00743
G1 X158.815 Y81.576 E0.00742
G1 X158.799 Y81.812 E0.00742
G1 X158.754 Y82.041 E0.00731
G1 X158.677 Y82.269 E0.00753
G1 X158.572 Y82.481 E0.00743
G1 X158.441 Y82.678 E0.00742
G1 X158.285 Y82.856 E0.00743
G1 X158.107 Y83.012 E0.00743
G1 X157.910 Y83.144 E0.00742
G1 X157.697 Y83.249 E0.00742
G1 X157.473 Y83.325 E0.00743
G1 X157.241 Y83.371 E0.00743
G1 X157.004 Y83.386 E0.00743
G1 X156.768 Y83.371 E0.00742
G1 X156.536 Y83.325 E0.00743
G1 X156.312 Y83.249 E0.00743
G1 X156.099 Y83.144 E0.00742
G1 X155.902 Y83.012 E0.00742
G1 X155.724 Y82.856 E0.00743
G1 X155.568 Y82.678 E0.00743
G1 X155.437 Y82.481 E0.00742
G1 X155.358 Y82.323 E0.00554
G1 X155.097 Y82.238 F7200.000
G1 F5760
G1 X155.256 Y82.045 E-0.10267
G1 F5760
G1 X155.209 Y81.812 E-0.08203
G1 F5760
G1 X155.194 Y81.576 E-0.08201
G1 F5760
G1 X155.209 Y81.340 E-0.08201
G1 F5760
G1 X155.255 Y81.111 E-0.08075
G1 F5760
G1 X155.332 Y80.883 E-0.08323
G1 F5760
G1 X155.437 Y80.671 E-0.08210
G1 F5760
G1 X155.568 Y80.474 E-0.08201
G1 F5760
G1 X155.724 Y80.296 E-0.08203
G1 F5760
G1 X155.727 Y80.294 E-0.00116
G1 E-0.04000 F2100.00000
G1 X153.621 Y111.533 F7200.000
G1 E0.80000 F2100.00000
G1 F1680
G1 X153.621 Y74.228 E1.16967
G1 X152.572 Y68.282 E0.18931
G1 X152.511 Y67.726 E0.01754
G1 X152.523 Y67.198 E0.01654
G1 X152.603 Y66.677 E0.01654
G1 X152.750 Y66.170 E0.01654
G1 X152.963 Y65.687 E0.01654
G1 X153.237 Y65.236 E0.01655
G1 X153.567 Y64.825 E0.01654
G1 X153.947 Y64.461 E0.01651
G1 X154.382 Y64.143 E0.01688
G1 X154.836 Y63.894 E0.01624
G1 X155.328 Y63.703 E0.01654
G1 X155.839 Y63.578 E0.01651
G1 X156.375 Y63.520 E0.01688
G1 X156.892 Y63.531 E0.01624
G1 X157.414 Y63.612 E0.01654
G1 X157.921 Y63.759 E0.01654
G1 X158.403 Y63.972 E0.01654
G1 X158.855 Y64.245 E0.01654
G1 X159.266 Y64.576 E0.01654
G1 X159.631 Y64.957 E0.01654
G1 X159.943 Y65.382 E0.01654
G1 X160.197 Y65.845 E0.01654
G1 X160.388 Y66.337 E0.01654
G1 X160.512 Y66.843 E0.01633
G1 X161.529 Y77.500 E0.33566
G1 X157.692 Y92.454 E0.48407
G1 X157.692 Y110.942 E0.57966
G1 X156.082 Y114.830 E0.13196
G1 X124.432 Y146.481 E1.40343
G1 X90.360 Y146.481 E1.06832
G1 X90.360 Y143.410 E0.09631
G1 X121.746 Y143.409 E0.98408
G1 X153.578 Y111.575 E1.41154
G1 X153.243 Y111.377 F7200.000
G1 F1680
G1 X153.243 Y74.261 E1.16374
G1 X152.198 Y68.335 E0.18866
G1 X152.134 Y67.742 E0.01870
G1 X152.146 Y67.165 E0.01809
G1 X152.234 Y66.595 E0.01809
G1 X152.395 Y66.041 E0.01809
G1 X152.628 Y65.513 E0.01809
G1 X152.927 Y65.019 E0.01809
G1 X153.288 Y64.569 E0.01809
G1 X153.705 Y64.171 E0.01807
G1 X154.179 Y63.824 E0.01843
G1 X154.676 Y63.552 E0.01777
G1 X155.214 Y63.342 E0.01809
G1 X155.774 Y63.205 E0.01807
G1 X156.359 Y63.143 E0.01843
G1 X156.925 Y63.155 E0.01777
G1 X157.496 Y63.243 E0.01809
G1 X158.050 Y63.404 E0.01809
G1 X158.578 Y63.637 E0.01809
G1 X159.071 Y63.936 E0.01809
G1 X159.521 Y64.297 E0.01809
G1 X159.920 Y64.714 E0.01809
G1 X160.262 Y65.179 E0.01809
G1 X160.539 Y65.685 E0.01809
G1 X160.748 Y66.223 E0.01809
G1 X160.885 Y66.780 E0.01796
G1 X161.910 Y77.529 E0.33859
G1 X158.069 Y92.502 E0.48465
G1 X158.069 Y111.017 E0.58052
G1 X156.401 Y115.044 E0.13666
G1 X124.588 Y146.858 E1.41068
G1 X89.983 Y146.858 E1.08504
G1 X89.983 Y143.033 E0.11996
G1 X121.589 Y143.032 E0.99101
G1 X153.201 Y111.419 E1.40175
G1 X152.866 Y111.220 F7200.000
G1 F1260
G1 X152.866 Y74.294 E1.15781
G1 X151.825 Y68.388 E0.18801
G1 X151.756 Y67.759 E0.01986
G1 X151.770 Y67.132 E0.01964
G1 X151.865 Y66.513 E0.01964
G1 X152.040 Y65.912 E0.01964
G1 X152.293 Y65.338 E0.01964
G1 X152.618 Y64.803 E0.01964
G1 X153.010 Y64.314 E0.01964
G1 X153.462 Y63.881 E0.01964
G1 X153.977 Y63.505 E0.01998
G1 X154.517 Y63.209 E0.01931
G1 X155.101 Y62.982 E0.01964
G1 X155.709 Y62.833 E0.01964
G1 X156.343 Y62.765 E0.01998
G1 X156.958 Y62.778 E0.01931
G1 X157.578 Y62.874 E0.01964
G1 X158.179 Y63.049 E0.01964
G1 X158.752 Y63.301 E0.01964
G1 X159.288 Y63.626 E0.01964
G1 X159.777 Y64.019 E0.01964
G1 X160.210 Y64.471 E0.01964
G1 X160.580 Y64.976 E0.01964
G1 X160.882 Y65.526 E0.01964
G1 X161.109 Y66.109 E0.01964
G1 X161.257 Y66.717 E0.01960
G1 X162.292 Y77.559 E0.34151
G1 X158.446 Y92.549 E0.48522
G1 X158.446 Y111.092 E0.58138
G1 X156.721 Y115.257 E0.14136
G1 X124.745 Y147.235 E1.41793
G1 X89.606 Y147.235 E1.10176
G1 X89.606 Y142.655 E0.14360
G1 X121.433 Y142.655 E0.99793
G1 X152.824 Y111.263 E1.39196
G1 X153.262 Y111.159 F7200.000
G1 F5760
G1 X152.826 Y109.069 E-0.76000
G1 E-0.04000 F2100.00000
G1 X158.737 Y87.927 F7200.000
G1 E0.80000 F2100.00000
G1 F1680
G1 X153.903 Y83.094 E0.21448
G1 X153.903 Y83.628 E0.01674
G1 X158.488 Y88.213 E0.20345
G1 X158.379 Y88.637 E0.01376
G1 X153.903 Y84.161 E0.19862
G1 X153.903 Y84.695 E0.01674
G1 X158.270 Y89.062 E0.19378
G1 X158.161 Y89.487 E0.01376
G1 X153.903 Y85.229 E0.18895
G1 X153.903 Y85.762 E0.01674
G1 X158.053 Y89.911 E0.18412
G1 X157.944 Y90.336 E0.01376
G1 X153.903 Y86.296 E0.17928
G1 X153.903 Y86.830 E0.01674
G1 X157.835 Y90.761 E0.17445
G1 X157.726 Y91.186 E0.01376
G1 X153.903 Y87.363 E0.16961
G1 X153.903 Y87.897 E0.01674
G1 X157.617 Y91.610 E0.16478
G1 X157.508 Y92.035 E0.01376
G1 X153.903 Y88.431 E0.15994
G1 X153.903 Y88.964 E0.01674
G1 X157.409 Y92.470 E0.15558
G1 X157.409 Y93.004 E0.01674
G1 X153.903 Y89.498 E0.15558
G1 X153.903 Y90.031 E0.01674
G1 X157.409 Y93.538 E0.15558
G1 X157.409 Y94.071 E0.01674
G1 X153.903 Y90.565 E0.15558
G1 X153.903 Y91.099 E0.01674
G1 X157.409 Y94.605 E0.15558
G1 X157.409 Y95.138 E0.01674
G1 X153.903 Y91.632 E0.15558
G1 X153.903 Y92.166 E0.01674
G1 X157.409 Y95.672 E0.15558
G1 X157.409 Y96.206 E0.01674
G1 X153.903 Y92.700 E0.15558
G1 X153.903 Y93.233 E0.01674
G1 X157.409 Y96.739 E0.15558
G1 X157.409 Y97.273 E0.01674
G1 X153.903 Y93.767 E0.15558
G1 X153.903 Y94.301 E0.01674
G1 X157.409 Y97.807 E0.15558
G1 X157.409 Y98.340 E0.01674
G1 X153.903 Y94.834 E0.15558
G1 X153.903 Y95.368 E0.01674
G1 X157.409 Y98.874 E0.15558
G1 X157.409 Y99.408 E0.01674
G1 X153.903 Y95.902 E0.15558
G1 X153.903 Y96.435 E0.01674
G1 X157.409 Y99.941 E0.15558
G1 X157.409 Y100.475 E0.01674
G1 X153.903 Y96.969 E0.15558
G1 X153.903 Y97.503 E0.01674
G1 X157.409 Y101.009 E0.15558
G1 X157.409 Y101.542 E0.01674
G1 X153.903 Y98.036 E0.15558
G1 X153.903 Y98.570 E0.01674
G1 X157.409 Y102.076 E0.15558
G1 X157.409 Y102.610 E0.01674
G1 X153.903 Y99.104 E0.15558
G1 X153.903 Y99.637 E0.01674
G1 X157.409 Y103.143 E0.15558
G1 X157.409 Y103.677 E0.01674
G1 X153.903 Y100.171 E0.15558
G1 X153.903 Y100.705 E0.01674
G1 X157.409 Y104.211 E0.15558
G1 X157.409 Y104.744 E0.01674
G1 X153.903 Y101.238 E0.15558
G1 X153.903 Y101.772 E0.01674
G1 X157.409 Y105.278 E0.15558
G1 X157.409 Y105.812 E0.01674
G1 X153.903 Y102.305 E0.15558
G1 X153.903 Y102.839 E0.01674
G1 X157.409 Y106.345 E0.15558
G1 X157.409 Y106.879 E0.01674
G1 X153.903 Y103.373 E0.15558
G1 X153.903 Y103.906 E0.01674
G1 X157.409 Y107.412 E0.15558
G1 X157.409 Y107.946 E0.01674
G1 X153.903 Y104.440 E0.15558
G1 X153.903 Y104.974 E0.01674
G1 X157.409 Y108.480 E0.15558
G1 X157.409 Y109.013 E0.01674
G1 X153.903 Y105.507 E0.15558
G1 X153.903 Y106.041 E0.01674
G1 X157.409 Y109.547 E0.15558
G1 X157.409 Y110.081 E0.01674
G1 X153.903 Y106.575 E0.15558
G1 X153.903 Y107.108 E0.01674
G1 X157.409 Y110.614 E0.15558
G1 X157.409 Y110.885 E0.00850
G1 X157.332 Y111.071 E0.00631
G1 X153.903 Y107.642 E0.15216
G1 X153.903 Y108.176 E0.01674
G1 X157.176 Y111.449 E0.14523
G1 X157.020 Y111.826 E0.01282
G1 X153.903 Y108.709 E0.13829
G1 X153.903 Y109.243 E0.01674
G1 X156.864 Y112.203 E0.13136
G1 X156.707 Y112.581 E0.01282
G1 X153.903 Y109.777 E0.12442
G1 X153.903 Y110.310 E0.01674
G1 X156.551 Y112.958 E0.11749
G1 X156.395 Y113.335 E0.01282
G1 X153.903 Y110.844 E0.11055
G1 X153.903 Y111.378 E0.01674
G1 X156.238 Y113.713 E0.10362
G1 X156.082 Y114.090 E0.01282
G1 X153.773 Y111.781 E0.10248
G1 X153.506 Y112.047 E0.01184
G1 X155.926 Y114.467 E0.10738
G1 X155.842 Y114.670 E0.00687
G1 X155.718 Y114.794 E0.00549
G1 X153.239 Y112.314 E0.11001
G1 X152.972 Y112.581 E0.01184
G1 X155.451 Y115.060 E0.11001
G1 X155.185 Y115.327 E0.01184
G1 X152.705 Y112.848 E0.11001
G1 X152.439 Y113.115 E0.01184
G1 X154.918 Y115.594 E0.11001
G1 X154.651 Y115.861 E0.01184
G1 X152.172 Y113.382 E0.11001
G1 X151.905 Y113.648 E0.01184
G1 X154.384 Y116.128 E0.11001
G1 X154.117 Y116.395 E0.01184
G1 X151.638 Y113.915 E0.11001
G1 X151.371 Y114.182 E0.01184
G1 X153.851 Y116.661 E0.11001
G1 X153.584 Y116.928 E0.01184
G1 X151.104 Y114.449 E0.11001
G1 X150.838 Y114.716 E0.01184
G1 X153.317 Y117.195 E0.11001
G1 X153.050 Y117.462 E0.01184
G1 X150.571 Y114.983 E0.11001
G1 X150.304 Y115.249 E0.01184
G1 X152.783 Y117.729 E0.11001
G1 X152.516 Y117.996 E0.01184
G1 X150.037 Y115.516 E0.11001
G1 X149.770 Y115.783 E0.01184
G1 X152.250 Y118.262 E0.11001
G1 X151.983 Y118.529 E0.01184
G1 X149.504 Y116.050 E0.11001
G1 X149.237 Y116.317 E0.01184
G1 X151.716 Y118.796 E0.11001
G1 X151.449 Y119.063 E0.01184
G1 X148.970 Y116.584 E0.11001
G1 X148.703 Y116.850 E0.01184
G1 X151.182 Y119.330 E0.11001
G1 X150.916 Y119.596 E0.01184
G1 X148.436 Y117.117 E0.11001
G1 X148.169 Y117.384 E0.01184
G1 X150.649 Y119.863 E0.11001
G1 X150.382 Y120.130 E0.01184
G1 X147.903 Y117.651 E0.11001
G1 X147.636 Y117.918 E0.01184
G1 X150.115 Y120.397 E0.11001
G1 X149.848 Y120.664 E0.01184
G1 X147.369 Y118.185 E0.11001
G1 X147.102 Y118.451 E0.01184
G1 X149.581 Y120.931 E0.11001
G1 X149.315 Y121.197 E0.01184
G1 X146.835 Y118.718 E0.11001
G1 X146.569 Y118.985 E0.01184
G1 X149.048 Y121.464 E0.11001
G1 X148.781 Y121.731 E0.01184
G1 X146.302 Y119.252 E0.11001
G1 X146.035 Y119.519 E0.01184
G1 X148.514 Y121.998 E0.11001
G1 X148.247 Y122.265 E0.01184
G1 X145.768 Y119.786 E0.11001
G1 X145.501 Y120.052 E0.01184
G1 X147.981 Y122.532 E0.11001
G1 X147.714 Y122.798 E0.01184
G1 X145.234 Y120.319 E0.11001
G1 X144.968 Y120.586 E0.01184
G1 X147.447 Y123.065 E0.11001
