; generated by Slic3r 1.33.8-prusa3d-win64 on 2017-03-23 at 17:55:08

; external perimeters extrusion width = 0.45mm
; perimeters extrusion width = 0.45mm
; infill extrusion width = 0.45mm
; solid infill extrusion width = 0.45mm
; top infill extrusion width = 0.40mm

M107
M115 U3.0.10 ; tell printer latest fw version
M83  ; extruder relative mode
M104 S215 ; set extruder temp
M140 S55 ; set bed temp
M190 S55 ; wait for bed temp
M109 S215 ; wait for extruder temp
G28 W ; home all without mesh bed level
G80 ; mesh bed leveling
G1 Y-3.0 F1000.0 ; go outside pritn area
G1 X60.0 E9.0  F1000.0 ; intro line
G1 X100.0 E12.5  F1000.0 ; intro line
G21 ; set units to millimeters
G90 ; use absolute coordinates
M83 ; use relative distances for extrusion
G1 E-0.80000 F2100.00000
G1 Z0.200 F7200.000
G1 X76.232 Y92.250 F7200.000
G1 E0.80000 F2100.00000
M204 S1000
G1 F2100
G1 X100.427 Y86.193 E0.78203
G1 X100.712 Y86.140 E0.00907
G1 X101.000 Y86.123 E0.00906
G1 X149.198 Y86.131 E1.51121
G1 X149.573 Y86.193 E0.01193
G1 X173.687 Y92.224 E0.77935
G1 X174.024 Y92.355 E0.01133
G1 X174.340 Y92.537 E0.01145
G1 X174.623 Y92.763 E0.01133
G1 X174.870 Y93.032 E0.01145
G1 X175.071 Y93.333 E0.01133
G1 X175.225 Y93.664 E0.01145
G1 X175.326 Y94.011 E0.01133
G1 X175.374 Y94.373 E0.01145
G1 X175.377 Y121.508 E0.85079
G1 X175.351 Y121.849 E0.01074
G1 X175.276 Y122.187 E0.01086
G1 X175.140 Y122.535 E0.01169
G1 X174.952 Y122.856 E0.01169
G1 X174.716 Y123.145 E0.01169
G1 X174.434 Y123.395 E0.01181
G1 X174.120 Y123.596 E0.01169
G1 X173.775 Y123.747 E0.01181
G1 X173.414 Y123.841 E0.01169
G1 X173.039 Y123.877 E0.01181
G1 X76.996 Y123.877 E3.01136
G1 X76.651 Y123.851 E0.01086
G1 X76.313 Y123.776 E0.01086
G1 X75.962 Y123.638 E0.01181
G1 X75.637 Y123.448 E0.01181
G1 X75.347 Y123.208 E0.01181
G1 X75.095 Y122.922 E0.01193
G1 X74.895 Y122.604 E0.01181
G1 X74.746 Y122.253 E0.01193
G1 X74.654 Y121.884 E0.01193
G1 X74.623 Y121.509 E0.01181
G1 X74.626 Y94.374 E0.85078
G1 X74.670 Y94.031 E0.01086
G1 X74.763 Y93.697 E0.01086
G1 X74.901 Y93.384 E0.01074
G1 X75.086 Y93.091 E0.01086
G1 X75.311 Y92.828 E0.01086
G1 X75.572 Y92.600 E0.01086
G1 X75.863 Y92.413 E0.01086
G1 X76.176 Y92.270 E0.01077
G1 F5760
G1 X78.304 Y91.737 E-0.76000
G1 E-0.04000 F2100.00000
G1 X102.412 Y94.200 F7200.000
G1 E0.80000 F2100.00000
G1 F840
G1 X102.451 Y93.601 E0.01882
G1 X102.568 Y93.012 E0.01882
G1 X102.761 Y92.444 E0.01882
G1 X103.026 Y91.906 E0.01882
G1 X103.360 Y91.407 E0.01882
G1 X103.756 Y90.956 E0.01882
G1 X104.207 Y90.560 E0.01882
G1 X104.706 Y90.226 E0.01882
G1 X105.244 Y89.961 E0.01882
G1 X105.813 Y89.768 E0.01883
G1 X106.410 Y89.650 E0.01907
G1 X107.000 Y89.612 E0.01855
G1 X107.599 Y89.651 E0.01882
G1 X108.188 Y89.768 E0.01882
G1 X108.756 Y89.961 E0.01882
G1 X109.294 Y90.226 E0.01882
G1 X109.793 Y90.560 E0.01882
G1 X110.244 Y90.956 E0.01882
G1 X110.640 Y91.407 E0.01882
G1 X110.974 Y91.906 E0.01882
G1 X111.239 Y92.444 E0.01882
G1 X111.432 Y93.012 E0.01882
G1 X111.549 Y93.601 E0.01882
G1 X111.588 Y94.200 E0.01882
G1 X111.549 Y94.799 E0.01882
G1 X111.432 Y95.388 E0.01882
G1 X111.239 Y95.956 E0.01882
G1 X110.974 Y96.494 E0.01882
G1 X110.640 Y96.993 E0.01882
G1 X110.244 Y97.444 E0.01882
G1 X109.793 Y97.840 E0.01882
G1 X109.294 Y98.174 E0.01882
G1 X108.756 Y98.439 E0.01882
G1 X108.188 Y98.632 E0.01882
G1 X107.599 Y98.749 E0.01882
G1 X107.000 Y98.788 E0.01882
G1 X106.401 Y98.749 E0.01882
G1 X105.812 Y98.632 E0.01882
G1 X105.244 Y98.439 E0.01882
G1 X104.706 Y98.174 E0.01882
G1 X104.207 Y97.840 E0.01882
G1 X103.756 Y97.444 E0.01882
G1 X103.360 Y96.993 E0.01882
G1 X103.026 Y96.494 E0.01882
G1 X102.761 Y95.956 E0.01882
G1 X102.568 Y95.388 E0.01882
G1 X102.451 Y94.799 E0.01882
G1 X102.416 Y94.260 E0.01694
G1 X102.790 Y94.200 F7200.000
G1 F840
G1 X102.826 Y93.650 E0.01727
G1 X102.933 Y93.110 E0.01727
G1 X103.110 Y92.589 E0.01727
G1 X103.354 Y92.095 E0.01727
G1 X103.660 Y91.637 E0.01727
G1 X104.023 Y91.223 E0.01727
G1 X104.437 Y90.860 E0.01727
G1 X104.895 Y90.554 E0.01727
G1 X105.389 Y90.310 E0.01727
G1 X105.910 Y90.133 E0.01727
G1 X106.459 Y90.025 E0.01752
G1 X107.000 Y89.990 E0.01701
G1 X107.550 Y90.026 E0.01727
G1 X108.090 Y90.133 E0.01727
G1 X108.611 Y90.310 E0.01727
G1 X109.105 Y90.554 E0.01727
G1 X109.563 Y90.860 E0.01727
G1 X109.977 Y91.223 E0.01727
G1 X110.340 Y91.637 E0.01727
G1 X110.646 Y92.095 E0.01727
G1 X110.890 Y92.589 E0.01727
G1 X111.067 Y93.110 E0.01727
G1 X111.174 Y93.650 E0.01727
G1 X111.210 Y94.200 E0.01727
G1 X111.174 Y94.750 E0.01727
G1 X111.067 Y95.290 E0.01727
G1 X110.890 Y95.811 E0.01727
G1 X110.646 Y96.305 E0.01727
G1 X110.340 Y96.763 E0.01727
G1 X109.977 Y97.177 E0.01727
G1 X109.563 Y97.540 E0.01727
G1 X109.105 Y97.846 E0.01727
G1 X108.611 Y98.090 E0.01727
G1 X108.090 Y98.267 E0.01727
G1 X107.550 Y98.374 E0.01727
G1 X107.000 Y98.410 E0.01727
G1 X106.450 Y98.374 E0.01727
G1 X105.910 Y98.267 E0.01727
G1 X105.389 Y98.090 E0.01727
G1 X104.895 Y97.846 E0.01727
G1 X104.437 Y97.540 E0.01727
G1 X104.023 Y97.177 E0.01727
G1 X103.660 Y96.763 E0.01727
G1 X103.354 Y96.305 E0.01727
G1 X103.110 Y95.811 E0.01727
G1 X102.933 Y95.290 E0.01727
G1 X102.826 Y94.750 E0.01727
G1 X102.793 Y94.260 E0.01539
G1 X102.443 Y94.000 F7200.000
G1 F5760
G1 X102.826 Y93.650 E-0.21137
G1 F5760
G1 X102.933 Y93.110 E-0.19076
G1 F5760
G1 X103.110 Y92.589 E-0.19075
G1 F5760
G1 X103.323 Y92.156 E-0.16711
G1 E-0.04000 F2100.00000
G1 X138.412 Y94.200 F7200.000
G1 E0.80000 F2100.00000
G1 F840
G1 X138.451 Y93.601 E0.01882
G1 X138.568 Y93.012 E0.01882
G1 X138.761 Y92.444 E0.01882
G1 X139.026 Y91.906 E0.01882
G1 X139.360 Y91.406 E0.01884
G1 X139.762 Y90.950 E0.01907
G1 X140.207 Y90.560 E0.01855
G1 X140.706 Y90.226 E0.01882
G1 X141.244 Y89.961 E0.01882
G1 X141.813 Y89.768 E0.01883
G1 X142.410 Y89.650 E0.01907
G1 X143.000 Y89.612 E0.01855
G1 X143.599 Y89.651 E0.01882
G1 X144.188 Y89.768 E0.01882
G1 X144.756 Y89.961 E0.01882
G1 X145.294 Y90.226 E0.01882
G1 X145.793 Y90.560 E0.01882
G1 X146.244 Y90.956 E0.01882
G1 X146.640 Y91.407 E0.01882
G1 X146.974 Y91.906 E0.01882
G1 X147.239 Y92.444 E0.01882
G1 X147.432 Y93.012 E0.01882
G1 X147.549 Y93.601 E0.01882
G1 X147.588 Y94.200 E0.01882
G1 X147.549 Y94.799 E0.01882
G1 X147.432 Y95.388 E0.01882
G1 X147.239 Y95.956 E0.01882
G1 X146.974 Y96.494 E0.01882
G1 X146.640 Y96.993 E0.01882
G1 X146.244 Y97.444 E0.01882
G1 X145.793 Y97.840 E0.01882
G1 X145.294 Y98.174 E0.01882
G1 X144.756 Y98.439 E0.01882
G1 X144.188 Y98.632 E0.01882
G1 X143.599 Y98.749 E0.01882
G1 X143.000 Y98.788 E0.01882
G1 X142.401 Y98.749 E0.01882
G1 X141.812 Y98.632 E0.01882
G1 X141.244 Y98.439 E0.01882
G1 X140.706 Y98.174 E0.01882
G1 X140.207 Y97.840 E0.01882
G1 X139.756 Y97.444 E0.01882
G1 X139.360 Y96.993 E0.01882
G1 X139.026 Y96.494 E0.01882
G1 X138.761 Y95.956 E0.01882
G1 X138.568 Y95.388 E0.01882
G1 X138.451 Y94.799 E0.01882
G1 X138.416 Y94.260 E0.01694
G1 X138.790 Y94.200 F7200.000
G1 F840
G1 X138.826 Y93.650 E0.01727
G1 X138.933 Y93.110 E0.01727
G1 X139.110 Y92.589 E0.01727
G1 X139.354 Y92.095 E0.01727
G1 X139.660 Y91.637 E0.01728
G1 X140.029 Y91.217 E0.01752
G1 X140.437 Y90.860 E0.01701
G1 X140.895 Y90.554 E0.01727
G1 X141.389 Y90.310 E0.01727
G1 X141.910 Y90.133 E0.01727
G1 X142.459 Y90.025 E0.01752
G1 X143.000 Y89.990 E0.01701
G1 X143.550 Y90.026 E0.01727
G1 X144.090 Y90.133 E0.01727
G1 X144.611 Y90.310 E0.01727
G1 X145.105 Y90.554 E0.01727
G1 X145.563 Y90.860 E0.01727
G1 X145.977 Y91.223 E0.01727
G1 X146.340 Y91.637 E0.01727
G1 X146.646 Y92.095 E0.01727
G1 X146.890 Y92.589 E0.01727
G1 X147.067 Y93.110 E0.01727
G1 X147.174 Y93.650 E0.01727
G1 X147.210 Y94.200 E0.01727
G1 X147.174 Y94.750 E0.01727
G1 X147.067 Y95.290 E0.01727
G1 X146.890 Y95.811 E0.01727
G1 X146.646 Y96.305 E0.01727
G1 X146.340 Y96.763 E0.01727
G1 X145.977 Y97.177 E0.01727
G1 X145.563 Y97.540 E0.01727
G1 X145.105 Y97.846 E0.01727
G1 X144.611 Y98.090 E0.01727
G1 X144.090 Y98.267 E0.01727
G1 X143.550 Y98.374 E0.01727
G1 X143.000 Y98.410 E0.01727
G1 X142.450 Y98.374 E0.01727
G1 X141.910 Y98.267 E0.01727
G1 X141.389 Y98.090 E0.01727
G1 X140.895 Y97.846 E0.01727
G1 X140.437 Y97.540 E0.01727
G1 X140.023 Y97.177 E0.01727
G1 X139.660 Y96.763 E0.01727
G1 X139.354 Y96.305 E0.01727
G1 X139.110 Y95.811 E0.01727
G1 X138.933 Y95.290 E0.01727
G1 X138.826 Y94.750 E0.01727
G1 X138.793 Y94.260 E0.01539
G1 X138.443 Y94.000 F7200.000
G1 F5760
G1 X138.826 Y93.650 E-0.21137
G1 F5760
G1 X138.933 Y93.110 E-0.19076
G1 F5760
G1 X139.110 Y92.589 E-0.19075
G1 F5760
G1 X139.323 Y92.156 E-0.16711
G1 E-0.04000 F2100.00000
G1 X142.665 Y114.956 F7200.000
G1 E0.80000 F2100.00000
G1 F840
G1 X142.987 Y114.935 E0.01010
G1 X143.332 Y114.955 E0.01085
G1 X143.664 Y115.021 E0.01062
G1 X143.982 Y115.129 E0.01053
G1 X144.283 Y115.278 E0.01052
G1 X144.562 Y115.464 E0.01052
G1 X144.815 Y115.685 E0.01053
G1 X145.036 Y115.938 E0.01052
G1 X145.222 Y116.217 E0.01052
G1 X145.371 Y116.518 E0.01053
G1 X145.479 Y116.836 E0.01052
G1 X145.544 Y117.165 E0.01052
G1 X145.566 Y117.500 E0.01053
G1 X145.544 Y117.835 E0.01053
G1 X145.479 Y118.164 E0.01052
G1 X145.371 Y118.482 E0.01052
G1 X145.222 Y118.783 E0.01053
G1 X145.036 Y119.062 E0.01052
G1 X144.815 Y119.315 E0.01052
G1 X144.562 Y119.536 E0.01053
G1 X144.283 Y119.722 E0.01052
G1 X143.982 Y119.871 E0.01052
G1 X143.664 Y119.979 E0.01053
G1 X143.335 Y120.044 E0.01053
G1 X143.000 Y120.066 E0.01052
G1 X142.665 Y120.044 E0.01053
G1 X142.336 Y119.979 E0.01052
G1 X142.018 Y119.871 E0.01053
G1 X141.717 Y119.722 E0.01052
G1 X141.438 Y119.536 E0.01053
G1 X141.185 Y119.315 E0.01053
G1 X140.964 Y119.062 E0.01052
G1 X140.777 Y118.783 E0.01053
G1 X140.629 Y118.482 E0.01052
G1 X140.521 Y118.164 E0.01052
G1 X140.456 Y117.835 E0.01053
G1 X140.434 Y117.500 E0.01052
G1 X140.456 Y117.165 E0.01052
G1 X140.521 Y116.836 E0.01053
G1 X140.629 Y116.518 E0.01052
G1 X140.777 Y116.217 E0.01052
G1 X140.964 Y115.938 E0.01053
G1 X141.185 Y115.685 E0.01052
G1 X141.438 Y115.464 E0.01053
G1 X141.717 Y115.278 E0.01053
G1 X142.018 Y115.129 E0.01052
G1 X142.336 Y115.021 E0.01053
G1 X142.606 Y114.967 E0.00864
G1 X142.714 Y115.330 F7200.000
G1 F840
G1 X142.988 Y115.312 E0.00859
G1 X143.284 Y115.330 E0.00930
G1 X143.566 Y115.386 E0.00903
G1 X143.837 Y115.478 E0.00898
G1 X144.094 Y115.605 E0.00897
G1 X144.332 Y115.764 E0.00897
G1 X144.547 Y115.953 E0.00898
G1 X144.736 Y116.168 E0.00897
G1 X144.895 Y116.406 E0.00897
G1 X145.022 Y116.663 E0.00898
G1 X145.114 Y116.934 E0.00897
G1 X145.170 Y117.214 E0.00897
G1 X145.188 Y117.500 E0.00898
G1 X145.170 Y117.786 E0.00898
G1 X145.114 Y118.066 E0.00897
G1 X145.022 Y118.337 E0.00897
G1 X144.895 Y118.594 E0.00898
G1 X144.736 Y118.832 E0.00897
G1 X144.547 Y119.047 E0.00897
G1 X144.332 Y119.236 E0.00898
G1 X144.094 Y119.395 E0.00897
G1 X143.837 Y119.522 E0.00897
G1 X143.566 Y119.614 E0.00898
G1 X143.286 Y119.670 E0.00898
G1 X143.000 Y119.688 E0.00897
G1 X142.714 Y119.670 E0.00898
G1 X142.434 Y119.614 E0.00897
G1 X142.162 Y119.522 E0.00898
G1 X141.906 Y119.395 E0.00897
G1 X141.668 Y119.236 E0.00898
G1 X141.452 Y119.047 E0.00898
G1 X141.264 Y118.832 E0.00897
G1 X141.105 Y118.594 E0.00898
G1 X140.978 Y118.337 E0.00897
G1 X140.886 Y118.066 E0.00898
G1 X140.830 Y117.786 E0.00898
G1 X140.812 Y117.500 E0.00897
G1 X140.830 Y117.214 E0.00897
G1 X140.886 Y116.934 E0.00898
G1 X140.978 Y116.663 E0.00898
G1 X141.105 Y116.406 E0.00897
G1 X141.264 Y116.168 E0.00898
G1 X141.452 Y115.953 E0.00897
G1 X141.668 Y115.764 E0.00898
G1 X141.906 Y115.605 E0.00898
G1 X142.162 Y115.478 E0.00897
G1 X142.434 Y115.386 E0.00898
G1 X142.655 Y115.342 E0.00709
G1 X142.764 Y115.705 F7200.000
G1 F840
G1 X142.989 Y115.690 E0.00708
G1 X143.236 Y115.705 E0.00775
G1 X143.469 Y115.751 E0.00745
G1 X143.693 Y115.827 E0.00743
G1 X143.905 Y115.932 E0.00742
G1 X144.102 Y116.064 E0.00742
G1 X144.280 Y116.220 E0.00743
G1 X144.436 Y116.398 E0.00743
G1 X144.568 Y116.595 E0.00742
G1 X144.673 Y116.807 E0.00743
G1 X144.749 Y117.031 E0.00742
G1 X144.795 Y117.264 E0.00743
G1 X144.810 Y117.500 E0.00743
G1 X144.795 Y117.736 E0.00743
G1 X144.749 Y117.969 E0.00743
G1 X144.673 Y118.193 E0.00742
G1 X144.568 Y118.405 E0.00743
G1 X144.436 Y118.602 E0.00742
G1 X144.280 Y118.780 E0.00743
G1 X144.102 Y118.936 E0.00743
G1 X143.905 Y119.068 E0.00742
G1 X143.693 Y119.173 E0.00742
G1 X143.469 Y119.249 E0.00743
G1 X143.236 Y119.295 E0.00743
G1 X143.000 Y119.310 E0.00742
G1 X142.764 Y119.295 E0.00743
G1 X142.531 Y119.249 E0.00742
G1 X142.307 Y119.173 E0.00743
G1 X142.095 Y119.068 E0.00742
G1 X141.898 Y118.936 E0.00743
G1 X141.720 Y118.780 E0.00743
G1 X141.564 Y118.602 E0.00743
G1 X141.432 Y118.405 E0.00743
G1 X141.327 Y118.193 E0.00742
G1 X141.251 Y117.969 E0.00743
G1 X141.205 Y117.736 E0.00743
G1 X141.190 Y117.500 E0.00742
G1 X141.205 Y117.264 E0.00742
G1 X141.251 Y117.031 E0.00743
G1 X141.327 Y116.807 E0.00743
G1 X141.432 Y116.595 E0.00742
G1 X141.564 Y116.398 E0.00743
G1 X141.720 Y116.220 E0.00743
G1 X141.898 Y116.064 E0.00743
G1 X142.095 Y115.932 E0.00743
G1 X142.307 Y115.827 E0.00742
G1 X142.531 Y115.751 E0.00743
G1 X142.705 Y115.717 E0.00554
G1 X142.850 Y115.496 F7200.000
G1 F5760
G1 X142.989 Y115.690 E-0.09883
G1 F5760
G1 X143.236 Y115.705 E-0.08560
G1 F5760
G1 X143.469 Y115.751 E-0.08226
G1 F5760
G1 X143.693 Y115.827 E-0.08204
G1 F5760
G1 X143.905 Y115.932 E-0.08201
G1 F5760
G1 X144.102 Y116.064 E-0.08200
G1 F5760
G1 X144.280 Y116.220 E-0.08202
G1 F5760
G1 X144.436 Y116.398 E-0.08202
G1 F5760
G1 X144.568 Y116.595 E-0.08201
G1 F5760
G1 X144.569 Y116.598 E-0.00119
G1 E-0.04000 F2100.00000
G1 X156.699 Y107.983 F7200.000
G1 E0.80000 F2100.00000
G1 F840
G1 X156.412 Y107.400 E0.02037
G1 X156.203 Y106.785 E0.02037
G1 X156.078 Y106.157 E0.02009
G1 X156.034 Y105.501 E0.02062
G1 X156.076 Y104.852 E0.02040
G1 X156.203 Y104.215 E0.02037
G1 X156.412 Y103.600 E0.02037
G1 X156.699 Y103.017 E0.02037
G1 X157.060 Y102.477 E0.02037
G1 X157.488 Y101.988 E0.02037
G1 X157.977 Y101.560 E0.02037
G1 X158.509 Y101.204 E0.02009
G1 X159.099 Y100.912 E0.02062
G1 X159.715 Y100.703 E0.02040
G1 X160.352 Y100.576 E0.02037
G1 X160.991 Y100.534 E0.02009
G1 X161.647 Y100.576 E0.02062
G1 X162.285 Y100.703 E0.02040
G1 X162.900 Y100.912 E0.02037
G1 X163.483 Y101.199 E0.02037
G1 X164.023 Y101.560 E0.02037
G1 X164.512 Y101.988 E0.02037
G1 X164.940 Y102.477 E0.02037
G1 X165.301 Y103.017 E0.02037
G1 X165.588 Y103.600 E0.02037
G1 X165.797 Y104.215 E0.02037
G1 X165.922 Y104.843 E0.02009
G1 X165.966 Y105.499 E0.02062
G1 X165.924 Y106.148 E0.02040
G1 X165.797 Y106.785 E0.02037
G1 X165.588 Y107.400 E0.02037
G1 X165.301 Y107.983 E0.02037
G1 X164.940 Y108.523 E0.02037
G1 X164.512 Y109.012 E0.02037
G1 X164.023 Y109.440 E0.02037
G1 X163.491 Y109.796 E0.02009
G1 X162.901 Y110.088 E0.02062
G1 X162.285 Y110.297 E0.02040
G1 X161.657 Y110.422 E0.02009
G1 X161.001 Y110.466 E0.02062
G1 X160.352 Y110.424 E0.02040
G1 X159.715 Y110.297 E0.02037
G1 X159.100 Y110.088 E0.02037
G1 X158.517 Y109.801 E0.02037
G1 X157.977 Y109.440 E0.02037
G1 X157.488 Y109.012 E0.02037
G1 X157.060 Y108.523 E0.02037
G1 X156.732 Y108.033 E0.01849
G1 X157.026 Y107.794 F7200.000
G1 F840
G1 X156.761 Y107.256 E0.01882
G1 X156.568 Y106.688 E0.01882
G1 X156.453 Y106.107 E0.01855
G1 X156.412 Y105.501 E0.01907
G1 X156.451 Y104.901 E0.01884
G1 X156.568 Y104.312 E0.01882
G1 X156.761 Y103.744 E0.01882
G1 X157.026 Y103.206 E0.01882
G1 X157.360 Y102.707 E0.01882
G1 X157.756 Y102.256 E0.01882
G1 X158.207 Y101.860 E0.01882
G1 X158.699 Y101.531 E0.01855
G1 X159.244 Y101.261 E0.01907
G1 X159.812 Y101.068 E0.01883
G1 X160.401 Y100.951 E0.01882
G1 X160.991 Y100.912 E0.01855
G1 X161.598 Y100.951 E0.01907
G1 X162.188 Y101.068 E0.01884
G1 X162.756 Y101.261 E0.01882
G1 X163.294 Y101.526 E0.01882
G1 X163.793 Y101.860 E0.01882
G1 X164.244 Y102.256 E0.01882
G1 X164.640 Y102.707 E0.01882
G1 X164.974 Y103.206 E0.01882
G1 X165.239 Y103.744 E0.01882
G1 X165.432 Y104.312 E0.01882
G1 X165.547 Y104.893 E0.01855
G1 X165.588 Y105.499 E0.01907
G1 X165.549 Y106.099 E0.01884
G1 X165.432 Y106.688 E0.01882
G1 X165.239 Y107.256 E0.01882
G1 X164.974 Y107.794 E0.01882
G1 X164.640 Y108.293 E0.01882
G1 X164.244 Y108.744 E0.01882
G1 X163.793 Y109.140 E0.01882
G1 X163.301 Y109.469 E0.01855
G1 X162.756 Y109.739 E0.01907
