; generated by Slic3r 1.33.8-prusa3d-win64 on 2017-03-23 at 17:54:10

; external perimeters extrusion width = 0.45mm
; perimeters extrusion width = 0.45mm
; infill extrusion width = 0.45mm
; solid infill extrusion width = 0.45mm
; top infill extrusion width = 0.40mm

M107
M115 U3.0.10 ; tell printer latest fw version
M83  ; extruder relative mode
M104 S215 ; set extruder temp
M140 S55 ; set bed temp
M190 S55 ; wait for bed temp
M109 S215 ; wait for extruder temp
G28 W ; home all without mesh bed level
G80 ; mesh bed leveling
G1 Y-3.0 F1000.0 ; go outside pritn area
G1 X60.0 E9.0  F1000.0 ; intro line
G1 X100.0 E12.5  F1000.0 ; intro line
G21 ; set units to millimeters
G90 ; use absolute coordinates
M83 ; use relative distances for extrusion
G1 E-0.80000 F2100.00000
G1 Z0.200 F7200.000
G1 X87.237 Y63.585 F7200.000
G1 E0.80000 F2100.00000
M204 S1000
G1 F2100
G1 X87.806 Y62.810 E0.03014
G1 X88.459 Y62.126 E0.02966
G1 X89.209 Y61.520 E0.03025
G1 X89.917 Y61.082 E0.02609
G1 X90.187 Y60.941 E0.00955
G1 X91.059 Y60.576 E0.02964
G1 X91.881 Y60.343 E0.02680
G1 X92.824 Y60.200 E0.02990
G1 X93.778 Y60.180 E0.02990
G1 X94.718 Y60.281 E0.02966
G1 X95.656 Y60.508 E0.03026
G1 X96.444 Y60.807 E0.02644
G1 X96.713 Y60.933 E0.00931
G1 X97.329 Y61.271 E0.02202
G1 X97.537 Y61.405 E0.00776
G1 X98.222 Y61.916 E0.02680
G1 X98.934 Y62.606 E0.03108
G1 X162.525 Y141.045 E3.16610
G1 X162.701 Y141.326 E0.01038
G1 X162.838 Y141.631 E0.01050
G1 X162.929 Y141.950 E0.01038
G1 X162.976 Y142.281 E0.01050
G1 X162.978 Y147.549 E0.16516
G1 X162.909 Y148.023 E0.01502
G1 X162.747 Y148.474 E0.01502
G1 X162.497 Y148.882 E0.01502
G1 X162.171 Y149.233 E0.01502
G1 X161.833 Y149.480 E0.01312
G1 X161.453 Y149.665 E0.01324
G1 X161.047 Y149.781 E0.01324
G1 X160.627 Y149.822 E0.01324
G1 X125.153 Y149.822 E1.11227
G1 X124.902 Y149.807 E0.00788
G1 X124.658 Y149.767 E0.00776
G1 X124.416 Y149.700 E0.00788
G1 X124.182 Y149.608 E0.00788
G1 X123.818 Y149.402 E0.01312
G1 X123.493 Y149.132 E0.01324
G1 X91.313 Y116.943 E1.42712
G1 X91.088 Y116.641 E0.01181
G1 X90.913 Y116.307 E0.01181
G1 X89.136 Y112.015 E0.14566
G1 X89.051 Y111.762 E0.00836
G1 X88.996 Y111.505 E0.00824
G1 X85.125 Y77.760 E1.06501
G1 X85.128 Y77.356 E0.01264
G1 X86.183 Y66.335 E0.34715
G1 X86.385 Y65.466 E0.02796
G1 X86.467 Y65.205 E0.00859
G1 X86.776 Y64.425 E0.02631
G1 X87.206 Y63.636 E0.02815
G1 F5760
G1 X87.806 Y62.810 E-0.35369
G1 F5760
G1 X88.459 Y62.126 E-0.32760
G1 F5760
G1 X88.636 Y61.983 E-0.07871
G1 E-0.04000 F2100.00000
G1 X92.331 Y79.097 F7200.000
G1 E0.80000 F2100.00000
G1 F840
G1 X92.660 Y79.032 E0.01053
G1 X92.991 Y79.010 E0.01038
G1 X93.329 Y79.031 E0.01064
G1 X93.659 Y79.097 E0.01056
G1 X93.977 Y79.205 E0.01053
G1 X94.278 Y79.353 E0.01052
G1 X94.557 Y79.540 E0.01053
G1 X94.810 Y79.761 E0.01053
G1 X95.031 Y80.014 E0.01052
G1 X95.218 Y80.293 E0.01053
G1 X95.366 Y80.594 E0.01052
G1 X95.474 Y80.912 E0.01052
G1 X95.540 Y81.241 E0.01053
G1 X95.561 Y81.576 E0.01052
G1 X95.540 Y81.911 E0.01052
G1 X95.474 Y82.240 E0.01053
G1 X95.366 Y82.558 E0.01052
G1 X95.218 Y82.859 E0.01052
G1 X95.031 Y83.138 E0.01053
G1 X94.810 Y83.390 E0.01052
G1 X94.557 Y83.612 E0.01053
G1 X94.278 Y83.798 E0.01053
G1 X93.977 Y83.947 E0.01052
G1 X93.659 Y84.055 E0.01053
G1 X93.330 Y84.120 E0.01052
G1 X92.995 Y84.142 E0.01053
G1 X92.660 Y84.120 E0.01052
G1 X92.331 Y84.055 E0.01053
G1 X92.013 Y83.947 E0.01053
G1 X91.712 Y83.798 E0.01052
G1 X91.433 Y83.612 E0.01052
G1 X91.181 Y83.390 E0.01053
G1 X90.959 Y83.138 E0.01052
G1 X90.773 Y82.859 E0.01052
G1 X90.624 Y82.558 E0.01053
G1 X90.517 Y82.240 E0.01052
G1 X90.451 Y81.911 E0.01052
G1 X90.429 Y81.576 E0.01053
G1 X90.451 Y81.241 E0.01053
G1 X90.517 Y80.912 E0.01052
G1 X90.624 Y80.594 E0.01052
G1 X90.773 Y80.293 E0.01053
G1 X90.959 Y80.014 E0.01052
G1 X91.181 Y79.761 E0.01052
G1 X91.433 Y79.540 E0.01053
G1 X91.712 Y79.354 E0.01052
G1 X92.013 Y79.205 E0.01052
G1 X92.274 Y79.116 E0.00865
G1 X92.429 Y79.462 F7200.000
G1 F840
G1 X92.710 Y79.406 E0.00898
G1 X92.991 Y79.388 E0.00884
G1 X93.280 Y79.406 E0.00909
G1 X93.562 Y79.462 E0.00899
G1 X93.833 Y79.554 E0.00898
G1 X94.089 Y79.681 E0.00897
G1 X94.327 Y79.840 E0.00898
G1 X94.543 Y80.029 E0.00898
G1 X94.731 Y80.244 E0.00897
G1 X94.891 Y80.482 E0.00898
G1 X95.017 Y80.739 E0.00897
G1 X95.109 Y81.009 E0.00897
G1 X95.165 Y81.290 E0.00898
G1 X95.184 Y81.576 E0.00897
G1 X95.165 Y81.861 E0.00897
G1 X95.109 Y82.142 E0.00898
G1 X95.017 Y82.413 E0.00897
G1 X94.891 Y82.670 E0.00897
G1 X94.731 Y82.908 E0.00898
G1 X94.543 Y83.123 E0.00897
G1 X94.327 Y83.312 E0.00898
G1 X94.089 Y83.471 E0.00898
G1 X93.833 Y83.598 E0.00897
G1 X93.562 Y83.690 E0.00898
G1 X93.281 Y83.746 E0.00897
G1 X92.995 Y83.764 E0.00898
G1 X92.710 Y83.746 E0.00897
G1 X92.429 Y83.690 E0.00898
G1 X92.158 Y83.598 E0.00898
G1 X91.901 Y83.471 E0.00897
G1 X91.663 Y83.312 E0.00897
G1 X91.448 Y83.123 E0.00898
G1 X91.259 Y82.908 E0.00897
G1 X91.100 Y82.670 E0.00897
G1 X90.974 Y82.413 E0.00898
G1 X90.882 Y82.142 E0.00897
G1 X90.826 Y81.862 E0.00897
G1 X90.807 Y81.576 E0.00898
G1 X90.826 Y81.290 E0.00898
G1 X90.882 Y81.010 E0.00897
G1 X90.974 Y80.739 E0.00897
G1 X91.100 Y80.482 E0.00898
G1 X91.259 Y80.244 E0.00897
G1 X91.448 Y80.029 E0.00897
G1 X91.663 Y79.840 E0.00898
G1 X91.901 Y79.681 E0.00897
G1 X92.158 Y79.554 E0.00897
G1 X92.372 Y79.481 E0.00710
G1 X92.527 Y79.827 F7200.000
G1 F840
G1 X92.759 Y79.781 E0.00743
G1 X92.992 Y79.766 E0.00731
G1 X93.231 Y79.781 E0.00754
G1 X93.464 Y79.827 E0.00743
G1 X93.688 Y79.903 E0.00743
G1 X93.900 Y80.008 E0.00742
G1 X94.097 Y80.140 E0.00743
G1 X94.276 Y80.296 E0.00743
G1 X94.432 Y80.474 E0.00743
G1 X94.563 Y80.671 E0.00743
G1 X94.668 Y80.883 E0.00742
G1 X94.744 Y81.107 E0.00742
G1 X94.790 Y81.340 E0.00743
G1 X94.806 Y81.576 E0.00742
G1 X94.790 Y81.812 E0.00742
G1 X94.744 Y82.045 E0.00743
G1 X94.668 Y82.269 E0.00742
G1 X94.563 Y82.481 E0.00742
G1 X94.432 Y82.678 E0.00743
G1 X94.276 Y82.856 E0.00743
G1 X94.097 Y83.012 E0.00743
G1 X93.900 Y83.144 E0.00743
G1 X93.688 Y83.249 E0.00742
G1 X93.464 Y83.325 E0.00743
G1 X93.232 Y83.371 E0.00742
G1 X92.995 Y83.386 E0.00743
G1 X92.759 Y83.371 E0.00742
G1 X92.527 Y83.325 E0.00743
G1 X92.302 Y83.249 E0.00743
G1 X92.090 Y83.144 E0.00742
G1 X91.893 Y83.012 E0.00742
G1 X91.715 Y82.856 E0.00743
G1 X91.559 Y82.678 E0.00743
G1 X91.427 Y82.481 E0.00742
G1 X91.323 Y82.269 E0.00743
G1 X91.247 Y82.045 E0.00742
G1 X91.200 Y81.812 E0.00743
G1 X91.185 Y81.576 E0.00743
G1 X91.200 Y81.340 E0.00743
G1 X91.247 Y81.107 E0.00743
G1 X91.323 Y80.883 E0.00742
G1 X91.427 Y80.671 E0.00743
G1 X91.559 Y80.474 E0.00742
G1 X91.715 Y80.296 E0.00743
G1 X91.893 Y80.140 E0.00743
G1 X92.090 Y80.008 E0.00742
G1 X92.302 Y79.903 E0.00742
G1 X92.470 Y79.846 E0.00555
G1 X92.588 Y79.598 F7200.000
G1 F5760
G1 X92.759 Y79.781 E-0.10267
G1 F5760
G1 X92.992 Y79.766 E-0.08072
G1 F5760
G1 X93.231 Y79.781 E-0.08324
G1 F5760
G1 X93.464 Y79.827 E-0.08208
G1 F5760
G1 X93.688 Y79.903 E-0.08204
G1 F5760
G1 X93.900 Y80.008 E-0.08200
G1 F5760
G1 X94.097 Y80.140 E-0.08203
G1 F5760
G1 X94.276 Y80.296 E-0.08203
G1 F5760
G1 X94.432 Y80.474 E-0.08202
G1 F5760
G1 X94.434 Y80.477 E-0.00116
G1 E-0.04000 F2100.00000
G1 X128.254 Y143.409 F7200.000
G1 E0.80000 F2100.00000
G1 F1680
G1 X159.640 Y143.410 E0.98409
G1 X159.640 Y146.481 E0.09631
G1 X125.568 Y146.481 E1.06831
G1 X93.918 Y114.830 E1.40343
G1 X92.308 Y110.942 E0.13195
G1 X92.308 Y92.454 E0.57966
G1 X88.471 Y77.500 E0.48407
G1 X89.488 Y66.843 E0.33566
G1 X89.612 Y66.337 E0.01633
G1 X89.803 Y65.845 E0.01654
G1 X90.056 Y65.383 E0.01651
G1 X90.376 Y64.950 E0.01688
G1 X90.734 Y64.576 E0.01624
G1 X91.145 Y64.245 E0.01654
G1 X91.596 Y63.972 E0.01654
G1 X92.079 Y63.759 E0.01654
G1 X92.586 Y63.612 E0.01654
G1 X93.106 Y63.532 E0.01651
G1 X93.645 Y63.521 E0.01688
G1 X94.159 Y63.577 E0.01624
G1 X94.672 Y63.703 E0.01654
G1 X95.164 Y63.894 E0.01654
G1 X95.626 Y64.148 E0.01654
G1 X96.052 Y64.460 E0.01654
G1 X96.433 Y64.825 E0.01654
G1 X96.763 Y65.236 E0.01654
G1 X97.037 Y65.687 E0.01655
G1 X97.249 Y66.170 E0.01654
G1 X97.397 Y66.677 E0.01654
G1 X97.477 Y67.198 E0.01655
G1 X97.489 Y67.726 E0.01654
G1 X97.428 Y68.282 E0.01753
G1 X96.379 Y74.228 E0.18931
G1 X96.379 Y111.533 E1.16967
G1 X128.212 Y143.367 E1.41154
G1 X128.410 Y143.032 F7200.000
G1 F1680
G1 X160.017 Y143.033 E0.99102
G1 X160.017 Y146.858 E0.11996
G1 X125.411 Y146.858 E1.08502
G1 X93.598 Y115.044 E1.41068
G1 X91.931 Y111.017 E0.13666
G1 X91.931 Y92.502 E0.58052
G1 X88.089 Y77.529 E0.48465
G1 X89.115 Y66.780 E0.33858
G1 X89.251 Y66.223 E0.01797
G1 X89.461 Y65.685 E0.01809
G1 X89.738 Y65.180 E0.01807
G1 X90.086 Y64.707 E0.01843
G1 X90.478 Y64.297 E0.01777
G1 X90.928 Y63.936 E0.01809
G1 X91.422 Y63.637 E0.01809
G1 X91.950 Y63.404 E0.01809
G1 X92.504 Y63.243 E0.01809
G1 X93.074 Y63.155 E0.01807
G1 X93.662 Y63.143 E0.01843
G1 X94.225 Y63.205 E0.01777
G1 X94.786 Y63.342 E0.01809
G1 X95.323 Y63.552 E0.01809
G1 X95.829 Y63.829 E0.01809
G1 X96.295 Y64.170 E0.01809
G1 X96.712 Y64.569 E0.01809
G1 X97.073 Y65.019 E0.01809
G1 X97.372 Y65.513 E0.01809
G1 X97.604 Y66.041 E0.01809
G1 X97.766 Y66.595 E0.01809
G1 X97.854 Y67.165 E0.01809
G1 X97.866 Y67.742 E0.01809
G1 X97.801 Y68.335 E0.01870
G1 X96.756 Y74.261 E0.18866
G1 X96.756 Y111.377 E1.16374
G1 X128.368 Y142.990 E1.40175
G1 X128.567 Y142.655 F7200.000
G1 F1260
G1 X160.395 Y142.655 E0.99794
G1 X160.394 Y147.235 E0.14360
G1 X125.255 Y147.235 E1.10174
G1 X93.279 Y115.257 E1.41793
G1 X91.553 Y111.092 E0.14136
G1 X91.553 Y92.549 E0.58138
G1 X87.708 Y77.559 E0.48522
G1 X88.742 Y66.717 E0.34151
G1 X88.891 Y66.109 E0.01960
G1 X89.118 Y65.526 E0.01964
G1 X89.419 Y64.976 E0.01964
G1 X89.797 Y64.463 E0.01998
G1 X90.223 Y64.018 E0.01931
G1 X90.712 Y63.626 E0.01964
G1 X91.247 Y63.301 E0.01964
G1 X91.821 Y63.049 E0.01964
G1 X92.422 Y62.874 E0.01964
G1 X93.041 Y62.778 E0.01964
G1 X93.678 Y62.766 E0.01998
G1 X94.291 Y62.833 E0.01931
G1 X94.899 Y62.982 E0.01964
G1 X95.483 Y63.209 E0.01964
G1 X96.032 Y63.510 E0.01964
G1 X96.538 Y63.881 E0.01964
G1 X96.990 Y64.314 E0.01964
G1 X97.382 Y64.803 E0.01964
G1 X97.707 Y65.338 E0.01964
G1 X97.960 Y65.912 E0.01964
G1 X98.135 Y66.513 E0.01964
G1 X98.230 Y67.132 E0.01964
G1 X98.244 Y67.759 E0.01964
G1 X98.175 Y68.388 E0.01986
G1 X97.134 Y74.294 E0.18801
G1 X97.134 Y111.220 E1.15781
G1 X128.524 Y142.613 E1.39196
G1 X128.624 Y143.051 F7200.000
G1 F5760
G1 X130.718 Y142.616 E-0.76000
G1 E-0.04000 F2100.00000
G1 X130.167 Y146.368 F7200.000
G1 E0.80000 F2100.00000
G1 F1680
G1 X92.590 Y108.792 E1.68320
G1 X92.590 Y109.330 E0.01706
G1 X129.458 Y146.198 E1.65146
G1 X128.920 Y146.198 E0.01706
G1 X92.590 Y109.869 E1.62733
G1 X92.590 Y110.408 E0.01706
G1 X128.381 Y146.198 E1.60320
G1 X127.842 Y146.198 E0.01706
G1 X92.634 Y110.990 E1.57714
G1 X93.014 Y111.909 E0.03152
G1 X127.304 Y146.198 E1.53595
G1 X126.765 Y146.198 E0.01706
G1 X93.395 Y112.829 E1.49476
G1 X93.776 Y113.748 E0.03152
G1 X126.226 Y146.198 E1.45357
G1 X125.687 Y146.198 E0.01706
G1 X93.843 Y114.354 E1.42642
G1 F5760
G1 X95.395 Y115.906 E-0.76000
G1 E-0.04000 F2100.00000
G1 X90.011 Y83.048 F7200.000
G1 E0.80000 F2100.00000
G1 F1680
G1 X96.097 Y89.133 E0.27259
G1 X96.097 Y89.672 E0.01706
G1 X90.433 Y84.008 E0.25370
G1 X90.619 Y84.733 E0.02369
G1 X96.097 Y90.211 E0.24538
G1 X96.097 Y90.749 E0.01706
G1 X90.805 Y85.457 E0.23705
G1 X90.990 Y86.182 E0.02369
G1 X96.097 Y91.288 E0.22872
G1 X96.097 Y91.827 E0.01706
G1 X91.176 Y86.907 E0.22040
G1 X91.362 Y87.631 E0.02369
G1 X96.097 Y92.365 E0.21207
G1 X96.097 Y92.904 E0.01706
G1 X91.548 Y88.356 E0.20374
G1 X91.734 Y89.080 E0.02369
G1 X96.097 Y93.443 E0.19541
G1 X96.097 Y93.982 E0.01706
G1 X91.920 Y89.805 E0.18709
G1 X92.106 Y90.530 E0.02369
G1 X96.097 Y94.520 E0.17876
G1 X96.097 Y95.059 E0.01706
G1 X92.292 Y91.254 E0.17043
G1 X92.478 Y91.979 E0.02369
G1 X96.097 Y95.598 E0.16211
G1 X96.097 Y96.136 E0.01706
G1 X92.590 Y92.630 E0.15705
G1 X92.590 Y93.169 E0.01706
G1 X96.097 Y96.675 E0.15705
G1 X96.097 Y97.214 E0.01706
G1 X92.590 Y93.708 E0.15705
G1 X92.590 Y94.246 E0.01706
G1 X96.097 Y97.753 E0.15705
G1 X96.097 Y98.291 E0.01706
G1 X92.590 Y94.785 E0.15705
G1 X92.590 Y95.324 E0.01706
G1 X96.097 Y98.830 E0.15705
G1 X96.097 Y99.369 E0.01706
G1 X92.590 Y95.863 E0.15705
G1 X92.590 Y96.401 E0.01706
G1 X96.097 Y99.907 E0.15705
G1 X96.097 Y100.446 E0.01706
G1 X92.590 Y96.940 E0.15705
G1 X92.590 Y97.479 E0.01706
G1 X96.097 Y100.985 E0.15705
G1 X96.097 Y101.524 E0.01706
G1 X92.590 Y98.017 E0.15705
G1 X92.590 Y98.556 E0.01706
G1 X96.097 Y102.062 E0.15705
G1 X96.097 Y102.601 E0.01706
G1 X92.590 Y99.095 E0.15705
G1 X92.590 Y99.634 E0.01706
G1 X96.097 Y103.140 E0.15705
G1 X96.097 Y103.678 E0.01706
G1 X92.590 Y100.172 E0.15705
G1 X92.590 Y100.711 E0.01706
G1 X96.097 Y104.217 E0.15705
G1 X96.097 Y104.756 E0.01706
G1 X92.590 Y101.250 E0.15705
G1 X92.590 Y101.788 E0.01706
G1 X96.097 Y105.294 E0.15705
G1 X96.097 Y105.833 E0.01706
G1 X92.590 Y102.327 E0.15705
G1 X92.590 Y102.866 E0.01706
G1 X96.097 Y106.372 E0.15705
G1 X96.097 Y106.911 E0.01706
G1 X92.590 Y103.405 E0.15705
G1 X92.590 Y103.943 E0.01706
G1 X96.097 Y107.449 E0.15705
G1 X96.097 Y107.988 E0.01706
G1 X92.590 Y104.482 E0.15705
G1 X92.590 Y105.021 E0.01706
G1 X96.097 Y108.527 E0.15705
G1 X96.097 Y109.065 E0.01706
G1 X92.590 Y105.559 E0.15705
G1 X92.590 Y106.098 E0.01706
G1 X96.097 Y109.604 E0.15705
G1 X96.097 Y110.143 E0.01706
G1 X92.590 Y106.637 E0.15705
G1 X92.590 Y107.175 E0.01706
G1 X96.097 Y110.682 E0.15705
G1 X96.097 Y111.220 E0.01706
G1 X92.590 Y107.714 E0.15705
G1 X92.590 Y108.253 E0.01706
G1 X130.536 Y146.198 E1.69973
G1 X131.075 Y146.198 E0.01706
G1 X128.569 Y143.692 E0.11226
G1 X129.107 Y143.692 E0.01706
G1 X131.613 Y146.198 E0.11226
G1 X132.152 Y146.198 E0.01706
G1 X129.646 Y143.692 E0.11226
G1 X130.185 Y143.692 E0.01706
G1 X132.691 Y146.198 E0.11226
G1 X133.229 Y146.198 E0.01706
G1 X130.723 Y143.692 E0.11226
G1 X131.262 Y143.692 E0.01706
G1 X133.768 Y146.198 E0.11226
G1 X134.307 Y146.198 E0.01706
G1 X131.801 Y143.692 E0.11226
G1 X132.340 Y143.692 E0.01706
G1 X134.846 Y146.198 E0.11226
G1 X135.384 Y146.198 E0.01706
G1 X132.878 Y143.692 E0.11226
G1 X133.417 Y143.692 E0.01706
G1 X135.923 Y146.198 E0.11226
G1 X136.462 Y146.198 E0.01706
G1 X133.956 Y143.692 E0.11226
G1 X134.494 Y143.692 E0.01706
G1 X137.000 Y146.198 E0.11226
G1 X137.539 Y146.198 E0.01706
G1 X135.033 Y143.692 E0.11226
G1 X135.572 Y143.692 E0.01706
G1 X138.078 Y146.198 E0.11226
G1 X138.617 Y146.198 E0.01706
G1 X136.111 Y143.692 E0.11226
G1 X136.649 Y143.692 E0.01706
G1 X139.155 Y146.198 E0.11226
G1 X139.694 Y146.198 E0.01706
G1 X137.188 Y143.692 E0.11226
G1 X137.727 Y143.692 E0.01706
G1 X140.233 Y146.198 E0.11226
G1 X140.771 Y146.198 E0.01706
G1 X138.265 Y143.692 E0.11226
G1 X138.804 Y143.692 E0.01706
G1 X141.310 Y146.198 E0.11226
G1 X141.849 Y146.198 E0.01706
G1 X139.343 Y143.692 E0.11226
G1 X139.881 Y143.692 E0.01706
G1 X142.388 Y146.198 E0.11226
G1 X142.926 Y146.198 E0.01706
G1 X140.420 Y143.692 E0.11226
G1 X140.959 Y143.692 E0.01706
G1 X143.465 Y146.198 E0.11226
G1 X144.004 Y146.198 E0.01706
G1 X141.498 Y143.692 E0.11226
G1 X142.036 Y143.692 E0.01706
G1 X144.542 Y146.198 E0.11226
G1 X145.081 Y146.198 E0.01706
G1 X142.575 Y143.692 E0.11226
G1 X143.114 Y143.692 E0.01706
G1 X145.620 Y146.198 E0.11226
G1 X146.159 Y146.198 E0.01706
G1 X143.652 Y143.692 E0.11226
G1 X144.191 Y143.692 E0.01706
G1 X146.697 Y146.198 E0.11226
G1 X147.236 Y146.198 E0.01706
G1 X144.730 Y143.692 E0.11226
G1 X145.269 Y143.692 E0.01706
G1 X147.775 Y146.198 E0.11226
G1 X148.313 Y146.198 E0.01706
G1 X145.807 Y143.692 E0.11226
G1 X146.346 Y143.692 E0.01706
G1 X148.852 Y146.198 E0.11226
G1 X149.391 Y146.198 E0.01706
G1 X146.885 Y143.692 E0.11226
G1 X147.423 Y143.692 E0.01706
G1 X149.930 Y146.198 E0.11226
G1 X150.468 Y146.198 E0.01706
G1 X147.962 Y143.692 E0.11226
G1 X148.501 Y143.692 E0.01706
G1 X151.007 Y146.198 E0.11226
G1 X151.546 Y146.198 E0.01706
G1 X149.040 Y143.692 E0.11226
G1 X149.578 Y143.692 E0.01706
G1 X152.084 Y146.198 E0.11226
G1 X152.623 Y146.198 E0.01706
G1 X150.117 Y143.692 E0.11226
G1 X150.656 Y143.692 E0.01706
G1 X153.162 Y146.198 E0.11226
G1 X153.701 Y146.198 E0.01706
G1 X151.194 Y143.692 E0.11226
