; generated by Slic3r 1.33.8-prusa3d-win64 on 2017-03-11 at 00:20:10

; external perimeters extrusion width = 0.45mm
; perimeters extrusion width = 0.45mm
; infill extrusion width = 0.45mm
; solid infill extrusion width = 0.45mm
; top infill extrusion width = 0.40mm

M107
M115 U3.0.10 ; tell printer latest fw version
M83  ; extruder relative mode
M104 S215 ; set extruder temp
M140 S55 ; set bed temp
M190 S55 ; wait for bed temp
M109 S215 ; wait for extruder temp
G28 W ; home all without mesh bed level
G80 ; mesh bed leveling
G1 Y-3.0 F1000.0 ; go outside pritn area
G1 X60.0 E9.0  F1000.0 ; intro line
G1 X100.0 E12.5  F1000.0 ; intro line
G21 ; set units to millimeters
G90 ; use absolute coordinates
M83 ; use relative distances for extrusion
G1 E-0.80000 F2100.00000
G1 Z0.200 F7200.000
G1 X114.131 Y65.802 F7200.000
G1 E0.80000 F2100.00000
M204 S1000
G1 F2100
G1 X114.182 Y65.471 E0.01050
G1 X114.278 Y65.154 E0.01038
G1 X114.418 Y64.854 E0.01038
G1 X114.599 Y64.572 E0.01050
G1 X114.816 Y64.322 E0.01038
G1 X115.069 Y64.102 E0.01050
G1 X115.346 Y63.922 E0.01038
G1 X115.650 Y63.780 E0.01050
G1 X115.915 Y63.696 E0.00871
G1 X116.191 Y63.643 E0.00883
G1 X121.391 Y63.025 E0.16419
G1 X133.104 Y63.023 E0.36724
G1 X133.408 Y63.043 E0.00955
G1 X133.758 Y63.116 E0.01122
G1 X134.093 Y63.240 E0.01122
G1 X134.406 Y63.414 E0.01122
G1 X134.689 Y63.632 E0.01122
G1 X134.937 Y63.891 E0.01122
G1 X135.142 Y64.183 E0.01122
G1 X135.302 Y64.504 E0.01122
G1 X135.411 Y64.844 E0.01122
G1 X135.461 Y65.122 E0.00883
G1 X135.477 Y65.400 E0.00875
G1 X135.477 Y144.650 E2.48481
G1 X135.437 Y145.036 E0.01217
G1 X135.334 Y145.414 E0.01229
G1 X135.171 Y145.766 E0.01217
G1 X134.952 Y146.091 E0.01229
G1 X134.684 Y146.372 E0.01217
G1 X134.372 Y146.608 E0.01229
G1 X134.028 Y146.788 E0.01217
G1 X133.656 Y146.911 E0.01229
G1 X133.386 Y146.960 E0.00859
G1 X133.113 Y146.977 E0.00859
G1 X121.424 Y146.976 E0.36649
G1 X116.217 Y146.360 E0.16440
G1 X115.866 Y146.291 E0.01122
G1 X115.526 Y146.168 E0.01133
G1 X115.208 Y145.995 E0.01133
G1 X114.921 Y145.777 E0.01133
G1 X114.669 Y145.516 E0.01133
G1 X114.463 Y145.225 E0.01122
G1 X114.300 Y144.902 E0.01133
G1 X114.189 Y144.558 E0.01133
G1 X114.140 Y144.284 E0.00871
G1 X114.123 Y144.003 E0.00883
G1 X114.127 Y65.862 E2.45005
G1 F5760
G1 X114.182 Y65.471 E-0.13672
G1 F5760
G1 X114.278 Y65.154 E-0.11468
G1 F5760
G1 X114.418 Y64.854 E-0.11468
G1 F5760
G1 X114.599 Y64.572 E-0.11600
G1 F5760
G1 X114.816 Y64.322 E-0.11468
G1 F5760
G1 X115.069 Y64.102 E-0.11600
G1 F5760
G1 X115.183 Y64.028 E-0.04723
G1 E-0.04000 F2100.00000
G1 X125.913 Y136.413 F7200.000
G1 E0.80000 F2100.00000
G1 F840
G1 X130.187 Y136.413 E0.13401
G1 X130.187 Y139.413 E0.09406
G1 X132.087 Y139.413 E0.05957
G1 X132.087 Y143.587 E0.13088
G1 X125.913 Y143.587 E0.19359
G1 X125.913 Y136.473 E0.22306
G1 X126.290 Y136.790 F7200.000
G1 F840
G1 X129.810 Y136.790 E0.11037
G1 X129.810 Y139.790 E0.09406
G1 X131.710 Y139.790 E0.05957
G1 X131.710 Y143.210 E0.10723
G1 X126.290 Y143.210 E0.16994
G1 X126.290 Y136.850 E0.19941
G1 X126.197 Y136.401 F7200.000
G1 F5760
G1 X128.484 Y136.813 E-0.76000
G1 E-0.04000 F2100.00000
G1 X125.913 Y126.413 F7200.000
G1 E0.80000 F2100.00000
G1 F840
G1 X132.087 Y126.413 E0.19359
G1 X132.087 Y130.587 E0.13088
G1 X130.187 Y130.587 E0.05957
G1 X130.187 Y133.587 E0.09406
G1 X125.913 Y133.587 E0.13401
G1 X125.913 Y126.473 E0.22306
G1 X126.290 Y126.790 F7200.000
G1 F840
G1 X131.710 Y126.790 E0.16994
G1 X131.710 Y130.210 E0.10723
G1 X129.810 Y130.210 E0.05957
G1 X129.810 Y133.210 E0.09406
G1 X126.290 Y133.210 E0.11037
G1 X126.290 Y126.850 E0.19941
G1 X126.223 Y126.396 F7200.000
G1 F5760
G1 X128.484 Y126.826 E-0.76000
G1 E-0.04000 F2100.00000
G1 X125.913 Y116.413 F7200.000
G1 E0.80000 F2100.00000
G1 F840
G1 X132.087 Y116.413 E0.19359
G1 X132.087 Y123.587 E0.22494
G1 X125.913 Y123.587 E0.19359
G1 X125.913 Y116.473 E0.22306
G1 X126.290 Y116.790 F7200.000
G1 F840
G1 X131.710 Y116.790 E0.16994
G1 X131.710 Y123.210 E0.20129
G1 X126.290 Y123.210 E0.16994
G1 X126.290 Y116.850 E0.19941
G1 X126.197 Y116.401 F7200.000
G1 F5760
G1 X128.484 Y116.826 E-0.76000
G1 E-0.04000 F2100.00000
G1 X125.913 Y106.413 F7200.000
G1 E0.80000 F2100.00000
G1 F840
G1 X130.187 Y106.413 E0.13401
G1 X130.187 Y109.413 E0.09406
G1 X132.087 Y109.413 E0.05957
G1 X132.087 Y113.587 E0.13088
G1 X125.913 Y113.587 E0.19359
G1 X125.913 Y106.473 E0.22306
G1 X126.290 Y106.790 F7200.000
G1 F840
G1 X129.810 Y106.790 E0.11037
G1 X129.810 Y109.790 E0.09406
G1 X131.710 Y109.790 E0.05957
G1 X131.710 Y113.210 E0.10723
G1 X126.290 Y113.210 E0.16994
G1 X126.290 Y106.850 E0.19941
G1 X126.197 Y106.401 F7200.000
G1 F5760
G1 X128.484 Y106.813 E-0.76000
G1 E-0.04000 F2100.00000
G1 X125.913 Y96.413 F7200.000
G1 E0.80000 F2100.00000
G1 F840
G1 X132.087 Y96.413 E0.19359
G1 X132.087 Y100.587 E0.13088
G1 X130.187 Y100.587 E0.05957
G1 X130.187 Y103.587 E0.09406
G1 X125.913 Y103.587 E0.13401
G1 X125.913 Y96.473 E0.22306
G1 X126.290 Y96.790 F7200.000
G1 F840
G1 X131.710 Y96.790 E0.16994
G1 X131.710 Y100.210 E0.10723
G1 X129.810 Y100.210 E0.05957
G1 X129.810 Y103.210 E0.09406
G1 X126.290 Y103.210 E0.11037
G1 X126.290 Y96.850 E0.19941
G1 X126.223 Y96.396 F7200.000
G1 F5760
G1 X128.484 Y96.826 E-0.76000
G1 E-0.04000 F2100.00000
G1 X125.913 Y86.413 F7200.000
G1 E0.80000 F2100.00000
G1 F840
G1 X132.087 Y86.413 E0.19359
G1 X132.087 Y93.587 E0.22494
G1 X125.913 Y93.587 E0.19359
G1 X125.913 Y86.473 E0.22306
G1 X126.290 Y86.790 F7200.000
G1 F840
G1 X131.710 Y86.790 E0.16994
G1 X131.710 Y93.210 E0.20129
G1 X126.290 Y93.210 E0.16994
G1 X126.290 Y86.850 E0.19941
G1 X126.197 Y86.401 F7200.000
G1 F5760
G1 X128.484 Y86.826 E-0.76000
G1 E-0.04000 F2100.00000
G1 X125.913 Y76.413 F7200.000
G1 E0.80000 F2100.00000
G1 F840
G1 X130.187 Y76.413 E0.13401
G1 X130.187 Y79.413 E0.09406
G1 X132.087 Y79.413 E0.05957
G1 X132.087 Y83.587 E0.13088
G1 X125.913 Y83.587 E0.19359
G1 X125.913 Y76.473 E0.22306
G1 X126.290 Y76.790 F7200.000
G1 F840
G1 X129.810 Y76.790 E0.11037
G1 X129.810 Y79.790 E0.09406
G1 X131.710 Y79.790 E0.05957
G1 X131.710 Y83.210 E0.10723
G1 X126.290 Y83.210 E0.16994
G1 X126.290 Y76.850 E0.19941
G1 X126.197 Y76.401 F7200.000
G1 F5760
G1 X128.484 Y76.813 E-0.76000
G1 E-0.04000 F2100.00000
G1 X125.536 Y73.964 F7200.000
G1 E0.80000 F2100.00000
G1 F1680
G1 X130.564 Y73.964 E0.15766
G1 X130.564 Y70.964 E0.09406
G1 X132.136 Y70.964 E0.04928
G1 X132.136 Y79.036 E0.25308
G1 X130.564 Y79.036 E0.04928
G1 X130.564 Y76.036 E0.09406
G1 X125.536 Y76.036 E0.15766
G1 X125.536 Y83.964 E0.24859
G1 X132.136 Y83.964 E0.20694
G1 X132.136 Y86.036 E0.06496
G1 X125.536 Y86.036 E0.20694
G1 X125.536 Y93.964 E0.24859
G1 X132.136 Y93.964 E0.20694
G1 X132.136 Y96.036 E0.06496
G1 X125.536 Y96.036 E0.20694
G1 X125.536 Y103.964 E0.24859
G1 X130.564 Y103.964 E0.15766
G1 X130.564 Y100.964 E0.09406
G1 X132.136 Y100.964 E0.04928
G1 X132.136 Y109.036 E0.25308
G1 X130.564 Y109.036 E0.04928
G1 X130.564 Y106.036 E0.09406
G1 X125.536 Y106.036 E0.15766
G1 X125.536 Y113.964 E0.24859
G1 X132.136 Y113.964 E0.20694
G1 X132.136 Y116.036 E0.06496
G1 X125.536 Y116.036 E0.20694
G1 X125.536 Y123.964 E0.24859
G1 X132.136 Y123.964 E0.20694
G1 X132.136 Y126.036 E0.06496
G1 X125.536 Y126.036 E0.20694
G1 X125.536 Y133.964 E0.24859
G1 X130.564 Y133.964 E0.15766
G1 X130.564 Y130.964 E0.09406
G1 X132.136 Y130.964 E0.04928
G1 X132.136 Y139.036 E0.25308
G1 X130.564 Y139.036 E0.04928
G1 X130.564 Y136.036 E0.09406
G1 X125.536 Y136.036 E0.15766
G1 X125.536 Y143.636 E0.23829
G1 X122.464 Y143.636 E0.09631
G1 X122.464 Y143.036 E0.01881
G1 X117.464 Y143.036 E0.15677
G1 X117.464 Y142.596 E0.01379
G1 X118.228 Y142.214 E0.02676
G1 X118.386 Y142.214 E0.00498
G1 X119.000 Y142.556 E0.02203
G1 X119.672 Y142.725 E0.02171
G1 X120.364 Y142.720 E0.02171
G1 X121.034 Y142.542 E0.02171
G1 X121.637 Y142.202 E0.02171
G1 X122.109 Y141.748 E0.02053
G1 X122.289 Y141.500 E0.00961
G1 X122.487 Y141.145 E0.01274
G1 X122.592 Y140.880 E0.00896
G1 X122.694 Y140.487 E0.01274
G1 X122.730 Y140.203 E0.00896
G1 X122.730 Y139.797 E0.01274
G1 X122.694 Y139.513 E0.00896
G1 X122.592 Y139.120 E0.01274
G1 X122.487 Y138.855 E0.00896
G1 X122.289 Y138.500 E0.01274
G1 X122.109 Y138.252 E0.00961
G1 X121.637 Y137.798 E0.02053
G1 X121.034 Y137.458 E0.02171
G1 X120.364 Y137.280 E0.02171
G1 X119.672 Y137.275 E0.02171
G1 X119.000 Y137.444 E0.02172
G1 X118.386 Y137.786 E0.02203
G1 X118.228 Y137.786 E0.00498
G1 X117.464 Y137.404 E0.02676
G1 X117.464 Y136.964 E0.01379
G1 X122.464 Y136.964 E0.15677
G1 X122.464 Y133.036 E0.12317
G1 X117.464 Y133.036 E0.15677
G1 X117.464 Y132.596 E0.01379
G1 X118.228 Y132.214 E0.02676
G1 X118.386 Y132.214 E0.00498
G1 X119.000 Y132.556 E0.02203
G1 X119.672 Y132.725 E0.02172
G1 X120.364 Y132.720 E0.02171
G1 X121.034 Y132.542 E0.02171
G1 X121.637 Y132.202 E0.02171
G1 X122.109 Y131.748 E0.02053
G1 X122.289 Y131.500 E0.00961
G1 X122.487 Y131.145 E0.01274
G1 X122.592 Y130.880 E0.00896
G1 X122.694 Y130.487 E0.01274
G1 X122.730 Y130.203 E0.00896
G1 X122.730 Y129.797 E0.01274
G1 X122.694 Y129.513 E0.00896
G1 X122.592 Y129.120 E0.01274
G1 X122.487 Y128.855 E0.00896
G1 X122.289 Y128.500 E0.01274
G1 X122.109 Y128.252 E0.00961
G1 X121.637 Y127.798 E0.02053
G1 X121.034 Y127.458 E0.02171
G1 X120.364 Y127.280 E0.02171
G1 X119.672 Y127.275 E0.02171
G1 X119.000 Y127.444 E0.02172
G1 X118.386 Y127.786 E0.02203
G1 X118.228 Y127.786 E0.00498
G1 X117.464 Y127.404 E0.02676
G1 X117.464 Y126.964 E0.01379
G1 X122.464 Y126.964 E0.15677
G1 X122.464 Y123.036 E0.12317
G1 X117.464 Y123.036 E0.15677
G1 X117.464 Y122.596 E0.01379
G1 X118.228 Y122.214 E0.02676
G1 X118.386 Y122.214 E0.00498
G1 X119.000 Y122.556 E0.02203
G1 X119.672 Y122.725 E0.02172
G1 X120.364 Y122.720 E0.02171
G1 X121.034 Y122.542 E0.02171
G1 X121.637 Y122.202 E0.02171
G1 X122.109 Y121.748 E0.02053
G1 X122.289 Y121.500 E0.00961
G1 X122.487 Y121.145 E0.01274
G1 X122.592 Y120.880 E0.00896
G1 X122.694 Y120.487 E0.01274
G1 X122.730 Y120.203 E0.00896
G1 X122.730 Y119.797 E0.01274
G1 X122.694 Y119.513 E0.00896
G1 X122.592 Y119.120 E0.01274
G1 X122.487 Y118.855 E0.00896
G1 X122.289 Y118.500 E0.01274
G1 X122.109 Y118.252 E0.00961
G1 X121.637 Y117.798 E0.02053
G1 X121.034 Y117.458 E0.02171
G1 X120.364 Y117.280 E0.02171
G1 X119.672 Y117.275 E0.02171
G1 X119.000 Y117.444 E0.02172
G1 X118.386 Y117.786 E0.02203
G1 X118.228 Y117.786 E0.00498
G1 X117.464 Y117.404 E0.02676
G1 X117.464 Y116.964 E0.01379
G1 X122.464 Y116.964 E0.15677
G1 X122.464 Y113.036 E0.12317
G1 X117.464 Y113.036 E0.15677
G1 X117.464 Y112.596 E0.01379
G1 X118.228 Y112.214 E0.02676
G1 X118.386 Y112.214 E0.00498
G1 X119.000 Y112.556 E0.02203
G1 X119.672 Y112.725 E0.02172
G1 X120.364 Y112.720 E0.02171
G1 X121.034 Y112.542 E0.02171
G1 X121.637 Y112.202 E0.02171
G1 X122.109 Y111.748 E0.02053
G1 X122.289 Y111.500 E0.00961
G1 X122.487 Y111.145 E0.01274
G1 X122.592 Y110.880 E0.00896
G1 X122.694 Y110.487 E0.01274
G1 X122.730 Y110.203 E0.00896
G1 X122.730 Y109.797 E0.01274
G1 X122.694 Y109.513 E0.00896
G1 X122.592 Y109.120 E0.01274
G1 X122.487 Y108.855 E0.00896
G1 X122.289 Y108.500 E0.01274
G1 X122.109 Y108.252 E0.00961
G1 X121.637 Y107.798 E0.02053
G1 X121.034 Y107.458 E0.02171
G1 X120.364 Y107.280 E0.02171
G1 X119.672 Y107.275 E0.02171
G1 X119.000 Y107.444 E0.02172
G1 X118.386 Y107.786 E0.02203
G1 X118.228 Y107.786 E0.00498
G1 X117.464 Y107.404 E0.02676
G1 X117.464 Y106.964 E0.01379
G1 X122.464 Y106.964 E0.15677
G1 X122.464 Y103.036 E0.12317
G1 X117.464 Y103.036 E0.15677
G1 X117.464 Y102.596 E0.01379
G1 X118.228 Y102.214 E0.02676
G1 X118.386 Y102.214 E0.00498
G1 X119.000 Y102.556 E0.02203
G1 X119.672 Y102.725 E0.02172
G1 X120.364 Y102.720 E0.02171
G1 X121.034 Y102.542 E0.02171
G1 X121.637 Y102.202 E0.02171
G1 X122.109 Y101.748 E0.02053
G1 X122.289 Y101.500 E0.00961
G1 X122.487 Y101.145 E0.01274
G1 X122.592 Y100.880 E0.00896
G1 X122.694 Y100.487 E0.01274
G1 X122.730 Y100.203 E0.00896
G1 X122.730 Y99.797 E0.01274
G1 X122.694 Y99.513 E0.00896
G1 X122.592 Y99.120 E0.01274
G1 X122.487 Y98.855 E0.00896
G1 X122.289 Y98.500 E0.01274
G1 X122.109 Y98.252 E0.00961
G1 X121.637 Y97.798 E0.02053
G1 X121.034 Y97.458 E0.02171
G1 X120.364 Y97.280 E0.02171
G1 X119.672 Y97.275 E0.02171
G1 X119.000 Y97.444 E0.02172
G1 X118.386 Y97.786 E0.02203
G1 X118.228 Y97.786 E0.00498
G1 X117.464 Y97.404 E0.02676
G1 X117.464 Y96.964 E0.01379
G1 X122.464 Y96.964 E0.15677
G1 X122.464 Y93.036 E0.12317
G1 X117.464 Y93.036 E0.15677
G1 X117.464 Y92.596 E0.01379
G1 X118.228 Y92.214 E0.02676
G1 X118.386 Y92.214 E0.00498
G1 X119.000 Y92.556 E0.02203
G1 X119.672 Y92.725 E0.02172
G1 X120.364 Y92.720 E0.02171
G1 X121.034 Y92.542 E0.02171
G1 X121.637 Y92.202 E0.02171
G1 X122.109 Y91.748 E0.02053
G1 X122.289 Y91.500 E0.00961
G1 X122.487 Y91.145 E0.01274
G1 X122.592 Y90.880 E0.00896
G1 X122.694 Y90.487 E0.01274
G1 X122.730 Y90.203 E0.00896
G1 X122.730 Y89.797 E0.01274
G1 X122.694 Y89.513 E0.00896
G1 X122.592 Y89.120 E0.01274
G1 X122.487 Y88.855 E0.00896
G1 X122.289 Y88.500 E0.01274
G1 X122.109 Y88.252 E0.00961
G1 X121.637 Y87.798 E0.02053
G1 X121.034 Y87.458 E0.02171
G1 X120.364 Y87.280 E0.02171
G1 X119.672 Y87.275 E0.02171
G1 X119.000 Y87.444 E0.02172
G1 X118.386 Y87.786 E0.02203
G1 X118.228 Y87.786 E0.00498
G1 X117.464 Y87.404 E0.02676
G1 X117.464 Y86.964 E0.01379
G1 X122.464 Y86.964 E0.15677
G1 X122.464 Y83.036 E0.12317
G1 X117.464 Y83.036 E0.15677
G1 X117.464 Y82.596 E0.01379
G1 X118.228 Y82.214 E0.02676
G1 X118.386 Y82.214 E0.00498
G1 X119.000 Y82.556 E0.02203
G1 X119.672 Y82.725 E0.02172
G1 X120.364 Y82.720 E0.02171
G1 X121.034 Y82.542 E0.02171
G1 X121.637 Y82.202 E0.02171
G1 X122.109 Y81.748 E0.02053
G1 X122.289 Y81.500 E0.00961
G1 X122.487 Y81.145 E0.01274
G1 X122.592 Y80.880 E0.00896
G1 X122.694 Y80.487 E0.01274
G1 X122.730 Y80.203 E0.00896
G1 X122.730 Y79.797 E0.01274
G1 X122.694 Y79.513 E0.00896
G1 X122.592 Y79.120 E0.01274
G1 X122.487 Y78.855 E0.00896
G1 X122.289 Y78.500 E0.01274
G1 X122.109 Y78.252 E0.00961
G1 X121.637 Y77.798 E0.02053
G1 X121.034 Y77.458 E0.02171
G1 X120.364 Y77.280 E0.02171
G1 X119.672 Y77.275 E0.02171
G1 X119.000 Y77.444 E0.02172
G1 X118.386 Y77.786 E0.02203
G1 X118.228 Y77.786 E0.00498
G1 X117.464 Y77.404 E0.02676
G1 X117.464 Y76.964 E0.01379
G1 X122.464 Y76.964 E0.15677
G1 X122.464 Y73.036 E0.12317
G1 X117.464 Y73.036 E0.15677
G1 X117.464 Y72.596 E0.01379
G1 X118.228 Y72.214 E0.02676
G1 X118.386 Y72.214 E0.00498
G1 X119.000 Y72.556 E0.02203
G1 X119.672 Y72.725 E0.02172
G1 X120.364 Y72.720 E0.02171
G1 X121.034 Y72.542 E0.02171
G1 X121.637 Y72.202 E0.02171
G1 X122.109 Y71.748 E0.02053
G1 X122.289 Y71.500 E0.00961
G1 X122.487 Y71.145 E0.01274
G1 X122.592 Y70.880 E0.00896
G1 X122.694 Y70.487 E0.01274
G1 X122.730 Y70.203 E0.00896
G1 X122.730 Y69.797 E0.01274
G1 X122.694 Y69.513 E0.00896
G1 X122.592 Y69.120 E0.01274
G1 X122.487 Y68.855 E0.00896
G1 X122.289 Y68.500 E0.01274
G1 X122.109 Y68.252 E0.00961
G1 X121.637 Y67.798 E0.02053
G1 X121.034 Y67.458 E0.02171
G1 X120.364 Y67.280 E0.02171
G1 X119.672 Y67.275 E0.02171
G1 X119.000 Y67.444 E0.02172
G1 X118.386 Y67.786 E0.02203
G1 X118.228 Y67.786 E0.00498
G1 X117.464 Y67.404 E0.02676
G1 X117.464 Y66.964 E0.01379
G1 X122.464 Y66.964 E0.15677
G1 X122.464 Y66.364 E0.01881
G1 X125.536 Y66.364 E0.09631
G1 X125.536 Y73.904 E0.23641
G1 F5760
G1 X127.730 Y73.930 E-0.76000
G1 E-0.04000 F2100.00000
G1 X125.913 Y66.413 F7200.000
G1 E0.80000 F2100.00000
G1 F840
G1 X132.087 Y66.413 E0.19359
G1 X132.087 Y70.587 E0.13088
G1 X130.187 Y70.587 E0.05957
G1 X130.187 Y73.587 E0.09406
G1 X125.913 Y73.587 E0.13401
G1 X125.913 Y66.473 E0.22306
G1 X126.290 Y66.790 F7200.000
G1 F840
G1 X131.710 Y66.790 E0.16994
G1 X131.710 Y70.210 E0.10723
G1 X129.810 Y70.210 E0.05957
G1 X129.810 Y73.210 E0.09406
G1 X126.290 Y73.210 E0.11037
G1 X126.290 Y66.850 E0.19941
G1 X126.223 Y66.396 F7200.000
G1 F5760
G1 X128.484 Y66.826 E-0.76000
G1 E-0.04000 F2100.00000
G1 X122.087 Y143.413 F7200.000
G1 E0.80000 F2100.00000
G1 F1680
G1 X117.087 Y143.413 E0.15677
G1 X117.087 Y142.363 E0.03292
G1 X118.139 Y141.837 E0.03686
G1 X118.527 Y141.837 E0.01218
G1 X118.625 Y141.922 E0.00405
G1 X119.139 Y142.202 E0.01835
G1 X119.717 Y142.347 E0.01871
