; generated by Slic3r 1.33.8-prusa3d-win64 on 2017-03-11 at 00:21:02

; external perimeters extrusion width = 0.45mm
; perimeters extrusion width = 0.45mm
; infill extrusion width = 0.45mm
; solid infill extrusion width = 0.45mm
; top infill extrusion width = 0.40mm

M107
M115 U3.0.10 ; tell printer latest fw version
M83  ; extruder relative mode
M104 S215 ; set extruder temp
M140 S55 ; set bed temp
M190 S55 ; wait for bed temp
M109 S215 ; wait for extruder temp
G28 W ; home all without mesh bed level
G80 ; mesh bed leveling
G1 Y-3.0 F1000.0 ; go outside pritn area
G1 X60.0 E9.0  F1000.0 ; intro line
G1 X100.0 E12.5  F1000.0 ; intro line
G21 ; set units to millimeters
G90 ; use absolute coordinates
M83 ; use relative distances for extrusion
G1 E-0.80000 F2100.00000
G1 Z0.200 F7200.000
G1 X114.531 Y65.202 F7200.000
G1 E0.80000 F2100.00000
M204 S1000
G1 F2100
G1 X114.597 Y64.812 E0.01241
G1 X114.726 Y64.438 E0.01241
G1 X114.916 Y64.091 E0.01241
G1 X115.161 Y63.780 E0.01241
G1 X115.453 Y63.514 E0.01241
G1 X115.786 Y63.300 E0.01241
G1 X116.150 Y63.144 E0.01241
G1 X116.535 Y63.051 E0.01241
G1 X116.895 Y63.023 E0.01133
G1 X128.527 Y63.023 E0.36470
G1 X128.777 Y63.039 E0.00788
G1 X133.798 Y63.642 E0.15856
G1 X134.251 Y63.745 E0.01455
G1 X134.529 Y63.857 E0.00943
G1 X134.792 Y64.005 E0.00943
G1 X135.033 Y64.184 E0.00943
G1 X135.250 Y64.392 E0.00943
G1 X135.439 Y64.626 E0.00943
G1 X135.597 Y64.881 E0.00943
G1 X135.722 Y65.155 E0.00943
G1 X135.811 Y65.442 E0.00943
G1 X135.860 Y65.716 E0.00871
G1 X135.877 Y65.997 E0.00883
G1 X135.877 Y144.050 E2.44728
G1 X135.837 Y144.436 E0.01217
G1 X135.734 Y144.814 E0.01229
G1 X135.571 Y145.166 E0.01217
G1 X135.352 Y145.491 E0.01229
G1 X135.084 Y145.772 E0.01217
G1 X134.772 Y146.008 E0.01229
G1 X134.428 Y146.188 E0.01217
G1 X134.056 Y146.311 E0.01229
G1 X133.786 Y146.360 E0.00859
G1 X128.593 Y146.975 E0.16395
G1 X116.759 Y146.973 E0.37106
G1 X116.386 Y146.921 E0.01181
G1 X116.022 Y146.809 E0.01193
G1 X115.684 Y146.643 E0.01181
G1 X115.374 Y146.423 E0.01193
G1 X115.105 Y146.159 E0.01181
G1 X114.880 Y145.852 E0.01193
G1 X114.707 Y145.517 E0.01181
G1 X114.589 Y145.156 E0.01193
G1 X114.539 Y144.878 E0.00883
G1 X114.523 Y144.600 E0.00875
G1 X114.527 Y65.262 E2.48759
G1 F5760
G1 X114.597 Y64.812 E-0.15774
G1 F5760
G1 X114.726 Y64.438 E-0.13704
G1 F5760
G1 X114.916 Y64.091 E-0.13705
G1 F5760
G1 X115.161 Y63.780 E-0.13704
G1 F5760
G1 X115.453 Y63.514 E-0.13705
G1 F5760
G1 X115.585 Y63.429 E-0.05408
G1 E-0.04000 F2100.00000
G1 X119.813 Y136.413 F7200.000
G1 E0.80000 F2100.00000
G1 F840
G1 X126.087 Y136.413 E0.19672
G1 X126.087 Y143.587 E0.22494
G1 X117.913 Y143.587 E0.25629
G1 X117.913 Y139.413 E0.13088
G1 X119.813 Y139.413 E0.05957
G1 X119.813 Y136.473 E0.09218
G1 X120.190 Y136.790 F7200.000
G1 F840
G1 X125.710 Y136.790 E0.17308
G1 X125.710 Y143.210 E0.20129
G1 X118.290 Y143.210 E0.23265
G1 X118.290 Y139.790 E0.10723
G1 X120.190 Y139.790 E0.05957
G1 X120.190 Y136.850 E0.09218
G1 X120.265 Y136.397 F7200.000
G1 F5760
G1 X122.384 Y136.826 E-0.76000
G1 E-0.04000 F2100.00000
G1 X117.913 Y126.413 F7200.000
G1 E0.80000 F2100.00000
G1 F840
G1 X126.087 Y126.413 E0.25629
G1 X126.087 Y133.587 E0.22494
G1 X119.813 Y133.587 E0.19672
G1 X119.813 Y130.587 E0.09406
G1 X117.913 Y130.587 E0.05957
G1 X117.913 Y126.473 E0.12900
G1 X118.290 Y126.790 F7200.000
G1 F840
G1 X125.710 Y126.790 E0.23265
G1 X125.710 Y133.210 E0.20129
G1 X120.190 Y133.210 E0.17308
G1 X120.190 Y130.210 E0.09406
G1 X118.290 Y130.210 E0.05957
G1 X118.290 Y126.850 E0.10535
G1 X118.223 Y126.396 F7200.000
G1 F5760
G1 X120.484 Y126.832 E-0.76000
G1 E-0.04000 F2100.00000
G1 X117.913 Y116.413 F7200.000
G1 E0.80000 F2100.00000
G1 F840
G1 X126.087 Y116.413 E0.25629
G1 X126.087 Y123.587 E0.22494
G1 X117.913 Y123.587 E0.25629
G1 X117.913 Y116.473 E0.22306
G1 X118.290 Y116.790 F7200.000
G1 F840
G1 X125.710 Y116.790 E0.23265
G1 X125.710 Y123.210 E0.20129
G1 X118.290 Y123.210 E0.23265
G1 X118.290 Y116.850 E0.19941
G1 X118.177 Y116.406 F7200.000
G1 F5760
G1 X120.484 Y116.832 E-0.76000
G1 E-0.04000 F2100.00000
G1 X119.813 Y106.413 F7200.000
G1 E0.80000 F2100.00000
G1 F840
G1 X126.087 Y106.413 E0.19672
G1 X126.087 Y113.587 E0.22494
G1 X117.913 Y113.587 E0.25629
G1 X117.913 Y109.413 E0.13088
G1 X119.813 Y109.413 E0.05957
G1 X119.813 Y106.473 E0.09218
G1 X120.190 Y106.790 F7200.000
G1 F840
G1 X125.710 Y106.790 E0.17308
G1 X125.710 Y113.210 E0.20129
G1 X118.290 Y113.210 E0.23265
G1 X118.290 Y109.790 E0.10723
G1 X120.190 Y109.790 E0.05957
G1 X120.190 Y106.850 E0.09218
G1 X120.265 Y106.397 F7200.000
G1 F5760
G1 X122.384 Y106.826 E-0.76000
G1 E-0.04000 F2100.00000
G1 X117.913 Y96.413 F7200.000
G1 E0.80000 F2100.00000
G1 F840
G1 X126.087 Y96.413 E0.25629
G1 X126.087 Y103.587 E0.22494
G1 X119.813 Y103.587 E0.19672
G1 X119.813 Y100.587 E0.09406
G1 X117.913 Y100.587 E0.05957
G1 X117.913 Y96.473 E0.12900
G1 X118.290 Y96.790 F7200.000
G1 F840
G1 X125.710 Y96.790 E0.23265
G1 X125.710 Y103.210 E0.20129
G1 X120.190 Y103.210 E0.17308
G1 X120.190 Y100.210 E0.09406
G1 X118.290 Y100.210 E0.05957
G1 X118.290 Y96.850 E0.10535
G1 X118.223 Y96.396 F7200.000
G1 F5760
G1 X120.484 Y96.832 E-0.76000
G1 E-0.04000 F2100.00000
G1 X117.913 Y86.413 F7200.000
G1 E0.80000 F2100.00000
G1 F840
G1 X126.087 Y86.413 E0.25629
G1 X126.087 Y93.587 E0.22494
G1 X117.913 Y93.587 E0.25629
G1 X117.913 Y86.473 E0.22306
G1 X118.290 Y86.790 F7200.000
G1 F840
G1 X125.710 Y86.790 E0.23265
G1 X125.710 Y93.210 E0.20129
G1 X118.290 Y93.210 E0.23265
G1 X118.290 Y86.850 E0.19941
G1 X118.177 Y86.406 F7200.000
G1 F5760
G1 X120.484 Y86.832 E-0.76000
G1 E-0.04000 F2100.00000
G1 X119.813 Y76.413 F7200.000
G1 E0.80000 F2100.00000
G1 F840
G1 X126.087 Y76.413 E0.19672
G1 X126.087 Y83.587 E0.22494
G1 X117.913 Y83.587 E0.25629
G1 X117.913 Y79.413 E0.13088
G1 X119.813 Y79.413 E0.05957
G1 X119.813 Y76.473 E0.09218
G1 X120.190 Y76.790 F7200.000
G1 F840
G1 X125.710 Y76.790 E0.17308
G1 X125.710 Y83.210 E0.20129
G1 X118.290 Y83.210 E0.23265
G1 X118.290 Y79.790 E0.10723
G1 X120.190 Y79.790 E0.05957
G1 X120.190 Y76.850 E0.09218
G1 X120.265 Y76.397 F7200.000
G1 F5760
G1 X122.384 Y76.826 E-0.76000
G1 E-0.04000 F2100.00000
G1 X117.913 Y66.413 F7200.000
G1 E0.80000 F2100.00000
G1 F840
G1 X126.087 Y66.413 E0.25629
G1 X126.087 Y73.587 E0.22494
G1 X119.813 Y73.587 E0.19672
G1 X119.813 Y70.587 E0.09406
G1 X117.913 Y70.587 E0.05957
G1 X117.913 Y66.473 E0.12900
G1 X118.290 Y66.790 F7200.000
G1 F840
G1 X125.710 Y66.790 E0.23265
G1 X125.710 Y73.210 E0.20129
G1 X120.190 Y73.210 E0.17308
G1 X120.190 Y70.210 E0.09406
G1 X118.290 Y70.210 E0.05957
G1 X118.290 Y66.850 E0.10535
G1 X118.223 Y66.396 F7200.000
G1 F5760
G1 X120.484 Y66.832 E-0.76000
G1 E-0.04000 F2100.00000
G1 X127.536 Y66.964 F7200.000
G1 E0.80000 F2100.00000
G1 F1680
G1 X132.536 Y66.964 E0.15677
G1 X132.536 Y67.404 E0.01379
G1 X131.772 Y67.786 E0.02676
G1 X131.614 Y67.786 E0.00498
G1 X131.000 Y67.444 E0.02203
G1 X130.328 Y67.275 E0.02172
G1 X129.636 Y67.280 E0.02171
G1 X128.966 Y67.458 E0.02171
G1 X128.363 Y67.798 E0.02171
G1 X127.891 Y68.252 E0.02053
G1 X127.711 Y68.500 E0.00961
G1 X127.513 Y68.855 E0.01274
G1 X127.408 Y69.120 E0.00896
G1 X127.306 Y69.513 E0.01274
G1 X127.270 Y69.797 E0.00896
G1 X127.270 Y70.203 E0.01274
G1 X127.306 Y70.487 E0.00896
G1 X127.408 Y70.880 E0.01274
G1 X127.513 Y71.145 E0.00896
G1 X127.711 Y71.500 E0.01274
G1 X127.891 Y71.748 E0.00961
G1 X128.363 Y72.202 E0.02053
G1 X128.966 Y72.542 E0.02171
G1 X129.636 Y72.720 E0.02171
G1 X130.328 Y72.725 E0.02171
G1 X131.000 Y72.556 E0.02172
G1 X131.614 Y72.214 E0.02203
G1 X131.772 Y72.214 E0.00498
G1 X132.536 Y72.596 E0.02676
G1 X132.536 Y73.036 E0.01379
G1 X127.536 Y73.036 E0.15677
G1 X127.536 Y76.964 E0.12317
G1 X132.536 Y76.964 E0.15677
G1 X132.536 Y77.404 E0.01379
G1 X131.772 Y77.786 E0.02676
G1 X131.614 Y77.786 E0.00498
G1 X131.000 Y77.444 E0.02203
G1 X130.328 Y77.275 E0.02172
G1 X129.636 Y77.280 E0.02171
G1 X128.966 Y77.458 E0.02171
G1 X128.363 Y77.798 E0.02171
G1 X127.891 Y78.252 E0.02053
G1 X127.711 Y78.500 E0.00961
G1 X127.513 Y78.855 E0.01274
G1 X127.408 Y79.120 E0.00896
G1 X127.306 Y79.513 E0.01274
G1 X127.270 Y79.797 E0.00896
G1 X127.270 Y80.203 E0.01274
G1 X127.306 Y80.487 E0.00896
G1 X127.408 Y80.880 E0.01274
G1 X127.513 Y81.145 E0.00896
G1 X127.711 Y81.500 E0.01274
G1 X127.891 Y81.748 E0.00961
G1 X128.363 Y82.202 E0.02053
G1 X128.966 Y82.542 E0.02171
G1 X129.636 Y82.720 E0.02171
G1 X130.328 Y82.725 E0.02171
G1 X131.000 Y82.556 E0.02172
G1 X131.614 Y82.214 E0.02203
G1 X131.772 Y82.214 E0.00498
G1 X132.536 Y82.596 E0.02676
G1 X132.536 Y83.036 E0.01379
G1 X127.536 Y83.036 E0.15677
G1 X127.536 Y86.964 E0.12317
G1 X132.536 Y86.964 E0.15677
G1 X132.536 Y87.404 E0.01379
G1 X131.772 Y87.786 E0.02676
G1 X131.614 Y87.786 E0.00498
G1 X131.000 Y87.444 E0.02203
G1 X130.328 Y87.275 E0.02172
G1 X129.636 Y87.280 E0.02171
G1 X128.966 Y87.458 E0.02171
G1 X128.363 Y87.798 E0.02171
G1 X127.891 Y88.252 E0.02053
G1 X127.711 Y88.500 E0.00961
G1 X127.513 Y88.855 E0.01274
G1 X127.408 Y89.120 E0.00896
G1 X127.306 Y89.513 E0.01274
G1 X127.270 Y89.797 E0.00896
G1 X127.270 Y90.203 E0.01274
G1 X127.306 Y90.487 E0.00896
G1 X127.408 Y90.880 E0.01274
G1 X127.513 Y91.145 E0.00896
G1 X127.711 Y91.500 E0.01274
G1 X127.891 Y91.748 E0.00961
G1 X128.363 Y92.202 E0.02053
G1 X128.966 Y92.542 E0.02171
G1 X129.636 Y92.720 E0.02171
G1 X130.328 Y92.725 E0.02171
G1 X131.000 Y92.556 E0.02172
G1 X131.614 Y92.214 E0.02203
G1 X131.772 Y92.214 E0.00498
G1 X132.536 Y92.596 E0.02676
G1 X132.536 Y93.036 E0.01379
G1 X127.536 Y93.036 E0.15677
G1 X127.536 Y96.964 E0.12317
G1 X132.536 Y96.964 E0.15677
G1 X132.536 Y97.404 E0.01379
G1 X131.772 Y97.786 E0.02676
G1 X131.614 Y97.786 E0.00498
G1 X131.000 Y97.444 E0.02203
G1 X130.328 Y97.275 E0.02172
G1 X129.636 Y97.280 E0.02171
G1 X128.966 Y97.458 E0.02171
G1 X128.363 Y97.798 E0.02171
G1 X127.891 Y98.252 E0.02053
G1 X127.711 Y98.500 E0.00961
G1 X127.513 Y98.855 E0.01274
G1 X127.408 Y99.120 E0.00896
G1 X127.306 Y99.513 E0.01274
G1 X127.270 Y99.797 E0.00896
G1 X127.270 Y100.203 E0.01274
G1 X127.306 Y100.487 E0.00896
G1 X127.408 Y100.880 E0.01274
G1 X127.513 Y101.145 E0.00896
G1 X127.711 Y101.500 E0.01274
G1 X127.891 Y101.748 E0.00961
G1 X128.363 Y102.202 E0.02053
G1 X128.966 Y102.542 E0.02171
G1 X129.636 Y102.720 E0.02171
G1 X130.328 Y102.725 E0.02171
G1 X131.000 Y102.556 E0.02172
G1 X131.614 Y102.214 E0.02203
G1 X131.772 Y102.214 E0.00498
G1 X132.536 Y102.596 E0.02676
G1 X132.536 Y103.036 E0.01379
G1 X127.536 Y103.036 E0.15677
G1 X127.536 Y106.964 E0.12317
G1 X132.536 Y106.964 E0.15677
G1 X132.536 Y107.404 E0.01379
G1 X131.772 Y107.786 E0.02676
G1 X131.614 Y107.786 E0.00498
G1 X131.000 Y107.444 E0.02203
G1 X130.328 Y107.275 E0.02172
G1 X129.636 Y107.280 E0.02171
G1 X128.966 Y107.458 E0.02171
G1 X128.363 Y107.798 E0.02171
G1 X127.891 Y108.252 E0.02053
G1 X127.711 Y108.500 E0.00961
G1 X127.513 Y108.855 E0.01274
G1 X127.408 Y109.120 E0.00896
G1 X127.306 Y109.513 E0.01274
G1 X127.270 Y109.797 E0.00896
G1 X127.270 Y110.203 E0.01274
G1 X127.306 Y110.487 E0.00896
G1 X127.408 Y110.880 E0.01274
G1 X127.513 Y111.145 E0.00896
G1 X127.711 Y111.500 E0.01274
G1 X127.891 Y111.748 E0.00961
G1 X128.363 Y112.202 E0.02053
G1 X128.966 Y112.542 E0.02171
G1 X129.636 Y112.720 E0.02171
G1 X130.328 Y112.725 E0.02171
G1 X131.000 Y112.556 E0.02172
G1 X131.614 Y112.214 E0.02203
G1 X131.772 Y112.214 E0.00498
G1 X132.536 Y112.596 E0.02676
G1 X132.536 Y113.036 E0.01379
G1 X127.536 Y113.036 E0.15677
G1 X127.536 Y116.964 E0.12317
G1 X132.536 Y116.964 E0.15677
G1 X132.536 Y117.404 E0.01379
G1 X131.772 Y117.786 E0.02676
G1 X131.614 Y117.786 E0.00498
G1 X131.000 Y117.444 E0.02203
G1 X130.328 Y117.275 E0.02172
G1 X129.636 Y117.280 E0.02171
G1 X128.966 Y117.458 E0.02171
G1 X128.363 Y117.798 E0.02171
G1 X127.891 Y118.252 E0.02053
G1 X127.711 Y118.500 E0.00961
G1 X127.513 Y118.855 E0.01274
G1 X127.408 Y119.120 E0.00896
G1 X127.306 Y119.513 E0.01274
G1 X127.270 Y119.797 E0.00896
G1 X127.270 Y120.203 E0.01274
G1 X127.306 Y120.487 E0.00896
G1 X127.408 Y120.880 E0.01274
G1 X127.513 Y121.145 E0.00896
G1 X127.711 Y121.500 E0.01274
G1 X127.891 Y121.748 E0.00961
G1 X128.363 Y122.202 E0.02053
G1 X128.966 Y122.542 E0.02171
G1 X129.636 Y122.720 E0.02171
G1 X130.328 Y122.725 E0.02171
G1 X131.000 Y122.556 E0.02172
G1 X131.614 Y122.214 E0.02203
G1 X131.772 Y122.214 E0.00498
G1 X132.536 Y122.596 E0.02676
G1 X132.536 Y123.036 E0.01379
G1 X127.536 Y123.036 E0.15677
G1 X127.536 Y126.964 E0.12317
G1 X132.536 Y126.964 E0.15677
G1 X132.536 Y127.404 E0.01379
G1 X131.772 Y127.786 E0.02676
G1 X131.614 Y127.786 E0.00498
G1 X131.000 Y127.444 E0.02203
G1 X130.328 Y127.275 E0.02172
G1 X129.636 Y127.280 E0.02171
G1 X128.966 Y127.458 E0.02171
G1 X128.363 Y127.798 E0.02171
G1 X127.891 Y128.252 E0.02053
G1 X127.711 Y128.500 E0.00961
G1 X127.513 Y128.855 E0.01274
G1 X127.408 Y129.120 E0.00896
G1 X127.306 Y129.513 E0.01274
G1 X127.270 Y129.797 E0.00896
G1 X127.270 Y130.203 E0.01274
G1 X127.306 Y130.487 E0.00896
G1 X127.408 Y130.880 E0.01274
G1 X127.513 Y131.145 E0.00896
G1 X127.711 Y131.500 E0.01274
G1 X127.891 Y131.748 E0.00961
G1 X128.363 Y132.202 E0.02053
G1 X128.966 Y132.542 E0.02171
G1 X129.636 Y132.720 E0.02171
G1 X130.328 Y132.725 E0.02171
G1 X131.000 Y132.556 E0.02171
G1 X131.614 Y132.214 E0.02203
G1 X131.772 Y132.214 E0.00498
G1 X132.536 Y132.596 E0.02676
G1 X132.536 Y133.036 E0.01379
G1 X127.536 Y133.036 E0.15677
G1 X127.536 Y136.964 E0.12317
G1 X132.536 Y136.964 E0.15677
G1 X132.536 Y137.404 E0.01379
G1 X131.772 Y137.786 E0.02676
G1 X131.614 Y137.786 E0.00498
G1 X131.000 Y137.444 E0.02203
G1 X130.328 Y137.275 E0.02172
G1 X129.636 Y137.280 E0.02171
G1 X128.966 Y137.458 E0.02171
G1 X128.363 Y137.798 E0.02171
G1 X127.891 Y138.252 E0.02053
G1 X127.711 Y138.500 E0.00961
G1 X127.513 Y138.855 E0.01274
G1 X127.408 Y139.120 E0.00896
G1 X127.306 Y139.513 E0.01274
G1 X127.270 Y139.797 E0.00896
G1 X127.270 Y140.203 E0.01274
G1 X127.306 Y140.487 E0.00896
G1 X127.408 Y140.880 E0.01274
G1 X127.513 Y141.145 E0.00896
G1 X127.711 Y141.500 E0.01274
G1 X127.891 Y141.748 E0.00961
G1 X128.363 Y142.202 E0.02053
G1 X128.966 Y142.542 E0.02171
G1 X129.636 Y142.720 E0.02171
G1 X130.328 Y142.725 E0.02171
G1 X131.000 Y142.556 E0.02172
G1 X131.614 Y142.214 E0.02203
G1 X131.772 Y142.214 E0.00498
G1 X132.536 Y142.596 E0.02676
G1 X132.536 Y143.036 E0.01379
G1 X127.536 Y143.036 E0.15677
G1 X127.536 Y143.636 E0.01881
G1 X126.464 Y143.636 E0.03360
G1 X126.464 Y136.036 E0.23829
G1 X119.436 Y136.036 E0.22037
G1 X119.436 Y139.036 E0.09406
G1 X117.864 Y139.036 E0.04928
G1 X117.864 Y130.964 E0.25308
G1 X119.436 Y130.964 E0.04928
G1 X119.436 Y133.964 E0.09406
G1 X126.464 Y133.964 E0.22037
G1 X126.464 Y126.036 E0.24859
G1 X117.864 Y126.036 E0.26965
G1 X117.864 Y123.964 E0.06496
G1 X126.464 Y123.964 E0.26965
G1 X126.464 Y116.036 E0.24859
G1 X117.864 Y116.036 E0.26965
G1 X117.864 Y113.964 E0.06496
G1 X126.464 Y113.964 E0.26965
G1 X126.464 Y106.036 E0.24859
G1 X119.436 Y106.036 E0.22037
G1 X119.436 Y109.036 E0.09406
G1 X117.864 Y109.036 E0.04928
G1 X117.864 Y100.964 E0.25308
G1 X119.436 Y100.964 E0.04928
G1 X119.436 Y103.964 E0.09406
G1 X126.464 Y103.964 E0.22037
G1 X126.464 Y96.036 E0.24859
G1 X117.864 Y96.036 E0.26965
G1 X117.864 Y93.964 E0.06496
G1 X126.464 Y93.964 E0.26965
G1 X126.464 Y86.036 E0.24859
G1 X117.864 Y86.036 E0.26965
G1 X117.864 Y83.964 E0.06496
G1 X126.464 Y83.964 E0.26965
G1 X126.464 Y76.036 E0.24859
G1 X119.436 Y76.036 E0.22037
G1 X119.436 Y79.036 E0.09406
G1 X117.864 Y79.036 E0.04928
G1 X117.864 Y70.964 E0.25308
G1 X119.436 Y70.964 E0.04928
G1 X119.436 Y73.964 E0.09406
G1 X126.464 Y73.964 E0.22037
G1 X126.464 Y66.364 E0.23829
G1 X127.536 Y66.364 E0.03360
G1 X127.536 Y66.904 E0.01693
G1 X127.913 Y66.587 F7200.000
G1 F1680
G1 X132.913 Y66.587 E0.15677
G1 X132.913 Y67.637 E0.03292
G1 X131.861 Y68.163 E0.03686
G1 X131.473 Y68.163 E0.01218
G1 X131.375 Y68.078 E0.00405
G1 X130.861 Y67.798 E0.01835
G1 X130.283 Y67.653 E0.01871
G1 X129.686 Y67.657 E0.01871
G1 X129.110 Y67.810 E0.01871
G1 X128.590 Y68.103 E0.01871
G1 X128.176 Y68.500 E0.01799
G1 X128.029 Y68.703 E0.00785
