; generated by Slic3r 1.33.8-prusa3d-win64 on 2017-03-11 at 00:22:58

; external perimeters extrusion width = 0.45mm
; perimeters extrusion width = 0.45mm
; infill extrusion width = 0.45mm
; solid infill extrusion width = 0.45mm
; top infill extrusion width = 0.40mm

M107
M115 U3.0.10 ; tell printer latest fw version
M83  ; extruder relative mode
M104 S215 ; set extruder temp
M140 S55 ; set bed temp
M190 S55 ; wait for bed temp
M109 S215 ; wait for extruder temp
G28 W ; home all without mesh bed level
G80 ; mesh bed leveling
G1 Y-3.0 F1000.0 ; go outside pritn area
G1 X60.0 E9.0  F1000.0 ; intro line
G1 X100.0 E12.5  F1000.0 ; intro line
G21 ; set units to millimeters
G90 ; use absolute coordinates
M83 ; use relative distances for extrusion
G1 E-0.80000 F2100.00000
G1 Z0.200 F7200.000
G1 X118.779 Y97.338 F7200.000
G1 E0.80000 F2100.00000
M204 S1000
G1 F2100
G1 X119.077 Y97.002 E0.01408
G1 X119.403 Y96.688 E0.01420
G1 X120.289 Y95.988 E0.03541
G1 X120.887 Y95.594 E0.02245
G1 X121.526 Y95.277 E0.02236
G1 X122.495 Y94.890 E0.03271
G1 X122.889 Y94.771 E0.01289
G1 X123.279 Y94.683 E0.01254
G1 X124.559 Y94.513 E0.04050
G1 X125.024 Y94.497 E0.01458
G1 X125.480 Y94.516 E0.01430
G1 X126.606 Y94.662 E0.03562
G1 X127.328 Y94.833 E0.02326
G1 X127.742 Y94.976 E0.01375
G1 X128.529 Y95.301 E0.02668
G1 X129.203 Y95.647 E0.02375
G1 X129.621 Y95.921 E0.01568
G1 X130.269 Y96.415 E0.02555
G1 X130.809 Y96.886 E0.02246
G1 X131.289 Y97.422 E0.02256
G1 X131.788 Y98.073 E0.02572
G1 X132.034 Y98.433 E0.01368
G1 X132.243 Y98.795 E0.01309
G1 X132.424 Y99.164 E0.01290
G1 X132.760 Y99.970 E0.02737
G1 X132.902 Y100.370 E0.01333
G1 X133.083 Y101.110 E0.02387
G1 X133.231 Y102.231 E0.03546
G1 X133.254 Y102.746 E0.01616
G1 X133.254 Y111.262 E0.26704
G1 X133.235 Y111.724 E0.01449
G1 X133.142 Y112.381 E0.02080
G1 X132.974 Y113.023 E0.02080
G1 X132.732 Y113.647 E0.02099
G1 X132.421 Y114.233 E0.02080
G1 X132.045 Y114.779 E0.02080
G1 X131.609 Y115.279 E0.02080
G1 X131.118 Y115.725 E0.02080
G1 X130.574 Y116.115 E0.02099
G1 X129.983 Y116.442 E0.02117
G1 X129.358 Y116.697 E0.02117
G1 X128.707 Y116.877 E0.02117
G1 X128.040 Y116.979 E0.02117
G1 X127.525 Y117.005 E0.01616
G1 X122.476 Y117.005 E0.15829
G1 X122.097 Y116.991 E0.01189
G1 X121.714 Y116.951 E0.01208
G1 X121.104 Y116.833 E0.01950
G1 X120.504 Y116.647 E0.01969
G1 X119.933 Y116.400 E0.01950
G1 X119.387 Y116.090 E0.01969
G1 X118.878 Y115.722 E0.01969
G1 X118.417 Y115.305 E0.01950
G1 X118.000 Y114.836 E0.01969
G1 X117.636 Y114.324 E0.01969
G1 X117.296 Y113.707 E0.02210
G1 X117.035 Y113.052 E0.02210
G1 X116.856 Y112.371 E0.02210
G1 X116.761 Y111.672 E0.02210
G1 X116.746 Y111.251 E0.01322
G1 X116.758 Y102.378 E0.27821
G1 X116.878 Y101.363 E0.03204
G1 X116.942 Y100.977 E0.01226
G1 X117.070 Y100.464 E0.01659
G1 X117.243 Y99.963 E0.01660
G1 X117.591 Y99.130 E0.02832
G1 X117.864 Y98.603 E0.01860
G1 X118.175 Y98.124 E0.01792
G1 X118.741 Y97.385 E0.02919
G1 X119.078 Y97.568 F7200.000
G1 F2100
G1 X119.360 Y97.252 E0.01328
G1 X119.667 Y96.957 E0.01336
G1 X120.521 Y96.285 E0.03409
G1 X121.083 Y95.917 E0.02105
G1 X121.686 Y95.619 E0.02108
G1 X122.615 Y95.247 E0.03137
G1 X122.984 Y95.136 E0.01210
G1 X123.356 Y95.052 E0.01194
G1 X124.597 Y94.888 E0.03926
G1 X125.040 Y94.874 E0.01391
G1 X125.475 Y94.894 E0.01365
G1 X126.544 Y95.034 E0.03379
G1 X127.231 Y95.197 E0.02215
G1 X127.620 Y95.333 E0.01293
G1 X128.392 Y95.653 E0.02619
G1 X129.029 Y95.982 E0.02249
G1 X129.418 Y96.240 E0.01462
G1 X130.048 Y96.721 E0.02486
G1 X130.558 Y97.169 E0.02130
G1 X131.005 Y97.672 E0.02109
G1 X131.493 Y98.309 E0.02516
G1 X131.738 Y98.672 E0.01375
G1 X131.927 Y99.003 E0.01193
G1 X132.090 Y99.340 E0.01175
G1 X132.412 Y100.117 E0.02636
G1 X132.551 Y100.511 E0.01309
G1 X132.716 Y101.198 E0.02217
G1 X132.857 Y102.289 E0.03450
G1 X132.877 Y102.751 E0.01448
G1 X132.877 Y111.262 E0.26687
G1 X132.859 Y111.686 E0.01329
G1 X132.773 Y112.304 E0.01957
G1 X132.614 Y112.913 E0.01975
G1 X132.387 Y113.494 E0.01957
G1 X132.091 Y114.050 E0.01975
G1 X131.732 Y114.568 E0.01975
G1 X131.315 Y115.040 E0.01975
G1 X130.846 Y115.460 E0.01975
G1 X130.336 Y115.819 E0.01957
G1 X129.782 Y116.120 E0.01975
G1 X129.197 Y116.353 E0.01975
G1 X128.594 Y116.515 E0.01957
G1 X127.971 Y116.607 E0.01975
G1 X127.519 Y116.628 E0.01419
G1 X122.471 Y116.628 E0.15827
G1 X121.758 Y116.576 E0.02244
G1 X121.179 Y116.463 E0.01849
G1 X120.616 Y116.287 E0.01849
G1 X120.076 Y116.050 E0.01849
G1 X119.565 Y115.756 E0.01849
G1 X119.093 Y115.411 E0.01831
G1 X118.658 Y115.013 E0.01849
G1 X118.269 Y114.569 E0.01849
G1 X117.931 Y114.086 E0.01849
G1 X117.621 Y113.512 E0.02046
G1 X117.383 Y112.904 E0.02046
G1 X117.221 Y112.272 E0.02046
G1 X117.136 Y111.619 E0.02064
G1 X117.123 Y111.251 E0.01156
G1 X117.135 Y102.390 E0.27782
G1 X117.311 Y101.056 E0.04220
G1 X117.431 Y100.573 E0.01560
G1 X117.594 Y100.100 E0.01569
G1 X117.932 Y99.291 E0.02750
G1 X118.190 Y98.792 E0.01760
G1 X118.485 Y98.339 E0.01696
G1 X119.040 Y97.615 E0.02860
G1 F5760
G1 X119.360 Y97.252 E-0.16742
G1 F5760
G1 X119.667 Y96.957 E-0.14760
G1 F5760
G1 X120.521 Y96.285 E-0.37660
G1 F5760
G1 X120.687 Y96.176 E-0.06838
G1 E-0.04000 F2100.00000
G1 X118.164 Y113.047 F7200.000
G1 E0.80000 F2100.00000
G1 F2100
G1 X118.164 Y102.609 E0.32728
G1 X118.182 Y102.325 E0.00890
G1 X118.295 Y101.453 E0.02757
G1 X118.340 Y101.210 E0.00776
G1 X118.454 Y100.780 E0.01395
G1 X118.559 Y100.490 E0.00968
G1 X118.930 Y99.611 E0.02992
G1 X119.246 Y99.064 E0.01979
G1 X119.821 Y98.303 E0.02992
G1 X120.163 Y97.918 E0.01614
G1 X120.477 Y97.632 E0.01331
G1 X121.172 Y97.097 E0.02751
G1 X121.671 Y96.779 E0.01856
G1 X122.018 Y96.608 E0.01210
G1 X122.829 Y96.274 E0.02750
G1 X123.434 Y96.097 E0.01978
G1 X124.455 Y95.948 E0.03234
G1 X124.891 Y95.914 E0.01372
G1 X125.469 Y95.939 E0.01813
G1 X126.390 Y96.063 E0.02914
G1 X126.767 Y96.145 E0.01211
G1 X127.290 Y96.322 E0.01732
G1 X128.146 Y96.684 E0.02915
G1 X128.680 Y96.993 E0.01934
G1 X129.523 Y97.632 E0.03316
G1 X129.837 Y97.918 E0.01331
G1 X130.179 Y98.303 E0.01615
G1 X130.754 Y99.064 E0.02992
G1 X130.975 Y99.427 E0.01332
G1 X131.164 Y99.821 E0.01372
G1 X131.487 Y100.610 E0.02672
G1 X131.660 Y101.210 E0.01959
G1 X131.818 Y102.325 E0.03531
G1 X131.836 Y102.609 E0.00890
G1 X131.836 Y113.047 E0.32728
G1 X129.296 Y115.587 E0.11264
G1 X120.704 Y115.587 E0.26941
G1 X118.206 Y113.089 E0.11076
G1 X118.541 Y112.891 F7200.000
G1 F2100
G1 X118.541 Y102.621 E0.32200
G1 X118.558 Y102.362 E0.00813
G1 X118.668 Y101.511 E0.02693
G1 X118.814 Y100.895 E0.01984
G1 X119.211 Y99.904 E0.03347
G1 X119.456 Y99.434 E0.01663
G1 X119.682 Y99.104 E0.01256
G1 X120.300 Y98.321 E0.03125
G1 X120.717 Y97.923 E0.01808
G1 X121.395 Y97.401 E0.02684
G1 X121.852 Y97.110 E0.01698
G1 X122.169 Y96.954 E0.01108
G1 X122.960 Y96.628 E0.02683
G1 X123.331 Y96.510 E0.01219
G1 X123.792 Y96.415 E0.01478
G1 X124.571 Y96.314 E0.02461
G1 X124.900 Y96.291 E0.01035
G1 X125.289 Y96.300 E0.01219
G1 X126.208 Y96.415 E0.02904
G1 X126.669 Y96.510 E0.01478
G1 X127.040 Y96.628 E0.01219
G1 X127.831 Y96.954 E0.02683
G1 X128.311 Y97.204 E0.01698
G1 X128.605 Y97.401 E0.01108
G1 X129.190 Y97.850 E0.02314
G1 X129.570 Y98.184 E0.01587
G1 X129.883 Y98.537 E0.01477
G1 X130.360 Y99.160 E0.02461
G1 X130.544 Y99.434 E0.01034
G1 X130.789 Y99.904 E0.01662
G1 X131.132 Y100.739 E0.02830
G1 X131.291 Y101.289 E0.01795
G1 X131.442 Y102.362 E0.03399
G1 X131.459 Y102.621 E0.00813
G1 X131.459 Y112.891 E0.32200
G1 X129.140 Y115.210 E0.10284
G1 X120.860 Y115.210 E0.25961
G1 X118.583 Y112.933 E0.10096
G1 X118.918 Y112.734 F7200.000
G1 F2100
G1 X118.918 Y102.633 E0.31671
G1 X118.933 Y102.399 E0.00735
G1 X119.041 Y101.568 E0.02628
G1 X119.173 Y101.010 E0.01799
G1 X119.555 Y100.058 E0.03217
G1 X119.778 Y99.631 E0.01511
G1 X119.946 Y99.382 E0.00939
G1 X120.413 Y98.771 E0.02412
G1 X120.696 Y98.451 E0.01340
G1 X120.957 Y98.214 E0.01106
G1 X121.618 Y97.705 E0.02617
G1 X122.033 Y97.441 E0.01540
G1 X122.321 Y97.299 E0.01006
G1 X123.092 Y96.981 E0.02616
G1 X123.428 Y96.874 E0.01106
G1 X123.847 Y96.788 E0.01340
G1 X124.610 Y96.689 E0.02412
G1 X124.909 Y96.669 E0.00940
G1 X125.390 Y96.689 E0.01511
G1 X126.153 Y96.788 E0.02412
G1 X126.572 Y96.874 E0.01340
G1 X126.908 Y96.981 E0.01106
G1 X127.679 Y97.299 E0.02616
G1 X128.115 Y97.526 E0.01540
G1 X128.382 Y97.705 E0.01006
G1 X128.958 Y98.147 E0.02279
G1 X129.304 Y98.451 E0.01443
G1 X129.587 Y98.771 E0.01340
G1 X130.055 Y99.382 E0.02411
G1 X130.222 Y99.631 E0.00939
G1 X130.445 Y100.058 E0.01511
G1 X130.778 Y100.867 E0.02746
G1 X130.922 Y101.367 E0.01631
G1 X131.067 Y102.399 E0.03268
G1 X131.082 Y102.633 E0.00735
G1 X131.082 Y112.734 E0.31671
G1 X128.984 Y114.833 E0.09305
G1 X121.016 Y114.833 E0.24982
G1 X118.960 Y112.777 E0.09117
G1 X119.295 Y112.578 F7200.000
G1 F2100
G1 X119.295 Y102.646 E0.31143
G1 X119.414 Y101.625 E0.03221
G1 X119.489 Y101.271 E0.01136
G1 X119.610 Y100.907 E0.01203
G1 X119.877 Y100.264 E0.02183
G1 X120.100 Y99.827 E0.01539
G1 X120.709 Y99.005 E0.03206
G1 X120.963 Y98.718 E0.01203
G1 X121.197 Y98.505 E0.00993
G1 X121.842 Y98.009 E0.02550
G1 X122.213 Y97.772 E0.01382
G1 X122.472 Y97.644 E0.00904
G1 X123.224 Y97.335 E0.02549
G1 X123.526 Y97.238 E0.00994
G1 X123.902 Y97.161 E0.01203
G1 X124.918 Y97.046 E0.03206
G1 X125.351 Y97.064 E0.01360
G1 X126.098 Y97.161 E0.02362
G1 X126.474 Y97.238 E0.01203
G1 X126.776 Y97.335 E0.00994
G1 X127.528 Y97.644 E0.02549
G1 X127.919 Y97.848 E0.01382
G1 X128.158 Y98.009 E0.00904
G1 X128.726 Y98.444 E0.02244
G1 X129.037 Y98.718 E0.01299
G1 X129.291 Y99.005 E0.01203
G1 X129.749 Y99.603 E0.02362
G1 X129.900 Y99.827 E0.00845
G1 X130.100 Y100.211 E0.01359
G1 X130.423 Y100.996 E0.02661
G1 X130.553 Y101.446 E0.01467
G1 X130.691 Y102.436 E0.03136
G1 X130.705 Y102.646 E0.00658
G1 X130.705 Y112.578 E0.31143
G1 X128.828 Y114.456 E0.08325
G1 X121.172 Y114.456 E0.24003
G1 X119.337 Y112.621 E0.08137
G1 X119.672 Y112.422 F7200.000
G1 F2100
G1 X119.672 Y102.658 E0.30614
G1 X119.787 Y101.683 E0.03080
G1 X119.854 Y101.369 E0.01007
G1 X119.961 Y101.046 E0.01066
G1 X120.349 Y100.150 E0.03062
G1 X120.556 Y99.825 E0.01209
G1 X121.058 Y99.174 E0.02577
G1 X121.230 Y98.985 E0.00802
G1 X121.506 Y98.741 E0.01155
G1 X122.065 Y98.312 E0.02208
G1 X122.394 Y98.103 E0.01224
G1 X123.274 Y97.720 E0.03009
G1 X123.624 Y97.603 E0.01155
G1 X123.957 Y97.534 E0.01066
G1 X124.792 Y97.429 E0.02640
G1 X125.073 Y97.423 E0.00882
G1 X125.362 Y97.445 E0.00908
G1 X126.043 Y97.534 E0.02155
G1 X126.376 Y97.603 E0.01066
G1 X126.726 Y97.720 E0.01155
G1 X127.606 Y98.103 E0.03009
G1 X127.935 Y98.312 E0.01224
G1 X128.664 Y98.884 E0.02904
G1 X128.943 Y99.174 E0.01261
G1 X129.414 Y99.784 E0.02419
G1 X129.578 Y100.023 E0.00908
G1 X129.756 Y100.365 E0.01208
G1 X130.069 Y101.125 E0.02577
G1 X130.184 Y101.524 E0.01303
G1 X130.328 Y102.658 E0.03584
G1 X130.328 Y112.422 E0.30614
G1 X128.671 Y114.079 E0.07346
G1 X121.329 Y114.079 E0.23023
G1 X119.714 Y112.465 E0.07158
G1 X120.049 Y112.266 F7200.000
G1 F2100
G1 X120.049 Y102.670 E0.30086
G1 X120.160 Y101.740 E0.02938
G1 X120.218 Y101.466 E0.00878
G1 X120.311 Y101.185 E0.00928
G1 X120.680 Y100.331 E0.02918
G1 X120.861 Y100.046 E0.01057
G1 X121.346 Y99.416 E0.02492
G1 X121.497 Y99.251 E0.00700
G1 X121.739 Y99.038 E0.01011
G1 X122.288 Y98.616 E0.02173
G1 X122.575 Y98.434 E0.01065
G1 X123.402 Y98.076 E0.02826
G1 X123.721 Y97.967 E0.01057
G1 X124.011 Y97.908 E0.00929
G1 X124.819 Y97.805 E0.02553
G1 X125.316 Y97.819 E0.01559
G1 X125.989 Y97.908 E0.02127
G1 X126.279 Y97.967 E0.00929
G1 X126.584 Y98.070 E0.01011
G1 X127.425 Y98.434 E0.02872
G1 X127.712 Y98.616 E0.01065
G1 X128.410 Y99.163 E0.02781
G1 X128.654 Y99.416 E0.01103
G1 X129.139 Y100.046 E0.02492
G1 X129.373 Y100.435 E0.01422
G1 X129.689 Y101.185 E0.02553
G1 X129.782 Y101.466 E0.00929
G1 X129.840 Y101.740 E0.00877
G1 X129.951 Y102.670 E0.02938
G1 X129.951 Y112.266 E0.30086
G1 X128.515 Y113.702 E0.06366
G1 X121.485 Y113.702 E0.22044
G1 X120.091 Y112.308 E0.06178
G1 X120.426 Y112.110 F7200.000
G1 F2100
G1 X120.426 Y102.683 E0.29558
G1 X120.532 Y101.797 E0.02797
G1 X120.582 Y101.564 E0.00748
G1 X120.662 Y101.324 E0.00791
G1 X120.966 Y100.599 E0.02465
G1 X121.120 Y100.333 E0.00966
G1 X121.596 Y99.707 E0.02465
G1 X121.918 Y99.377 E0.01445
G1 X122.512 Y98.920 E0.02349
G1 X122.756 Y98.765 E0.00907
G1 X123.713 Y98.362 E0.03255
G1 X124.005 Y98.291 E0.00945
G1 X124.730 Y98.193 E0.02292
G1 X124.945 Y98.177 E0.00676
G1 X125.233 Y98.189 E0.00906
G1 X125.934 Y98.281 E0.02215
G1 X126.181 Y98.331 E0.00792
G1 X126.381 Y98.395 E0.00656
G1 X127.151 Y98.717 E0.02620
G1 X127.488 Y98.920 E0.01234
G1 X128.157 Y99.442 E0.02658
G1 X128.365 Y99.659 E0.00945
G1 X128.812 Y100.238 E0.02292
G1 X128.989 Y100.512 E0.01022
G1 X129.082 Y100.706 E0.00676
G1 X129.360 Y101.382 E0.02292
G1 X129.468 Y101.797 E0.01345
G1 X129.574 Y102.683 E0.02796
G1 X129.574 Y112.110 E0.29558
G1 X128.359 Y113.325 E0.05387
G1 X121.641 Y113.325 E0.21064
G1 X120.469 Y112.152 E0.05199
G1 X120.803 Y111.954 F7200.000
G1 F2100
G1 X120.803 Y102.695 E0.29029
G1 X120.905 Y101.855 E0.02655
G1 X120.947 Y101.661 E0.00619
G1 X121.305 Y100.764 E0.03030
G1 X121.432 Y100.544 E0.00797
G1 X121.892 Y99.941 E0.02377
G1 X122.158 Y99.668 E0.01196
G1 X122.735 Y99.224 E0.02282
G1 X122.937 Y99.096 E0.00749
G1 X123.828 Y98.722 E0.03030
G1 X124.071 Y98.662 E0.00787
G1 X124.776 Y98.568 E0.02229
G1 X125.194 Y98.564 E0.01312
G1 X126.084 Y98.696 E0.02819
G1 X126.986 Y99.056 E0.03045
G1 X127.265 Y99.224 E0.01023
G1 X127.903 Y99.721 E0.02535
G1 X128.077 Y99.902 E0.00786
G1 X128.511 Y100.465 E0.02229
G1 X128.658 Y100.692 E0.00850
G1 X128.735 Y100.853 E0.00560
G1 X129.005 Y101.511 E0.02229
G1 X129.095 Y101.855 E0.01114
G1 X129.197 Y102.695 E0.02655
G1 X129.197 Y111.954 E0.29029
G1 X128.203 Y112.948 E0.04408
G1 X121.797 Y112.948 E0.20085
G1 X120.846 Y111.996 E0.04219
G1 X121.180 Y111.797 F7200.000
G1 F2100
G1 X121.180 Y102.707 E0.28501
G1 X121.311 Y101.759 E0.03002
G1 X121.622 Y100.979 E0.02632
G1 X121.791 Y100.692 E0.01045
G1 X122.212 Y100.145 E0.02166
G1 X122.398 Y99.959 E0.00824
G1 X122.958 Y99.528 E0.02215
G1 X123.117 Y99.427 E0.00591
G1 X123.942 Y99.081 E0.02805
G1 X124.176 Y99.027 E0.00751
G1 X124.822 Y98.942 E0.02042
G1 X125.155 Y98.939 E0.01045
G1 X125.986 Y99.060 E0.02633
G1 X126.770 Y99.371 E0.02645
G1 X126.997 Y99.497 E0.00812
G1 X127.558 Y99.925 E0.02215
G1 X127.813 Y100.175 E0.01119
G1 X128.223 Y100.711 E0.02116
G1 X128.327 Y100.873 E0.00604
G1 X128.637 Y101.603 E0.02485
G1 X128.722 Y101.912 E0.01005
G1 X128.820 Y102.707 E0.02513
G1 X128.820 Y111.797 E0.28501
G1 X128.047 Y112.570 E0.03428
G1 X121.953 Y112.570 E0.19105
G1 X121.223 Y111.840 E0.03240
G1 X121.557 Y111.641 F7200.000
G1 F2100
G1 X121.557 Y102.720 E0.27972
G1 X121.651 Y101.969 E0.02372
G1 X121.704 Y101.768 E0.00652
G1 X122.004 Y101.054 E0.02429
G1 X122.483 Y100.409 E0.02518
G1 X122.638 Y100.250 E0.00698
G1 X123.298 Y99.758 E0.02580
G1 X124.112 Y99.424 E0.02757
G1 X124.884 Y99.314 E0.02446
G1 X125.133 Y99.316 E0.00779
G1 X125.797 Y99.405 E0.02102
G1 X125.985 Y99.455 E0.00610
G1 X126.741 Y99.780 E0.02580
G1 X127.437 Y100.318 E0.02757
G1 X127.996 Y101.054 E0.02897
G1 X128.286 Y101.742 E0.02341
G1 X128.339 Y101.916 E0.00572
G1 X128.443 Y102.720 E0.02540
G1 X128.443 Y111.641 E0.27972
G1 X127.890 Y112.193 E0.02449
G1 X122.110 Y112.193 E0.18126
G1 X121.600 Y111.684 E0.02261
G1 X121.934 Y111.485 F7200.000
G1 F2100
G1 X121.934 Y102.732 E0.27444
G1 X122.047 Y101.928 E0.02544
G1 X122.336 Y101.235 E0.02356
G1 X122.779 Y100.643 E0.02318
G1 X122.879 Y100.541 E0.00448
G1 X123.479 Y100.089 E0.02355
G1 X124.209 Y99.789 E0.02477
G1 X124.913 Y99.690 E0.02229
G1 X125.087 Y99.690 E0.00543
G1 X125.828 Y99.800 E0.02349
G1 X126.544 Y100.102 E0.02439
G1 X127.170 Y100.585 E0.02477
G1 X127.665 Y101.235 E0.02560
G1 X127.970 Y101.995 E0.02568
G1 X128.066 Y102.732 E0.02332
G1 X128.066 Y111.485 E0.27444
G1 X127.734 Y111.816 E0.01469
G1 X122.266 Y111.816 E0.17146
G1 X121.977 Y111.527 E0.01281
G1 X122.311 Y111.329 F7200.000
G1 F2100
G1 X122.311 Y102.744 E0.26915
G1 X122.406 Y102.043 E0.02218
G1 X122.667 Y101.415 E0.02131
G1 X123.075 Y100.877 E0.02118
G1 X123.660 Y100.420 E0.02328
G1 X124.307 Y100.153 E0.02196
