; generated by Slic3r 1.33.8-prusa3d-win64 on 2017-03-11 at 00:26:01

; external perimeters extrusion width = 0.45mm
; perimeters extrusion width = 0.45mm
; infill extrusion width = 0.45mm
; solid infill extrusion width = 0.45mm
; top infill extrusion width = 0.40mm

M107
M115 U3.0.10 ; tell printer latest fw version
M83  ; extruder relative mode
M104 S215 ; set extruder temp
M140 S55 ; set bed temp
M190 S55 ; wait for bed temp
M109 S215 ; wait for extruder temp
G28 W ; home all without mesh bed level
G80 ; mesh bed leveling
G1 Y-3.0 F1000.0 ; go outside pritn area
G1 X60.0 E9.0  F1000.0 ; intro line
G1 X100.0 E12.5  F1000.0 ; intro line
G21 ; set units to millimeters
G90 ; use absolute coordinates
M83 ; use relative distances for extrusion
G1 E-0.80000 F2100.00000
G1 Z0.200 F7200.000
G1 X102.047 Y101.258 F7200.000
G1 E0.80000 F2100.00000
M204 S1000
G1 F2100
G1 X114.875 Y88.421 E0.56902
G1 X115.280 Y88.071 E0.01677
G1 X115.639 Y87.813 E0.01386
G1 X116.228 Y87.470 E0.02137
G1 X116.741 Y87.245 E0.01756
G1 X117.133 Y87.110 E0.01302
G1 X117.532 Y87.008 E0.01290
G1 X118.114 Y86.909 E0.01851
G1 X118.612 Y86.875 E0.01565
G1 X131.206 Y86.873 E0.39489
G1 X131.713 Y86.892 E0.01591
G1 X132.257 Y86.964 E0.01720
G1 X132.896 Y87.124 E0.02065
G1 X133.319 Y87.325 E0.01467
G1 X133.693 Y87.605 E0.01467
G1 X146.317 Y100.226 E0.55969
G1 X148.888 Y103.556 E0.13190
G1 X149.061 Y103.816 E0.00979
G1 X149.235 Y104.192 E0.01300
G1 X149.342 Y104.596 E0.01312
G1 X149.377 Y104.971 E0.01181
G1 X149.354 Y105.511 E0.01693
G1 X149.285 Y106.013 E0.01589
G1 X149.185 Y106.451 E0.01410
G1 X148.957 Y107.128 E0.02238
G1 X148.780 Y107.522 E0.01356
G1 X148.528 Y107.971 E0.01613
G1 X148.244 Y108.386 E0.01577
G1 X147.919 Y108.779 E0.01601
G1 X135.113 Y121.590 E0.56794
G1 X134.650 Y121.983 E0.01905
G1 X134.141 Y122.326 E0.01923
G1 X133.774 Y122.528 E0.01314
G1 X133.386 Y122.704 E0.01338
G1 X132.814 Y122.905 E0.01899
G1 X132.220 Y123.041 E0.01911
G1 X131.797 Y123.100 E0.01338
G1 X131.383 Y123.124 E0.01302
G1 X118.762 Y123.127 E0.39572
G1 X118.255 Y123.105 E0.01592
G1 X117.760 Y123.039 E0.01565
G1 X117.321 Y122.941 E0.01410
G1 X116.647 Y122.717 E0.02226
G1 X116.252 Y122.542 E0.01356
G1 X115.802 Y122.293 E0.01613
G1 X115.389 Y122.012 E0.01565
G1 X114.997 Y121.692 E0.01589
G1 X102.181 Y108.885 E0.56806
G1 X101.765 Y108.397 E0.02012
G1 X101.487 Y107.996 E0.01529
G1 X101.239 Y107.559 E0.01577
G1 X101.027 Y107.094 E0.01601
G1 X100.875 Y106.663 E0.01434
G1 X100.736 Y106.121 E0.01755
G1 X100.665 Y105.677 E0.01410
G1 X100.625 Y104.951 E0.02280
G1 X100.644 Y104.513 E0.01374
G1 X100.712 Y104.003 E0.01613
G1 X100.823 Y103.512 E0.01577
G1 X100.984 Y103.016 E0.01637
G1 X101.186 Y102.547 E0.01601
G1 X101.427 Y102.101 E0.01589
G1 X101.712 Y101.673 E0.01613
G1 X102.008 Y101.304 E0.01484
G1 F5760
G1 X103.559 Y99.751 E-0.76000
G1 E-0.04000 F2100.00000
G1 X106.230 Y102.338 F7200.000
G1 E0.80000 F2100.00000
G1 F840
G1 X106.354 Y102.342 E0.00391
G1 X106.239 Y102.772 E0.01394
G1 X106.066 Y102.772 E0.00545
G1 X105.670 Y102.836 E0.01255
G1 X105.296 Y102.978 E0.01255
G1 X104.976 Y103.163 E0.01157
G1 X104.666 Y103.416 E0.01255
G1 X104.413 Y103.726 E0.01255
G1 X104.228 Y104.046 E0.01157
G1 X104.090 Y104.410 E0.01223
G1 X104.048 Y104.621 E0.00672
G1 X104.010 Y105.000 E0.01195
G1 X104.050 Y105.398 E0.01255
G1 X104.146 Y105.755 E0.01157
G1 X104.314 Y106.128 E0.01284
G1 X104.665 Y106.585 E0.01807
G1 X105.129 Y106.942 E0.01835
G1 X105.670 Y107.166 E0.01835
G1 X106.250 Y107.242 E0.01835
G1 X106.830 Y107.166 E0.01835
G1 X107.363 Y106.945 E0.01807
G1 X107.695 Y106.706 E0.01284
G1 X107.956 Y106.445 E0.01157
G1 X108.190 Y106.120 E0.01255
G1 X108.355 Y105.755 E0.01255
G1 X108.400 Y105.587 E0.00545
G1 X108.844 Y105.587 E0.01394
G1 X108.734 Y105.959 E0.01216
G1 X108.516 Y106.397 E0.01536
G1 X108.222 Y106.789 E0.01536
G1 X107.861 Y107.120 E0.01536
G1 X107.659 Y107.259 E0.00769
G1 X107.221 Y107.479 E0.01536
G1 X106.751 Y107.615 E0.01536
G1 X106.263 Y107.662 E0.01536
G1 X105.775 Y107.619 E0.01536
G1 X105.303 Y107.488 E0.01536
G1 X104.864 Y107.273 E0.01536
G1 X104.471 Y106.980 E0.01536
G1 X104.138 Y106.621 E0.01536
G1 X103.998 Y106.419 E0.00769
G1 X103.776 Y105.983 E0.01536
G1 X103.638 Y105.513 E0.01536
G1 X103.588 Y105.026 E0.01536
G1 X103.628 Y104.538 E0.01536
G1 X103.757 Y104.065 E0.01536
G1 X103.971 Y103.624 E0.01536
G1 X104.261 Y103.230 E0.01536
G1 X104.619 Y102.896 E0.01536
G1 X105.032 Y102.632 E0.01536
G1 X105.487 Y102.449 E0.01536
G1 X105.724 Y102.390 E0.00769
G1 X106.170 Y102.342 E0.01404
G1 X106.763 Y102.004 F7200.000
G1 F840
G1 X106.832 Y102.019 E0.00219
G1 X106.524 Y103.168 E0.03732
G1 X106.404 Y103.149 E0.00379
G1 X106.096 Y103.149 E0.00966
G1 X105.768 Y103.202 E0.01041
G1 X105.458 Y103.320 E0.01041
G1 X105.191 Y103.474 E0.00966
G1 X104.934 Y103.684 E0.01041
G1 X104.724 Y103.941 E0.01041
G1 X104.570 Y104.208 E0.00966
G1 X104.454 Y104.515 E0.01029
G1 X104.389 Y105.000 E0.01535
G1 X104.422 Y105.330 E0.01041
G1 X104.502 Y105.628 E0.00966
G1 X104.640 Y105.933 E0.01051
G1 X104.934 Y106.316 E0.01514
G1 X105.319 Y106.612 E0.01524
G1 X105.768 Y106.798 E0.01524
G1 X106.250 Y106.862 E0.01524
G1 X106.732 Y106.798 E0.01524
G1 X107.178 Y106.613 E0.01514
G1 X107.450 Y106.418 E0.01051
G1 X107.668 Y106.200 E0.00966
G1 X107.862 Y105.930 E0.01041
G1 X107.998 Y105.628 E0.01041
G1 X108.078 Y105.330 E0.00966
G1 X108.090 Y105.210 E0.00379
G1 X109.280 Y105.210 E0.03732
G1 X109.238 Y105.557 E0.01095
G1 X109.175 Y105.829 E0.00878
G1 X109.086 Y106.095 E0.00878
G1 X108.973 Y106.351 E0.00878
G1 X108.837 Y106.596 E0.00878
G1 X108.680 Y106.827 E0.00878
G1 X108.501 Y107.043 E0.00878
G1 X108.304 Y107.241 E0.00878
G1 X108.089 Y107.420 E0.00878
G1 X107.858 Y107.579 E0.00878
G1 X107.614 Y107.716 E0.00878
G1 X107.359 Y107.830 E0.00878
G1 X107.094 Y107.920 E0.00878
G1 X106.821 Y107.985 E0.00878
G1 X106.544 Y108.025 E0.00878
G1 X106.265 Y108.040 E0.00878
G1 X105.985 Y108.028 E0.00878
G1 X105.708 Y107.991 E0.00878
G1 X105.435 Y107.928 E0.00878
G1 X105.169 Y107.841 E0.00878
G1 X104.912 Y107.729 E0.00878
G1 X104.667 Y107.595 E0.00878
G1 X104.435 Y107.438 E0.00878
G1 X104.218 Y107.261 E0.00878
G1 X104.019 Y107.064 E0.00878
G1 X103.839 Y106.850 E0.00878
G1 X103.679 Y106.621 E0.00878
G1 X103.540 Y106.377 E0.00878
G1 X103.425 Y106.122 E0.00878
G1 X103.334 Y105.858 E0.00878
G1 X103.267 Y105.586 E0.00878
G1 X103.226 Y105.309 E0.00878
G1 X103.211 Y105.029 E0.00878
G1 X103.221 Y104.750 E0.00878
G1 X103.257 Y104.472 E0.00878
G1 X103.318 Y104.199 E0.00878
G1 X103.404 Y103.933 E0.00878
G1 X103.514 Y103.675 E0.00878
G1 X103.648 Y103.429 E0.00878
G1 X103.803 Y103.196 E0.00878
G1 X103.979 Y102.979 E0.00878
G1 X104.175 Y102.779 E0.00878
G1 X104.388 Y102.597 E0.00878
G1 X104.617 Y102.436 E0.00878
G1 X104.860 Y102.297 E0.00878
G1 X105.114 Y102.180 E0.00878
G1 X105.378 Y102.088 E0.00878
G1 X105.650 Y102.020 E0.00878
G1 X105.926 Y101.977 E0.00876
G1 X106.225 Y101.961 E0.00940
G1 X106.704 Y101.996 E0.01505
G1 X106.789 Y102.069 F7200.000
G1 X106.032 Y102.562 F7200.000
G1 F1680
G1 X105.694 Y102.617 E0.00027
G1 X105.557 Y102.651 F7200.000
G1 F1680
G1 X105.240 Y102.771 E0.00036
G1 X105.187 Y102.795 F7200.000
G1 F1680
G1 X104.875 Y102.975 E0.00033
G1 X104.827 Y103.009 F7200.000
G1 F1680
G1 X104.557 Y103.231 E0.00036
G1 X104.467 Y103.324 F7200.000
G1 F1680
G1 X104.248 Y103.591 E0.00032
G1 X104.219 Y103.637 F7200.000
G1 F1680
G1 X104.035 Y103.956 E0.00041
G1 X104.021 Y103.992 F7200.000
G1 F1680
G1 X103.913 Y104.276 E0.00033
G1 X103.848 Y104.531 F7200.000
G1 F1680
G1 X103.785 Y104.907 E0.00025
G1 X103.805 Y104.908 F7200.000
G1 F1680
G1 X103.844 Y104.530 E0.00041
G1 X103.805 Y105.093 F7200.000
G1 F1680
G1 X103.836 Y105.395 E0.00033
G1 X103.841 Y105.440 F7200.000
G1 F1680
G1 X103.935 Y105.793 E0.00040
G1 X103.954 Y105.846 F7200.000
G1 F1680
G1 X104.096 Y106.161 E0.00030
G1 X104.160 Y106.276 F7200.000
G1 F1680
G1 X104.476 Y106.688 E0.00038
G1 X104.570 Y106.780 F7200.000
G1 F1680
G1 X104.964 Y107.084 E0.00078
G1 X105.095 Y107.157 F7200.000
G1 F1680
G1 X105.537 Y107.341 E0.00072
G1 X105.698 Y107.384 F7200.000
G1 F1680
G1 X106.166 Y107.445 E0.00066
G1 X106.334 Y107.445 F7200.000
G1 F1680
G1 X106.805 Y107.383 E0.00059
G1 X106.958 Y107.343 F7200.000
G1 F1680
G1 X107.410 Y107.155 E0.00051
G1 X107.521 Y107.093 F7200.000
G1 F1680
G1 X107.805 Y106.889 E0.00036
G1 X107.850 Y106.852 F7200.000
G1 F1680
G1 X108.105 Y106.597 E0.00033
G1 X108.141 Y106.552 F7200.000
G1 F1680
G1 X108.340 Y106.278 E0.00036
G1 X108.408 Y106.154 F7200.000
G1 F1680
G1 X108.550 Y105.838 E0.00028
G1 F5760
G1 X108.408 Y106.154 E-0.11985
G1 E-0.68015 F2100.00000
G1 X118.730 Y102.338 F7200.000
G1 E0.80000 F2100.00000
G1 F840
G1 X118.854 Y102.342 E0.00391
G1 X118.739 Y102.772 E0.01394
G1 X118.565 Y102.772 E0.00545
G1 X118.170 Y102.836 E0.01255
G1 X117.796 Y102.978 E0.01255
G1 X117.476 Y103.163 E0.01157
G1 X117.166 Y103.416 E0.01255
G1 X116.913 Y103.726 E0.01255
G1 X116.728 Y104.046 E0.01157
G1 X116.590 Y104.410 E0.01223
G1 X116.548 Y104.621 E0.00672
G1 X116.510 Y105.000 E0.01195
G1 X116.550 Y105.398 E0.01255
G1 X116.646 Y105.755 E0.01157
G1 X116.814 Y106.128 E0.01284
G1 X117.165 Y106.585 E0.01807
G1 X117.629 Y106.942 E0.01835
G1 X118.170 Y107.166 E0.01835
G1 X118.750 Y107.242 E0.01835
G1 X119.330 Y107.166 E0.01835
G1 X119.863 Y106.945 E0.01807
G1 X120.195 Y106.706 E0.01284
G1 X120.456 Y106.445 E0.01157
G1 X120.690 Y106.120 E0.01255
G1 X120.854 Y105.755 E0.01255
G1 X120.899 Y105.587 E0.00545
G1 X121.344 Y105.587 E0.01394
G1 X121.234 Y105.959 E0.01216
G1 X121.016 Y106.397 E0.01536
G1 X120.722 Y106.789 E0.01536
G1 X120.360 Y107.120 E0.01536
G1 X120.159 Y107.259 E0.00769
G1 X119.721 Y107.479 E0.01536
G1 X119.250 Y107.615 E0.01536
G1 X118.763 Y107.662 E0.01536
G1 X118.275 Y107.619 E0.01536
G1 X117.803 Y107.488 E0.01536
G1 X117.363 Y107.273 E0.01536
G1 X116.970 Y106.980 E0.01536
G1 X116.638 Y106.621 E0.01536
G1 X116.498 Y106.419 E0.00769
G1 X116.276 Y105.983 E0.01536
G1 X116.138 Y105.513 E0.01536
G1 X116.088 Y105.026 E0.01536
G1 X116.128 Y104.538 E0.01536
G1 X116.257 Y104.065 E0.01536
G1 X116.471 Y103.624 E0.01536
G1 X116.761 Y103.230 E0.01536
G1 X117.119 Y102.896 E0.01536
G1 X117.532 Y102.632 E0.01536
G1 X117.986 Y102.449 E0.01536
G1 X118.224 Y102.390 E0.00769
G1 X118.670 Y102.342 E0.01404
G1 X119.263 Y102.004 F7200.000
G1 F840
G1 X119.331 Y102.019 E0.00219
G1 X119.023 Y103.168 E0.03732
G1 X118.904 Y103.149 E0.00379
G1 X118.596 Y103.149 E0.00966
G1 X118.268 Y103.202 E0.01041
G1 X117.958 Y103.320 E0.01041
G1 X117.691 Y103.474 E0.00966
G1 X117.434 Y103.684 E0.01041
G1 X117.224 Y103.941 E0.01041
G1 X117.070 Y104.208 E0.00966
G1 X116.954 Y104.515 E0.01029
G1 X116.889 Y105.000 E0.01535
G1 X116.922 Y105.330 E0.01041
G1 X117.002 Y105.628 E0.00966
G1 X117.140 Y105.933 E0.01051
G1 X117.433 Y106.316 E0.01514
G1 X117.819 Y106.612 E0.01524
G1 X118.268 Y106.798 E0.01524
G1 X118.750 Y106.862 E0.01524
G1 X119.232 Y106.798 E0.01524
G1 X119.678 Y106.613 E0.01514
G1 X119.950 Y106.418 E0.01051
G1 X120.168 Y106.200 E0.00966
G1 X120.362 Y105.930 E0.01041
G1 X120.498 Y105.628 E0.01041
G1 X120.578 Y105.330 E0.00966
G1 X120.590 Y105.210 E0.00379
G1 X121.780 Y105.210 E0.03732
G1 X121.738 Y105.557 E0.01095
G1 X121.674 Y105.829 E0.00878
G1 X121.586 Y106.095 E0.00878
G1 X121.473 Y106.351 E0.00878
G1 X121.337 Y106.596 E0.00878
G1 X121.179 Y106.827 E0.00878
G1 X121.001 Y107.043 E0.00878
G1 X120.804 Y107.241 E0.00878
G1 X120.589 Y107.420 E0.00878
G1 X120.358 Y107.579 E0.00878
G1 X120.114 Y107.716 E0.00878
G1 X119.859 Y107.830 E0.00878
G1 X119.594 Y107.920 E0.00878
G1 X119.321 Y107.985 E0.00878
G1 X119.044 Y108.025 E0.00878
G1 X118.765 Y108.040 E0.00878
G1 X118.485 Y108.028 E0.00878
G1 X118.208 Y107.991 E0.00878
G1 X117.935 Y107.928 E0.00878
G1 X117.669 Y107.841 E0.00878
G1 X117.412 Y107.729 E0.00878
G1 X117.167 Y107.595 E0.00878
G1 X116.935 Y107.438 E0.00878
G1 X116.718 Y107.261 E0.00878
G1 X116.519 Y107.064 E0.00878
G1 X116.338 Y106.850 E0.00878
G1 X116.178 Y106.621 E0.00878
G1 X116.040 Y106.377 E0.00878
G1 X115.925 Y106.122 E0.00878
G1 X115.834 Y105.858 E0.00878
G1 X115.767 Y105.586 E0.00878
G1 X115.726 Y105.309 E0.00878
G1 X115.710 Y105.029 E0.00878
G1 X115.721 Y104.750 E0.00878
G1 X115.756 Y104.472 E0.00878
G1 X115.818 Y104.199 E0.00878
G1 X115.904 Y103.933 E0.00878
G1 X116.014 Y103.675 E0.00878
G1 X116.147 Y103.429 E0.00878
G1 X116.303 Y103.196 E0.00878
G1 X116.479 Y102.979 E0.00878
G1 X116.675 Y102.779 E0.00878
G1 X116.888 Y102.597 E0.00878
G1 X117.117 Y102.436 E0.00878
G1 X117.359 Y102.297 E0.00878
G1 X117.614 Y102.180 E0.00878
G1 X117.878 Y102.088 E0.00878
G1 X118.150 Y102.020 E0.00878
G1 X118.426 Y101.977 E0.00876
G1 X118.725 Y101.961 E0.00940
G1 X119.204 Y101.996 E0.01505
G1 X119.288 Y102.069 F7200.000
G1 X118.532 Y102.562 F7200.000
G1 F1680
G1 X118.194 Y102.617 E0.00027
G1 X118.057 Y102.651 F7200.000
G1 F1680
G1 X117.740 Y102.771 E0.00036
G1 X117.687 Y102.795 F7200.000
G1 F1680
G1 X117.375 Y102.975 E0.00033
G1 X117.327 Y103.009 F7200.000
G1 F1680
G1 X117.057 Y103.231 E0.00036
G1 X116.967 Y103.324 F7200.000
G1 F1680
G1 X116.748 Y103.591 E0.00032
G1 X116.718 Y103.637 F7200.000
G1 F1680
G1 X116.535 Y103.956 E0.00041
G1 X116.520 Y103.992 F7200.000
G1 F1680
G1 X116.413 Y104.276 E0.00033
G1 X116.348 Y104.531 F7200.000
G1 F1680
G1 X116.285 Y104.907 E0.00025
G1 X116.305 Y104.908 F7200.000
G1 F1680
G1 X116.343 Y104.530 E0.00041
G1 X116.305 Y105.093 F7200.000
G1 F1680
G1 X116.335 Y105.395 E0.00033
G1 X116.341 Y105.440 F7200.000
G1 F1680
G1 X116.435 Y105.793 E0.00040
G1 X116.453 Y105.846 F7200.000
G1 F1680
G1 X116.595 Y106.161 E0.00030
G1 X116.660 Y106.276 F7200.000
G1 F1680
G1 X116.976 Y106.688 E0.00038
G1 X117.070 Y106.780 F7200.000
G1 F1680
G1 X117.464 Y107.084 E0.00078
G1 X117.595 Y107.157 F7200.000
G1 F1680
G1 X118.037 Y107.341 E0.00072
G1 X118.198 Y107.384 F7200.000
G1 F1680
G1 X118.665 Y107.445 E0.00066
G1 X118.834 Y107.445 F7200.000
G1 F1680
G1 X119.305 Y107.383 E0.00059
G1 X119.458 Y107.343 F7200.000
G1 F1680
G1 X119.909 Y107.155 E0.00051
G1 X120.021 Y107.093 F7200.000
G1 F1680
G1 X120.304 Y106.889 E0.00036
G1 X120.350 Y106.852 F7200.000
G1 F1680
G1 X120.604 Y106.597 E0.00033
G1 X120.641 Y106.552 F7200.000
G1 F1680
G1 X120.839 Y106.278 E0.00036
G1 X120.908 Y106.154 F7200.000
G1 F1680
G1 X121.050 Y105.838 E0.00028
G1 F5760
G1 X120.908 Y106.154 E-0.11985
G1 E-0.68015 F2100.00000
G1 X118.854 Y114.842 F7200.000
G1 E0.80000 F2100.00000
G1 F840
G1 X118.739 Y115.271 E0.01394
G1 X118.565 Y115.271 E0.00545
G1 X118.170 Y115.336 E0.01255
G1 X117.796 Y115.478 E0.01255
G1 X117.476 Y115.662 E0.01157
G1 X117.166 Y115.916 E0.01255
G1 X116.913 Y116.226 E0.01255
G1 X116.728 Y116.545 E0.01157
G1 X116.590 Y116.910 E0.01223
G1 X116.548 Y117.120 E0.00672
G1 X116.510 Y117.499 E0.01195
G1 X116.550 Y117.898 E0.01255
G1 X116.646 Y118.254 E0.01157
G1 X116.814 Y118.628 E0.01284
G1 X117.165 Y119.085 E0.01807
G1 X117.629 Y119.441 E0.01835
G1 X118.170 Y119.665 E0.01835
G1 X118.750 Y119.742 E0.01835
G1 X119.330 Y119.665 E0.01835
G1 X119.863 Y119.445 E0.01807
G1 X120.195 Y119.205 E0.01284
G1 X120.456 Y118.944 E0.01157
G1 X120.690 Y118.619 E0.01255
G1 X120.854 Y118.254 E0.01255
G1 X120.899 Y118.087 E0.00545
G1 X121.344 Y118.087 E0.01394
G1 X121.234 Y118.458 E0.01216
G1 X121.016 Y118.897 E0.01536
G1 X120.722 Y119.289 E0.01536
G1 X120.360 Y119.619 E0.01536
G1 X120.159 Y119.759 E0.00769
G1 X119.721 Y119.978 E0.01536
G1 X119.250 Y120.114 E0.01536
G1 X118.763 Y120.162 E0.01536
G1 X118.275 Y120.119 E0.01536
G1 X117.803 Y119.988 E0.01536
G1 X117.363 Y119.772 E0.01536
G1 X116.970 Y119.480 E0.01536
G1 X116.638 Y119.120 E0.01536
G1 X116.498 Y118.919 E0.00769
G1 X116.276 Y118.482 E0.01536
G1 X116.138 Y118.013 E0.01536
G1 X116.088 Y117.525 E0.01536
G1 X116.128 Y117.037 E0.01536
G1 X116.257 Y116.565 E0.01536
G1 X116.471 Y116.124 E0.01536
G1 X116.607 Y115.920 E0.00769
G1 X116.932 Y115.554 E0.01536
G1 X117.320 Y115.254 E0.01536
G1 X117.755 Y115.030 E0.01536
G1 X118.224 Y114.890 E0.01536
G1 X118.465 Y114.853 E0.00763
G1 X118.794 Y114.840 E0.01034
G1 X119.263 Y114.503 F7200.000
G1 F840
G1 X119.331 Y114.518 E0.00219
G1 X119.023 Y115.668 E0.03732
