; generated by Slic3r 1.33.8-prusa3d-win64 on 2017-03-11 at 00:26:58

; external perimeters extrusion width = 0.45mm
; perimeters extrusion width = 0.45mm
; infill extrusion width = 0.45mm
; solid infill extrusion width = 0.45mm
; top infill extrusion width = 0.40mm

M107
M115 U3.0.10 ; tell printer latest fw version
M83  ; extruder relative mode
M104 S215 ; set extruder temp
M140 S55 ; set bed temp
M190 S55 ; wait for bed temp
M109 S215 ; wait for extruder temp
G28 W ; home all without mesh bed level
G80 ; mesh bed leveling
G1 Y-3.0 F1000.0 ; go outside pritn area
G1 X60.0 E9.0  F1000.0 ; intro line
G1 X100.0 E12.5  F1000.0 ; intro line
G21 ; set units to millimeters
G90 ; use absolute coordinates
M83 ; use relative distances for extrusion
G1 E-0.80000 F2100.00000
G1 Z0.200 F7200.000
G1 X115.535 Y74.247 F7200.000
G1 E0.80000 F2100.00000
M204 S1000
G1 F2057.216
G1 X115.736 Y73.902 E0.01253
G1 X115.992 Y73.595 E0.01253
G1 X116.439 Y73.169 E0.01938
G1 X116.647 Y73.022 E0.00800
G1 X116.870 Y72.897 E0.00800
G1 X117.437 Y72.671 E0.01914
G1 X120.744 Y71.508 E0.10991
G1 X121.045 Y71.428 E0.00979
G1 X121.351 Y71.388 E0.00967
G1 X121.682 Y71.391 E0.01038
G1 X125.837 Y71.735 E0.13071
G1 X126.089 Y71.771 E0.00800
G1 X126.340 Y71.835 E0.00812
G1 X126.614 Y71.940 E0.00919
G1 X126.876 Y72.080 E0.00931
G1 X127.115 Y72.250 E0.00919
G1 X127.332 Y72.447 E0.00919
G1 X127.522 Y72.669 E0.00919
G1 X127.686 Y72.917 E0.00931
G1 X127.816 Y73.180 E0.00919
G1 X127.914 Y73.460 E0.00931
G1 X134.647 Y104.854 E1.00672
G1 X134.692 Y105.155 E0.00955
G1 X135.409 Y134.824 E0.93052
G1 X135.361 Y135.209 E0.01217
G1 X135.249 Y135.585 E0.01229
G1 X134.981 Y136.170 E0.02019
G1 X134.743 Y136.533 E0.01360
G1 X134.423 Y136.863 E0.01443
G1 X133.958 Y137.200 E0.01800
G1 X133.628 Y137.383 E0.01181
G1 X133.268 Y137.513 E0.01201
G1 X132.944 Y137.580 E0.01038
G1 X132.600 Y137.603 E0.01081
G1 X127.591 Y137.574 E0.15706
G1 X127.204 Y137.536 E0.01217
G1 X126.700 Y137.413 E0.01627
G1 X126.452 Y137.328 E0.00824
G1 X126.210 Y137.215 E0.00836
G1 X120.060 Y133.829 E0.22013
G1 X119.768 Y133.609 E0.01145
G1 X119.405 Y133.253 E0.01596
G1 X119.223 Y133.043 E0.00871
G1 X119.064 Y132.810 E0.00883
G1 X115.668 Y126.635 E0.22097
G1 X115.556 Y126.397 E0.00824
G1 X115.471 Y126.149 E0.00824
G1 X115.377 Y125.665 E0.01544
G1 X115.349 Y125.374 E0.00919
G1 X113.957 Y79.047 E1.45319
G1 X114.000 Y78.492 E0.01745
G1 X114.094 Y78.088 E0.01300
G1 X115.509 Y74.302 E0.12675
G1 F5760
G1 X115.736 Y73.902 E-0.15906
G1 F5760
G1 X115.992 Y73.595 E-0.13836
G1 F5760
G1 X116.439 Y73.169 E-0.21408
G1 F5760
G1 X116.647 Y73.022 E-0.08835
G1 F5760
G1 X116.870 Y72.897 E-0.08835
G1 F5760
G1 X117.062 Y72.820 E-0.07181
G1 E-0.04000 F2100.00000
G1 X132.653 Y134.268 F7200.000
G1 E0.80000 F2100.00000
G1 F900.000
G1 X132.761 Y134.324 E0.00382
G1 X132.817 Y134.692 E0.01167
G1 X132.718 Y134.910 E0.00752
G1 X132.645 Y134.959 E0.00276
G1 X132.695 Y134.793 E0.00544
G1 X132.711 Y134.571 E0.00696
G1 X132.672 Y134.325 E0.00781
G1 X132.737 Y134.357 F7200.000
G1 F5760
G1 X132.761 Y134.324 E-0.03092
G1 F5760
G1 X132.817 Y134.692 E-0.12889
G1 F5760
G1 X132.718 Y134.910 E-0.08303
G1 F5760
G1 X132.645 Y134.959 E-0.03044
G1 F5760
G1 X132.695 Y134.793 E-0.06013
G1 F5760
G1 X132.711 Y134.571 E-0.07693
G1 F5760
G1 X132.672 Y134.325 E-0.08627
G1 E-0.30339 F2100.00000
G1 X130.168 Y134.574 F7200.000
G1 E0.80000 F2100.00000
G1 F900.000
G1 X130.166 Y134.631 E0.00178
G1 X127.663 Y134.600 E0.07847
G1 X130.108 Y134.575 E0.07667
G1 F5760
G1 X130.166 Y134.631 E-0.02782
G1 F5760
G1 X128.052 Y134.605 E-0.73218
G1 E-0.04000 F2100.00000
G1 X127.598 Y134.584 F7200.000
G1 E0.80000 F2100.00000
G1 F900.000
G1 X121.668 Y131.325 E0.21216
G1 X127.546 Y134.555 E0.21027
G1 F5760
G1 X125.623 Y133.498 E-0.76000
G1 E-0.04000 F2100.00000
G1 X122.035 Y106.518 F7200.000
G1 E0.80000 F2100.00000
G1 F900.000
G1 X121.963 Y106.316 E0.00670
G1 X131.358 Y106.316 E0.29459
G1 X131.358 Y106.888 E0.01792
G1 X121.968 Y106.888 E0.29442
G1 X122.024 Y106.577 E0.00992
G1 X121.522 Y107.265 F7200.000
G1 F1645.773
G1 X118.331 Y125.304 E0.57437
G1 X121.606 Y131.262 E0.21316
G1 X118.321 Y125.299 E0.21346
G1 X119.258 Y119.917 E0.17129
G1 X121.646 Y106.550 E0.42574
G1 X121.565 Y106.323 E0.00756
G1 X121.499 Y105.939 E0.01220
G1 X131.736 Y105.939 E0.32097
G1 X131.736 Y107.265 E0.04157
G1 X121.582 Y107.265 E0.31835
G1 F5760
G1 X121.193 Y109.425 E-0.76000
G1 E-0.04000 F2100.00000
G1 X121.416 Y105.455 F7200.000
G1 E0.80000 F2100.00000
G1 F900.000
G1 X120.863 Y102.241 E0.10224
G1 X121.425 Y105.301 E0.09756
G1 X121.419 Y105.395 E0.00294
G1 F5760
G1 X121.038 Y103.234 E-0.76000
G1 E-0.04000 F2100.00000
G1 X117.908 Y77.418 F7200.000
G1 E0.80000 F2100.00000
G1 F900.000
G1 X118.494 Y75.848 E0.05254
G1 X120.920 Y74.982 E0.08077
G1 X120.950 Y75.066 E0.00283
G1 X123.297 Y75.066 E0.07358
G1 X117.963 Y77.394 E0.18248
G1 F5760
G1 X118.494 Y75.848 E-0.56608
G1 F5760
G1 X119.021 Y75.660 E-0.19392
G1 E-0.04000 F2100.00000
G1 X121.214 Y74.689 F7200.000
G1 E0.80000 F2100.00000
G1 F900.000
G1 X125.038 Y74.689 E0.11990
G1 X125.038 Y74.718 E0.00090
G1 X117.244 Y78.119 E0.26665
G1 X118.187 Y75.592 E0.08460
G1 X118.240 Y75.539 E0.00235
G1 X121.146 Y74.501 E0.09674
G1 X121.194 Y74.633 E0.00441
G1 X121.479 Y74.312 F7200.000
G1 F1234.330
G1 X125.416 Y74.312 E0.12344
G1 X125.416 Y74.965 E0.02046
G1 X117.122 Y78.584 E0.28373
G1 X116.975 Y78.992 E0.01358
G1 X121.805 Y105.279 E0.83801
G1 X121.786 Y105.562 E0.00890
G1 X132.113 Y105.562 E0.32377
G1 X132.113 Y107.642 E0.06522
G1 X121.839 Y107.642 E0.32214
G1 X118.725 Y125.239 E0.56029
G1 X121.906 Y131.025 E0.20701
G1 X127.724 Y134.223 E0.20818
G1 X130.622 Y134.192 E0.09087
G1 X130.552 Y134.436 E0.00797
G1 X130.541 Y134.670 E0.00734
G1 X130.581 Y134.899 E0.00727
G1 X130.624 Y135.012 E0.00380
G1 X127.653 Y134.987 E0.09317
G1 X127.417 Y134.926 E0.00763
G1 X121.467 Y131.656 E0.21290
G1 X121.274 Y131.464 E0.00853
G1 X117.961 Y125.437 E0.21562
G1 X117.938 Y125.297 E0.00445
G1 X118.887 Y119.851 E0.17332
G1 X121.257 Y106.582 E0.42262
G1 X121.199 Y106.419 E0.00544
G1 X118.795 Y92.433 E0.44495
G1 X116.545 Y79.040 E0.42582
G1 X116.560 Y78.875 E0.00519
G1 X117.863 Y75.383 E0.11685
G1 X118.034 Y75.212 E0.00758
G1 X121.374 Y74.025 E0.11115
G1 X121.458 Y74.256 E0.00769
G1 X121.707 Y74.640 F7200.000
G1 F5760
G1 X123.652 Y74.287 E-0.76000
G1 E-0.04000 F2100.00000
G1 X121.961 Y75.526 F7200.000
G1 E0.80000 F2100.00000
G1 F1645.773
G1 X121.783 Y75.349 E0.00786
G1 X121.250 Y75.349 E0.01674
G1 X121.460 Y75.560 E0.00933
G1 X121.089 Y75.722 E0.01272
G1 X120.720 Y75.353 E0.01635
G1 X120.327 Y75.494 E0.01310
G1 X120.717 Y75.884 E0.01731
G1 X120.346 Y76.046 E0.01272
G1 X119.934 Y75.634 E0.01827
G1 X119.541 Y75.775 E0.01310
G1 X119.974 Y76.208 E0.01923
G1 X119.603 Y76.370 E0.01272
G1 X119.148 Y75.915 E0.02019
G1 X118.754 Y76.056 E0.01310
G1 X119.231 Y76.532 E0.02115
G1 X118.860 Y76.694 E0.01272
G1 X118.583 Y76.418 E0.01227
G1 X118.438 Y76.807 E0.01301
G1 X118.617 Y76.985 E0.00794
G1 F5760
G1 X118.438 Y76.807 E-0.08760
G1 F5760
G1 X118.583 Y76.418 E-0.14366
G1 F5760
G1 X118.860 Y76.694 E-0.13541
G1 F5760
G1 X119.231 Y76.532 E-0.14039
G1 F5760
G1 X118.754 Y76.056 E-0.23349
G1 F5760
G1 X118.807 Y76.037 E-0.01945
G1 E-0.04000 F2100.00000
G1 X116.859 Y78.684 F7200.000
G1 E0.80000 F2100.00000
G1 F1645.773
G1 X116.764 Y78.957 E0.00024
G1 X116.761 Y78.990 F7200.000
G1 F1645.773
G1 X116.763 Y79.031 E0.00004
G1 F1645.773
G1 X117.702 Y84.370 E0.04268
G1 F1645.773
G1 X118.640 Y89.710 E0.08006
G1 F1645.773
G1 X119.683 Y95.605 E0.12743
G1 F1645.773
G1 X120.830 Y102.055 E0.17970
G1 F5760
G1 X120.446 Y99.895 E-0.76000
G1 E-0.04000 F2100.00000
G1 X121.267 Y105.701 F7200.000
G1 E0.80000 F2100.00000
G1 F1645.773
G1 X121.589 Y105.693 E0.00189
G1 F5760
G1 X121.267 Y105.701 E-0.11178
G1 E-0.68822 F2100.00000
G1 X122.211 Y106.602 F7200.000
G1 E0.80000 F2100.00000
G1 F1645.773
G1 X131.170 Y106.602 E0.11300
M106 S255
M104 S205 ; set temperature
G1 F5760
G1 X128.976 Y106.602 E-0.76000
G1 E-0.04000 F2100.00000
G1 Z0.400 F7200.000
G1 X132.710 Y134.795 F7200.000
G1 E0.80000 F2100.00000
M204 S800
G1 F900.000
G1 X132.726 Y134.571 E0.00762
G1 X132.700 Y134.361 E0.00716
G1 X132.625 Y134.139 E0.00791
G1 X132.505 Y133.940 E0.00788
G1 X132.377 Y133.803 E0.00635
G1 X132.598 Y133.803 E0.00749
G1 X132.780 Y133.847 E0.00633
G1 X132.938 Y133.980 E0.00698
G1 X133.080 Y134.330 E0.01280
G1 X133.108 Y134.691 E0.01225
G1 X133.016 Y135.072 E0.01326
G1 X132.945 Y135.199 E0.00493
G1 X132.767 Y135.371 E0.00840
G1 X132.594 Y135.424 E0.00613
G1 X132.358 Y135.420 E0.00799
G1 X132.507 Y135.263 E0.00733
G1 X132.636 Y135.042 E0.00868
G1 X132.693 Y134.853 E0.00667
M204 S1000
G1 X132.922 Y134.720 F7200.000
G1 F5760
G1 X132.726 Y134.571 E-0.09840
G1 F5760
G1 X132.700 Y134.361 E-0.07326
G1 F5760
G1 X132.625 Y134.139 E-0.08096
G1 F5760
G1 X132.505 Y133.940 E-0.08067
G1 F5760
G1 X132.377 Y133.803 E-0.06493
G1 F5760
G1 X132.598 Y133.803 E-0.07660
G1 F5760
G1 X132.780 Y133.847 E-0.06476
G1 F5760
G1 X132.938 Y133.980 E-0.07147
G1 F5760
G1 X133.080 Y134.330 E-0.13100
G1 F5760
G1 X133.084 Y134.382 E-0.01796
G1 E-0.04000 F2100.00000
G1 X131.789 Y106.813 F7200.000
G1 E0.80000 F2100.00000
M204 S800
G1 F900.000
G1 X121.597 Y106.813 E0.34498
G1 X121.635 Y106.601 E0.00729
G1 X121.596 Y106.374 E0.00779
G1 X121.600 Y106.391 E0.00060
G1 X131.789 Y106.391 E0.34489
G1 X131.789 Y106.753 E0.01224
M204 S1000
G1 F5760
G1 X129.594 Y106.766 E-0.76000
G1 E-0.04000 F2100.00000
G1 X120.898 Y75.141 F7200.000
G1 E0.80000 F2100.00000
M204 S800
G1 F900.000
G1 X122.938 Y75.141 E0.06905
G1 X117.689 Y77.432 E0.19386
G1 X118.328 Y75.755 E0.06075
G1 X118.395 Y75.689 E0.00320
G1 X120.794 Y74.857 E0.08595
G1 X120.877 Y75.085 E0.00821
M204 S1000
G1 X121.183 Y74.734 F7200.000
M204 S800
G1 F1367.988
G1 X124.888 Y74.734 E0.12542
G1 X117.144 Y78.114 E0.28600
G1 X116.844 Y78.979 E0.03099
G1 X121.937 Y105.984 E0.93021
G1 X132.196 Y105.984 E0.34725
G1 X132.196 Y107.220 E0.04183
G1 X121.922 Y107.220 E0.34775
G1 X118.745 Y125.236 E0.61921
G1 X121.919 Y131.011 E0.22307
G1 X127.728 Y134.203 E0.22434
G1 X130.177 Y134.207 E0.08290
G1 X130.132 Y134.372 E0.00579
G1 X130.118 Y134.697 E0.01102
G1 X130.167 Y134.983 E0.00983
G1 X127.702 Y135.011 E0.08345
G1 X127.358 Y134.923 E0.01201
G1 X121.507 Y131.707 E0.22600
G1 X121.223 Y131.423 E0.01358
G1 X118.007 Y125.555 E0.22651
G1 X117.942 Y125.131 E0.01451
G1 X121.221 Y106.599 E0.63703
G1 X119.982 Y99.259 E0.25196
G1 X116.686 Y79.074 E0.69229
G1 X116.704 Y78.872 E0.00687
G1 X117.979 Y75.529 E0.12112
G1 X118.173 Y75.335 E0.00931
G1 X121.040 Y74.341 E0.10269
G1 X121.162 Y74.678 E0.01213
M204 S1000
G1 X121.468 Y74.327 F7200.000
M204 S800
G1 F1025.991
G1 X125.401 Y74.327 E0.13311
G1 X125.401 Y74.955 E0.02125
G1 X117.471 Y78.416 E0.29287
G1 X117.265 Y79.010 E0.02129
G1 X122.275 Y105.577 E0.91512
G1 X132.603 Y105.577 E0.34960
G1 X132.603 Y107.627 E0.06939
G1 X122.264 Y107.627 E0.34997
G1 X119.171 Y125.165 E0.60279
G1 X122.219 Y130.711 E0.21421
G1 X127.832 Y133.796 E0.21681
G1 X130.874 Y133.800 E0.10297
G1 X130.705 Y133.998 E0.00881
G1 X130.598 Y134.206 E0.00792
G1 X130.537 Y134.434 E0.00799
G1 X130.526 Y134.671 E0.00803
G1 X130.566 Y134.903 E0.00795
G1 X130.639 Y135.091 E0.00682
G1 X130.743 Y135.260 E0.00672
G1 X130.864 Y135.394 E0.00614
G1 X127.653 Y135.419 E0.10870
G1 X127.207 Y135.304 E0.01557
G1 X121.260 Y132.036 E0.22970
G1 X120.894 Y131.670 E0.01751
G1 X117.616 Y125.688 E0.23092
G1 X117.530 Y125.126 E0.01922
G1 X120.808 Y106.598 E0.63692
G1 X119.580 Y99.326 E0.24962
G1 X116.276 Y79.090 E0.69405
G1 X116.303 Y78.780 E0.01052
G1 X117.630 Y75.303 E0.12598
G1 X117.952 Y74.981 E0.01542
G1 X121.285 Y73.825 E0.11942
G1 X121.448 Y74.271 E0.01605
M204 S1000
G1 X121.689 Y74.661 F7200.000
G1 F5760
G1 X123.642 Y74.302 E-0.76000
G1 E-0.04000 F2100.00000
G1 X119.821 Y75.324 F7200.000
G1 E0.80000 F2100.00000
M204 S2000
G1 F1367.988
G1 X118.322 Y76.823 E0.07754
G1 X119.425 Y76.341 E0.04405
G1 X120.476 Y75.291 E0.05434
G1 X120.610 Y75.244 E0.00520
G1 X120.684 Y75.447 E0.00789
G1 X120.942 Y75.447 E0.00943
G1 X120.174 Y76.214 E0.03969
M204 S1000
G1 F5760
G1 X120.942 Y75.447 E-0.37588
G1 F5760
G1 X120.684 Y75.447 E-0.08926
G1 F5760
G1 X120.610 Y75.244 E-0.07473
G1 F5760
G1 X120.476 Y75.291 E-0.04927
G1 F5760
G1 X120.127 Y75.639 E-0.17086
G1 E-0.04000 F2100.00000
G1 X125.158 Y74.839 F7200.000
G1 E0.80000 F2100.00000
G1 F1367.988
G1 X125.126 Y74.531 E0.00220
G1 F5760
G1 X125.158 Y74.839 E-0.10723
G1 E-0.69277 F2100.00000
G1 X118.798 Y90.582 F7200.000
G1 E0.80000 F2100.00000
G1 F1367.988
G1 X119.405 Y94.031 E0.02815
G1 F1367.988
G1 X120.012 Y97.480 E0.05307
G1 F1367.988
G1 X120.730 Y101.527 E0.09190
G1 F1367.988
G1 X121.560 Y106.174 E0.13990
G1 X121.553 Y107.017 F7200.000
G1 F1367.988
G1 X118.352 Y125.136 E0.54829
G1 X118.370 Y125.360 E0.00669
G1 X121.550 Y131.178 E0.19759
G1 X121.679 Y131.325 E0.00582
G1 X121.752 Y131.380 E0.00273
G1 X127.508 Y134.544 E0.19572
G1 X127.751 Y134.607 E0.00746
G1 X129.919 Y134.596 E0.06460
G1 F5760
G1 X127.751 Y134.607 E-0.75089
G1 F5760
G1 X127.725 Y134.600 E-0.00911
G1 E-0.04000 F2100.00000
G1 Z0.600 F7200.000
G1 X121.861 Y106.391 F7200.000
G1 E0.80000 F2100.00000
M204 S800
G1 F1632.518
G1 X132.092 Y106.391 E0.34633
G1 X132.092 Y106.813 E0.01427
G1 X121.866 Y106.813 E0.34614
G1 X118.614 Y125.257 E0.63395
G1 X121.827 Y131.103 E0.22580
G1 X127.696 Y134.329 E0.22669
G1 X129.727 Y134.329 E0.06875
G1 X129.709 Y134.722 E0.01335
G1 X129.734 Y134.864 E0.00487
G1 X127.757 Y134.865 E0.06692
G1 X127.384 Y134.770 E0.01303
G1 X121.628 Y131.607 E0.22230
G1 X121.324 Y131.302 E0.01459
G1 X118.140 Y125.509 E0.22375
G1 X118.083 Y125.346 E0.00581
G1 X118.084 Y125.172 E0.00591
G1 X121.355 Y106.600 E0.63832
G1 X119.319 Y94.117 E0.42809
G1 X118.394 Y88.269 E0.20041
G1 X120.571 Y99.555 E0.38905
G1 X121.849 Y106.332 E0.23346
M204 S1000
G1 F5760
G1 X124.044 Y106.345 E-0.76000
G1 E-0.04000 F2100.00000
G1 X120.898 Y75.141 F7200.000
G1 E0.80000 F2100.00000
M204 S800
G1 F900.000
G1 X122.938 Y75.141 E0.06905
G1 X117.500 Y77.514 E0.20082
G1 X118.202 Y75.713 E0.06544
G1 X118.347 Y75.567 E0.00698
G1 X120.755 Y74.750 E0.08607
G1 X120.877 Y75.085 E0.01208
M204 S1000
G1 X121.183 Y74.734 F7200.000
M204 S800
G1 F1632.518
G1 X124.888 Y74.734 E0.12542
G1 X117.328 Y78.034 E0.27923
G1 X117.002 Y78.989 E0.03415
G1 X119.338 Y90.993 E0.41394
G1 X120.971 Y99.479 E0.29250
G1 X122.198 Y105.984 E0.22409
G1 X132.499 Y105.984 E0.34869
G1 X132.499 Y107.220 E0.04183
G1 X122.208 Y107.220 E0.34836
G1 X119.039 Y125.187 E0.61753
G1 X122.127 Y130.804 E0.21695
G1 X127.800 Y133.922 E0.21914
G1 X130.287 Y133.921 E0.08416
G1 X130.216 Y134.059 E0.00523
G1 X130.132 Y134.372 E0.01096
G1 X130.118 Y134.697 E0.01102
G1 X130.172 Y135.012 E0.01081
G1 X130.272 Y135.271 E0.00942
G1 X127.705 Y135.273 E0.08689
G1 X127.233 Y135.151 E0.01651
G1 X121.382 Y131.935 E0.22600
G1 X120.995 Y131.549 E0.01852
G1 X117.766 Y125.674 E0.22689
G1 X117.676 Y125.376 E0.01056
G1 X117.677 Y125.135 E0.00815
G1 X120.942 Y106.597 E0.63715
G1 X118.918 Y94.182 E0.42579
G1 X116.530 Y79.103 E0.51675
G1 X116.555 Y78.820 E0.00962
G1 X117.853 Y75.485 E0.12113
G1 X118.127 Y75.212 E0.01309
G1 X121.002 Y74.236 E0.10276
G1 X121.162 Y74.678 E0.01591
M204 S1000
G1 X121.468 Y74.327 F7200.000
M204 S800
G1 F1224.388
G1 X125.401 Y74.327 E0.13311
G1 X125.401 Y74.955 E0.02125
G1 X117.655 Y78.335 E0.28606
G1 X117.422 Y79.018 E0.02440
G1 X119.738 Y90.915 E0.41029
G1 X121.371 Y99.402 E0.29254
G1 X122.536 Y105.577 E0.21270
G1 X132.906 Y105.577 E0.35104
G1 X132.906 Y107.627 E0.06939
G1 X122.549 Y107.627 E0.35057
G1 X119.465 Y125.116 E0.60112
G1 X122.426 Y130.504 E0.20809
G1 X127.905 Y133.515 E0.21160
G1 X131.462 Y133.514 E0.12041
G1 X131.242 Y133.570 E0.00768
G1 X131.033 Y133.674 E0.00790
G1 X130.852 Y133.818 E0.00785
G1 X130.705 Y133.998 E0.00786
G1 X130.598 Y134.206 E0.00792
G1 X130.537 Y134.434 E0.00799
G1 X130.526 Y134.671 E0.00803
G1 X130.566 Y134.903 E0.00795
G1 X130.639 Y135.091 E0.00682
G1 X130.743 Y135.260 E0.00672
G1 X130.880 Y135.413 E0.00696
G1 X131.045 Y135.537 E0.00699
G1 X131.231 Y135.630 E0.00704
G1 X131.402 Y135.678 E0.00601
