; generated by Slic3r 1.33.8-prusa3d-win64 on 2017-03-11 at 00:27:38

; external perimeters extrusion width = 0.45mm
; perimeters extrusion width = 0.45mm
; infill extrusion width = 0.45mm
; solid infill extrusion width = 0.45mm
; top infill extrusion width = 0.40mm

M107
M115 U3.0.10 ; tell printer latest fw version
M83  ; extruder relative mode
M104 S215 ; set extruder temp
M140 S55 ; set bed temp
M190 S55 ; wait for bed temp
M109 S215 ; wait for extruder temp
G28 W ; home all without mesh bed level
G80 ; mesh bed leveling
G1 Y-3.0 F1000.0 ; go outside pritn area
G1 X60.0 E9.0  F1000.0 ; intro line
G1 X100.0 E12.5  F1000.0 ; intro line
G21 ; set units to millimeters
G90 ; use absolute coordinates
M83 ; use relative distances for extrusion
G1 E-0.80000 F2100.00000
G1 Z0.200 F7200.000
G1 X122.100 Y73.412 F7200.000
G1 E0.80000 F2100.00000
M204 S1000
G1 F2084.682
G1 X122.210 Y73.120 E0.00979
G1 X122.359 Y72.842 E0.00991
G1 X122.541 Y72.589 E0.00979
G1 X122.758 Y72.359 E0.00991
G1 X123.001 Y72.162 E0.00979
G1 X123.270 Y71.997 E0.00991
G1 X123.559 Y71.869 E0.00991
G1 X123.862 Y71.781 E0.00991
G1 X124.171 Y71.734 E0.00979
G1 X128.470 Y71.384 E0.13524
G1 X128.755 Y71.398 E0.00895
G1 X129.040 Y71.446 E0.00907
G1 X129.847 Y71.708 E0.02660
G1 X132.565 Y72.672 E0.09041
G1 X133.075 Y72.871 E0.01718
G1 X133.324 Y73.004 E0.00883
G1 X133.555 Y73.165 E0.00883
G1 X134.057 Y73.646 E0.02182
G1 X134.319 Y73.983 E0.01336
G1 X134.517 Y74.364 E0.01348
G1 X135.877 Y78.006 E0.12189
G1 X135.958 Y78.272 E0.00871
G1 X136.012 Y78.591 E0.01014
G1 X136.042 Y79.115 E0.01646
G1 X134.645 Y125.478 E1.45434
G1 X134.542 Y126.100 E0.01977
G1 X134.464 Y126.347 E0.00812
G1 X134.361 Y126.580 E0.00800
G1 X130.971 Y132.749 E0.22071
G1 X130.817 Y132.990 E0.00895
G1 X130.638 Y133.207 E0.00883
G1 X130.270 Y133.575 E0.01631
G1 X130.018 Y133.777 E0.01014
G1 X129.811 Y133.906 E0.00764
G1 X123.796 Y137.212 E0.21521
G1 X123.572 Y137.319 E0.00776
G1 X123.339 Y137.401 E0.00776
G1 X122.824 Y137.531 E0.01665
G1 X122.450 Y137.573 E0.01181
G1 X119.554 Y137.602 E0.09080
G1 X117.194 Y137.595 E0.07401
G1 X116.737 Y137.515 E0.01455
G1 X116.289 Y137.343 E0.01502
G1 X116.068 Y137.216 E0.00800
G1 X115.716 Y136.972 E0.01343
G1 X115.393 Y136.689 E0.01348
G1 X115.223 Y136.489 E0.00824
G1 X115.074 Y136.268 E0.00836
G1 X114.787 Y135.673 E0.02069
G1 X114.654 Y135.276 E0.01312
G1 X114.592 Y134.859 E0.01324
G1 X115.307 Y105.173 E0.93105
G1 X115.353 Y104.856 E0.01002
G1 X122.083 Y73.470 E1.00647
G1 F5760
G1 X122.210 Y73.120 E-0.12883
G1 F5760
G1 X122.359 Y72.842 E-0.10942
G1 F5760
G1 X122.541 Y72.589 E-0.10810
G1 F5760
G1 X122.758 Y72.359 E-0.10942
G1 F5760
G1 X123.001 Y72.162 E-0.10810
G1 F5760
G1 X123.270 Y71.997 E-0.10942
G1 F5760
G1 X123.499 Y71.896 E-0.08671
G1 E-0.04000 F2100.00000
G1 X117.347 Y134.268 F7200.000
G1 E0.80000 F2100.00000
G1 F900.000
G1 X117.315 Y134.364 E0.00318
G1 X117.289 Y134.571 E0.00654
G1 X117.305 Y134.793 E0.00696
G1 X117.355 Y134.959 E0.00544
G1 X117.282 Y134.910 E0.00276
G1 X117.183 Y134.692 E0.00752
G1 X117.239 Y134.324 E0.01167
G1 X117.292 Y134.292 E0.00195
G1 X117.313 Y134.364 F7200.000
G1 F5760
G1 X117.315 Y134.364 E-0.02634
G1 F5760
G1 X117.289 Y134.571 E-0.07222
G1 F5760
G1 X117.305 Y134.793 E-0.07693
G1 F5760
G1 X117.355 Y134.959 E-0.06013
G1 F5760
G1 X117.282 Y134.910 E-0.03045
G1 F5760
G1 X117.183 Y134.692 E-0.08303
G1 F5760
G1 X117.239 Y134.324 E-0.12889
G1 F5760
G1 X117.292 Y134.292 E-0.02156
G1 E-0.30047 F2100.00000
G1 X119.832 Y134.574 F7200.000
G1 E0.80000 F2100.00000
G1 F900.000
G1 X122.337 Y134.600 E0.07855
G1 X119.837 Y134.631 E0.07837
G1 F5760
G1 X122.031 Y134.604 E-0.76000
G1 E-0.04000 F2100.00000
G1 X122.402 Y134.584 F7200.000
G1 E0.80000 F2100.00000
G1 F900.000
G1 X128.332 Y131.325 E0.21216
G1 X122.458 Y134.565 E0.21032
G1 F5760
G1 X124.380 Y133.505 E-0.76000
G1 E-0.04000 F2100.00000
G1 X127.965 Y106.518 F7200.000
G1 E0.80000 F2100.00000
G1 F900.000
G1 X128.032 Y106.888 E0.01180
G1 X118.642 Y106.888 E0.29442
G1 X118.642 Y106.316 E0.01792
G1 X128.037 Y106.316 E0.29459
G1 X127.986 Y106.461 E0.00482
G1 X128.354 Y106.550 F7200.000
G1 F1667.745
G1 X130.742 Y119.917 E0.42574
G1 X131.679 Y125.299 E0.17129
G1 X128.394 Y131.262 E0.21346
G1 X131.669 Y125.304 E0.21316
G1 X128.478 Y107.265 E0.57437
G1 X118.264 Y107.265 E0.32023
G1 X118.264 Y105.939 E0.04157
G1 X128.501 Y105.939 E0.32097
G1 X128.435 Y106.323 E0.01220
G1 X128.374 Y106.494 E0.00568
G1 F5760
G1 X128.756 Y108.654 E-0.76000
G1 E-0.04000 F2100.00000
G1 X128.584 Y105.455 F7200.000
G1 E0.80000 F2100.00000
G1 F900.000
G1 X128.575 Y105.301 E0.00483
G1 X129.137 Y102.241 E0.09756
G1 X128.595 Y105.396 E0.10036
G1 F5760
G1 X128.575 Y105.301 E-0.03344
G1 F5760
G1 X128.954 Y103.238 E-0.72656
G1 E-0.04000 F2100.00000
G1 X132.092 Y77.418 F7200.000
G1 E0.80000 F2100.00000
G1 F900.000
G1 X126.703 Y75.066 E0.18436
G1 X129.050 Y75.066 E0.07358
G1 X129.080 Y74.982 E0.00283
G1 X131.506 Y75.848 E0.08077
G1 X132.071 Y77.362 E0.05065
G1 F5760
G1 X130.053 Y76.499 E-0.76000
G1 E-0.04000 F2100.00000
G1 X128.786 Y74.689 F7200.000
G1 E0.80000 F2100.00000
G1 F900.000
G1 X128.854 Y74.501 E0.00629
G1 X131.760 Y75.539 E0.09674
G1 X131.813 Y75.592 E0.00235
G1 X132.756 Y78.119 E0.08460
G1 X124.962 Y74.718 E0.26665
G1 X124.962 Y74.689 E0.00090
G1 X128.726 Y74.689 E0.11802
G1 F5760
G1 X128.854 Y74.501 E-0.07908
G1 F5760
G1 X130.706 Y75.162 E-0.68092
G1 E-0.04000 F2100.00000
G1 X128.161 Y107.642 F7200.000
G1 E0.80000 F2100.00000
G1 F1250.809
G1 X117.887 Y107.642 E0.32214
G1 X117.887 Y105.562 E0.06522
G1 X128.214 Y105.562 E0.32377
G1 X128.195 Y105.279 E0.00890
G1 X133.025 Y78.992 E0.83801
G1 X132.878 Y78.584 E0.01358
G1 X124.584 Y74.965 E0.28373
G1 X124.584 Y74.312 E0.02046
G1 X128.521 Y74.312 E0.12344
G1 X128.626 Y74.025 E0.00957
G1 X131.966 Y75.212 E0.11115
G1 X132.137 Y75.383 E0.00758
G1 X133.440 Y78.875 E0.11685
G1 X133.455 Y79.040 E0.00519
G1 X131.205 Y92.433 E0.42582
G1 X128.801 Y106.419 E0.44495
G1 X128.743 Y106.582 E0.00544
G1 X131.113 Y119.851 E0.42262
G1 X132.062 Y125.297 E0.17332
G1 X132.039 Y125.437 E0.00445
G1 X128.726 Y131.464 E0.21562
G1 X128.533 Y131.656 E0.00853
G1 X122.583 Y134.926 E0.21290
G1 X122.347 Y134.987 E0.00763
G1 X119.376 Y135.012 E0.09317
G1 X119.419 Y134.899 E0.00380
G1 X119.459 Y134.670 E0.00727
G1 X119.448 Y134.436 E0.00734
G1 X119.378 Y134.192 E0.00797
G1 X122.276 Y134.223 E0.09087
G1 X128.094 Y131.025 E0.20818
G1 X131.275 Y125.239 E0.20701
G1 X128.172 Y107.701 E0.55841
G1 X128.162 Y107.242 F7200.000
G1 F5760
G1 X125.978 Y107.689 E-0.76000
G1 E-0.04000 F2100.00000
G1 X127.789 Y106.602 F7200.000
G1 E0.80000 F2100.00000
G1 F1667.745
G1 X118.830 Y106.602 E0.11300
G1 F5760
G1 X121.024 Y106.602 E-0.76000
G1 E-0.04000 F2100.00000
G1 X128.411 Y105.693 F7200.000
G1 E0.80000 F2100.00000
G1 F1667.745
G1 X128.733 Y105.701 E0.00188
G1 F5760
G1 X128.411 Y105.693 E-0.11178
G1 E-0.68822 F2100.00000
G1 X129.170 Y102.055 F7200.000
G1 E0.80000 F2100.00000
G1 F1667.745
G1 X129.743 Y98.830 E0.08985
G1 F1667.745
G1 X130.890 Y92.379 E0.13947
G1 F1667.745
G1 X131.829 Y87.040 E0.08007
G1 F1667.745
G1 X132.768 Y81.701 E0.04269
G1 F1667.745
G1 X133.239 Y78.990 E0.00269
G1 X133.236 Y78.957 F7200.000
G1 F1667.745
G1 X133.141 Y78.684 E0.00024
G1 F5760
G1 X133.236 Y78.957 E-0.10022
G1 E-0.69978 F2100.00000
G1 X131.890 Y77.200 F7200.000
G1 E0.80000 F2100.00000
G1 F1667.745
G1 X130.467 Y75.777 E0.06476
G1 X129.615 Y75.473 E0.02911
G1 X130.601 Y76.459 E0.04488
G1 X129.630 Y76.035 E0.03411
G1 X128.944 Y75.349 E0.03123
G1 X128.397 Y75.349 E0.01762
G1 X128.987 Y75.940 E0.02689
M106 S255
M104 S205 ; set temperature
G1 F5760
G1 X128.397 Y75.349 E-0.28936
G1 F5760
G1 X128.944 Y75.349 E-0.18959
G1 F5760
G1 X129.518 Y75.923 E-0.28104
G1 E-0.04000 F2100.00000
G1 Z0.400 F7200.000
G1 X117.290 Y134.795 F7200.000
G1 E0.80000 F2100.00000
M204 S800
G1 F900.000
G1 X117.364 Y135.042 E0.00870
G1 X117.493 Y135.263 E0.00868
G1 X117.642 Y135.420 E0.00733
G1 X117.406 Y135.424 E0.00799
G1 X117.233 Y135.371 E0.00613
G1 X117.055 Y135.199 E0.00840
G1 X116.984 Y135.072 E0.00493
G1 X116.892 Y134.691 E0.01326
G1 X116.920 Y134.330 E0.01225
G1 X117.062 Y133.980 E0.01280
G1 X117.220 Y133.847 E0.00698
G1 X117.402 Y133.803 E0.00633
G1 X117.623 Y133.803 E0.00749
G1 X117.495 Y133.940 E0.00635
G1 X117.375 Y134.139 E0.00788
G1 X117.300 Y134.361 E0.00791
G1 X117.274 Y134.571 E0.00716
G1 X117.286 Y134.735 E0.00559
M204 S1000
G1 X117.095 Y134.963 F7200.000
G1 F5760
G1 X117.364 Y135.042 E-0.10945
G1 F5760
G1 X117.493 Y135.263 E-0.08880
G1 F5760
G1 X117.642 Y135.420 E-0.07499
G1 F5760
G1 X117.406 Y135.424 E-0.08173
G1 F5760
G1 X117.233 Y135.371 E-0.06274
G1 F5760
G1 X117.055 Y135.199 E-0.08593
G1 F5760
G1 X116.984 Y135.072 E-0.05042
G1 F5760
G1 X116.892 Y134.691 E-0.13564
G1 F5760
G1 X116.907 Y134.489 E-0.07030
G1 E-0.04000 F2100.00000
G1 X118.211 Y106.813 F7200.000
G1 E0.80000 F2100.00000
M204 S800
G1 F900.000
G1 X118.211 Y106.391 E0.01427
G1 X128.400 Y106.391 E0.34489
G1 X128.404 Y106.374 E0.00060
G1 X128.365 Y106.601 E0.00779
G1 X128.403 Y106.813 E0.00729
G1 X118.271 Y106.813 E0.34295
M204 S1000
G1 F5760
G1 X118.211 Y106.391 E-0.14752
G1 F5760
G1 X119.980 Y106.391 E-0.61248
G1 E-0.04000 F2100.00000
G1 X129.102 Y75.141 F7200.000
G1 E0.80000 F2100.00000
M204 S800
G1 F900.000
G1 X129.206 Y74.857 E0.01024
G1 X131.605 Y75.689 E0.08595
G1 X131.672 Y75.755 E0.00320
G1 X132.311 Y77.432 E0.06075
G1 X127.062 Y75.141 E0.19386
G1 X129.042 Y75.141 E0.06702
M204 S1000
G1 F5760
G1 X129.206 Y74.857 E-0.11360
G1 F5760
G1 X130.969 Y75.468 E-0.64639
G1 E-0.04000 F2100.00000
G1 X128.078 Y107.220 F7200.000
G1 E0.80000 F2100.00000
M204 S800
G1 F1438.841
G1 X117.804 Y107.220 E0.34775
G1 X117.804 Y105.984 E0.04183
G1 X128.063 Y105.984 E0.34725
G1 X133.156 Y78.979 E0.93021
G1 X132.856 Y78.114 E0.03099
G1 X125.112 Y74.734 E0.28600
G1 X128.817 Y74.734 E0.12542
G1 X128.960 Y74.341 E0.01416
G1 X131.827 Y75.335 E0.10269
G1 X132.021 Y75.529 E0.00931
G1 X133.296 Y78.872 E0.12112
G1 X133.314 Y79.074 E0.00687
G1 X130.018 Y99.259 E0.69229
G1 X128.779 Y106.599 E0.25196
G1 X132.058 Y125.131 E0.63703
G1 X131.993 Y125.555 E0.01451
G1 X128.777 Y131.423 E0.22651
G1 X128.493 Y131.707 E0.01358
G1 X122.642 Y134.923 E0.22600
G1 X122.298 Y135.011 E0.01201
G1 X119.833 Y134.983 E0.08345
G1 X119.882 Y134.697 E0.00983
G1 X119.868 Y134.372 E0.01102
G1 X119.823 Y134.207 E0.00579
G1 X122.272 Y134.203 E0.08290
G1 X128.081 Y131.011 E0.22434
G1 X131.255 Y125.236 E0.22307
G1 X128.088 Y107.279 E0.61718
M204 S1000
G1 X127.736 Y107.627 F7200.000
M204 S800
G1 F1079.131
G1 X117.397 Y107.627 E0.34997
G1 X117.397 Y105.577 E0.06939
G1 X127.725 Y105.577 E0.34960
G1 X132.735 Y79.010 E0.91512
G1 X132.529 Y78.416 E0.02129
G1 X124.599 Y74.955 E0.29287
G1 X124.599 Y74.327 E0.02125
G1 X128.532 Y74.327 E0.13311
G1 X128.715 Y73.825 E0.01808
G1 X132.048 Y74.981 E0.11942
G1 X132.370 Y75.303 E0.01542
G1 X133.697 Y78.780 E0.12598
G1 X133.724 Y79.090 E0.01052
G1 X130.420 Y99.326 E0.69405
G1 X129.192 Y106.598 E0.24962
G1 X132.470 Y125.126 E0.63692
G1 X132.384 Y125.688 E0.01922
G1 X129.106 Y131.670 E0.23092
G1 X128.740 Y132.036 E0.01751
G1 X122.793 Y135.304 E0.22970
G1 X122.347 Y135.419 E0.01557
G1 X119.136 Y135.394 E0.10870
G1 X119.257 Y135.260 E0.00614
G1 X119.361 Y135.091 E0.00672
G1 X119.434 Y134.903 E0.00682
G1 X119.474 Y134.671 E0.00795
G1 X119.463 Y134.434 E0.00803
G1 X119.402 Y134.206 E0.00799
G1 X119.295 Y133.998 E0.00792
G1 X119.126 Y133.800 E0.00881
G1 X122.168 Y133.796 E0.10297
G1 X127.781 Y130.711 E0.21681
G1 X130.829 Y125.165 E0.21421
G1 X127.747 Y107.686 E0.60076
M204 S1000
G1 X127.736 Y107.227 F7200.000
G1 X128.447 Y107.017 F7200.000
G1 F1438.841
G1 X131.648 Y125.136 E0.54830
G1 X131.630 Y125.360 E0.00669
G1 X128.450 Y131.178 E0.19759
G1 X128.321 Y131.325 E0.00582
G1 X128.248 Y131.380 E0.00273
G1 X122.492 Y134.544 E0.19572
G1 X122.249 Y134.607 E0.00746
G1 X120.081 Y134.596 E0.06460
G1 F5760
G1 X122.249 Y134.607 E-0.75090
G1 F5760
G1 X122.275 Y134.600 E-0.00910
G1 E-0.04000 F2100.00000
G1 X128.440 Y106.174 F7200.000
G1 E0.80000 F2100.00000
G1 F1438.841
G1 X129.270 Y101.527 E0.12271
G1 F1438.841
G1 X129.988 Y97.480 E0.07693
G1 F1438.841
G1 X130.595 Y94.031 E0.04061
G1 F1438.841
G1 X131.202 Y90.582 E0.01569
G1 F5760
G1 X130.822 Y92.743 E-0.76000
G1 E-0.04000 F2100.00000
G1 X131.295 Y76.855 F7200.000
G1 E0.80000 F2100.00000
M204 S2000
G1 F1438.841
G1 X131.635 Y76.515 E0.01749
G1 X131.464 Y76.068 E0.01742
G1 X131.003 Y76.528 E0.02369
G1 X130.573 Y76.340 E0.01708
G1 X131.083 Y75.831 E0.02621
G1 X130.623 Y75.672 E0.01767
G1 X130.142 Y76.153 E0.02473
G1 X129.712 Y75.965 E0.01708
G1 X130.164 Y75.512 E0.02325
G1 X129.705 Y75.353 E0.01767
G1 X129.281 Y75.777 E0.02178
G1 X128.851 Y75.589 E0.01708
G1 X129.176 Y75.264 E0.01673
M204 S1000
G1 F5760
G1 X128.851 Y75.589 E-0.15938
G1 F5760
G1 X129.281 Y75.777 E-0.16268
G1 F5760
G1 X129.705 Y75.353 E-0.20746
G1 F5760
G1 X130.164 Y75.512 E-0.16833
G1 F5760
G1 X130.037 Y75.639 E-0.06215
G1 E-0.04000 F2100.00000
G1 X124.842 Y74.839 F7200.000
G1 E0.80000 F2100.00000
G1 F1438.841
G1 X124.874 Y74.531 E0.00220
G1 F5760
G1 X124.842 Y74.839 E-0.10723
G1 E-0.69277 F2100.00000
G1 Z0.600 F7200.000
G1 X128.134 Y106.813 F7200.000
G1 E0.80000 F2100.00000
M204 S800
G1 F1630.056
G1 X117.908 Y106.813 E0.34614
G1 X117.908 Y106.391 E0.01427
G1 X128.139 Y106.391 E0.34633
G1 X129.429 Y99.555 E0.23549
G1 X131.606 Y88.269 E0.38905
G1 X130.681 Y94.117 E0.20041
G1 X128.645 Y106.600 E0.42809
G1 X131.916 Y125.172 E0.63832
G1 X131.917 Y125.346 E0.00591
G1 X131.860 Y125.509 E0.00581
G1 X128.676 Y131.302 E0.22375
G1 X128.372 Y131.607 E0.01459
G1 X122.616 Y134.770 E0.22230
G1 X122.243 Y134.865 E0.01303
G1 X120.266 Y134.864 E0.06692
G1 X120.291 Y134.722 E0.00487
G1 X120.273 Y134.329 E0.01335
G1 X122.304 Y134.329 E0.06875
G1 X128.173 Y131.103 E0.22669
G1 X131.386 Y125.257 E0.22580
G1 X128.144 Y106.872 E0.63191
M204 S1000
G1 F5760
G1 X125.950 Y106.860 E-0.76000
G1 E-0.04000 F2100.00000
G1 X132.500 Y77.514 F7200.000
G1 E0.80000 F2100.00000
M204 S800
G1 F900.000
G1 X127.062 Y75.141 E0.20082
G1 X129.102 Y75.141 E0.06905
G1 X129.245 Y74.750 E0.01411
G1 X131.653 Y75.567 E0.08607
G1 X131.798 Y75.713 E0.00698
G1 X132.478 Y77.458 E0.06341
M204 S1000
G1 F5760
G1 X130.461 Y76.595 E-0.76000
G1 E-0.04000 F2100.00000
G1 X127.792 Y107.220 F7200.000
G1 E0.80000 F2100.00000
M204 S800
G1 F1630.056
G1 X117.501 Y107.220 E0.34836
G1 X117.501 Y105.984 E0.04183
G1 X127.802 Y105.984 E0.34869
G1 X129.029 Y99.479 E0.22409
G1 X130.662 Y90.993 E0.29250
G1 X132.998 Y78.989 E0.41394
G1 X132.672 Y78.034 E0.03415
G1 X125.112 Y74.734 E0.27923
G1 X128.817 Y74.734 E0.12542
G1 X128.998 Y74.236 E0.01794
G1 X131.873 Y75.212 E0.10276
G1 X132.147 Y75.485 E0.01309
G1 X133.445 Y78.820 E0.12113
G1 X133.470 Y79.103 E0.00962
G1 X131.082 Y94.182 E0.51675
G1 X129.058 Y106.597 E0.42579
G1 X132.323 Y125.135 E0.63715
G1 X132.324 Y125.376 E0.00815
G1 X132.234 Y125.674 E0.01056
G1 X129.005 Y131.549 E0.22689
G1 X128.618 Y131.935 E0.01852
G1 X122.767 Y135.151 E0.22600
G1 X122.295 Y135.273 E0.01651
G1 X119.728 Y135.271 E0.08689
G1 X119.828 Y135.012 E0.00942
G1 X119.882 Y134.697 E0.01081
G1 X119.868 Y134.372 E0.01102
G1 X119.784 Y134.059 E0.01096
G1 X119.713 Y133.921 E0.00523
G1 X122.200 Y133.922 E0.08416
G1 X127.873 Y130.804 E0.21914
G1 X130.961 Y125.187 E0.21695
G1 X127.803 Y107.279 E0.61550
M204 S1000
G1 X127.451 Y107.627 F7200.000
M204 S800
G1 F1222.542
G1 X117.094 Y107.627 E0.35057
G1 X117.094 Y105.577 E0.06939
G1 X127.464 Y105.577 E0.35104
G1 X128.629 Y99.402 E0.21270
G1 X130.262 Y90.915 E0.29254
G1 X132.578 Y79.018 E0.41029
G1 X132.345 Y78.335 E0.02440
G1 X124.599 Y74.955 E0.28606
G1 X124.599 Y74.327 E0.02125
G1 X128.532 Y74.327 E0.13311
G1 X128.751 Y73.725 E0.02170
G1 X132.094 Y74.857 E0.11946
G1 X132.495 Y75.258 E0.01920
G1 X133.845 Y78.727 E0.12600
G1 X133.880 Y79.118 E0.01328
G1 X131.484 Y94.246 E0.51847
G1 X129.471 Y106.594 E0.42349
G1 X132.730 Y125.099 E0.63598
G1 X132.732 Y125.408 E0.01048
G1 X132.708 Y125.548 E0.00478
G1 X132.607 Y125.840 E0.01048
G1 X129.334 Y131.795 E0.23002
G1 X128.865 Y132.264 E0.02244
G1 X122.918 Y135.533 E0.22970
