; generated by Slic3r 1.33.8-prusa3d-win64 on 2017-03-11 at 00:28:30

; external perimeters extrusion width = 0.45mm
; perimeters extrusion width = 0.45mm
; infill extrusion width = 0.45mm
; solid infill extrusion width = 0.45mm
; top infill extrusion width = 0.40mm

M107
M115 U3.0.10 ; tell printer latest fw version
M83  ; extruder relative mode
M104 S215 ; set extruder temp
M140 S55 ; set bed temp
M190 S55 ; wait for bed temp
M109 S215 ; wait for extruder temp
G28 W ; home all without mesh bed level
G80 ; mesh bed leveling
G1 Y-3.0 F1000.0 ; go outside pritn area
G1 X60.0 E9.0  F1000.0 ; intro line
G1 X100.0 E12.5  F1000.0 ; intro line
G21 ; set units to millimeters
G90 ; use absolute coordinates
M83 ; use relative distances for extrusion
G1 E-0.80000 F2100.00000
G1 Z0.200 F7200.000
G1 X121.811 Y97.502 F7200.000
G1 E0.80000 F2100.00000
M204 S1000
G1 F967.857
G1 X122.118 Y97.115 E0.01547
G1 X122.482 Y96.782 E0.01547
G1 X122.894 Y96.510 E0.01547
G1 X123.343 Y96.306 E0.01547
G1 X123.742 Y96.191 E0.01301
G1 X124.152 Y96.129 E0.01301
G1 X125.631 Y96.119 E0.04636
G1 X126.018 Y96.148 E0.01219
G1 X126.399 Y96.225 E0.01219
G1 X126.772 Y96.350 E0.01233
G1 X127.123 Y96.519 E0.01219
G1 X127.449 Y96.730 E0.01219
G1 X127.747 Y96.979 E0.01219
G1 X128.015 Y97.267 E0.01233
G1 X128.242 Y97.583 E0.01219
G1 X131.985 Y103.975 E0.23225
G1 X132.195 Y104.436 E0.01588
G1 X132.328 Y104.925 E0.01588
G1 X132.381 Y105.464 E0.01698
G1 X132.381 Y109.349 E0.12182
G1 X132.366 Y109.650 E0.00945
G1 X132.322 Y109.953 E0.00959
G1 X132.245 Y110.258 E0.00986
G1 X132.137 Y110.558 E0.01000
G1 X131.998 Y110.845 E0.01000
G1 X131.834 Y111.113 E0.00986
G1 X131.643 Y111.364 E0.00986
G1 X131.425 Y111.597 E0.01000
G1 X131.185 Y111.806 E0.01000
G1 X130.924 Y111.991 E0.01000
G1 X130.572 Y112.183 E0.01260
G1 X130.193 Y112.330 E0.01274
G1 X129.798 Y112.427 E0.01274
G1 X129.395 Y112.472 E0.01274
G1 X120.514 Y112.467 E0.27844
G1 X120.155 Y112.419 E0.01137
G1 X119.803 Y112.329 E0.01137
G1 X119.465 Y112.200 E0.01137
G1 X119.139 Y112.030 E0.01151
G1 X118.840 Y111.825 E0.01137
G1 X118.562 Y111.585 E0.01151
G1 X118.315 Y111.314 E0.01151
G1 X118.104 Y111.019 E0.01137
G1 X117.915 Y110.674 E0.01233
G1 X117.769 Y110.304 E0.01247
G1 X117.673 Y109.923 E0.01233
G1 X117.624 Y109.528 E0.01247
G1 X117.620 Y105.430 E0.12850
G1 X117.651 Y105.051 E0.01192
G1 X117.729 Y104.675 E0.01205
G1 X117.855 Y104.307 E0.01219
G1 X118.027 Y103.953 E0.01233
G1 X121.778 Y97.552 E0.23264
G1 X122.137 Y97.692 F7200.000
G1 F967.857
G1 X122.413 Y97.352 E0.01374
G1 X122.743 Y97.057 E0.01387
G1 X123.115 Y96.818 E0.01387
G1 X123.521 Y96.643 E0.01387
G1 X123.865 Y96.550 E0.01118
G1 X124.219 Y96.502 E0.01118
G1 X125.649 Y96.496 E0.04484
G1 X125.992 Y96.525 E0.01079
G1 X126.328 Y96.596 E0.01079
G1 X126.654 Y96.709 E0.01079
G1 X126.962 Y96.861 E0.01079
G1 X127.249 Y97.051 E0.01079
G1 X127.511 Y97.275 E0.01079
G1 X127.742 Y97.530 E0.01079
G1 X127.940 Y97.811 E0.01079
G1 X131.651 Y104.151 E0.23034
G1 X131.833 Y104.545 E0.01361
G1 X131.951 Y104.963 E0.01361
G1 X131.991 Y105.227 E0.00835
G1 X132.004 Y105.497 E0.00848
G1 X132.004 Y109.373 E0.12154
G1 X131.957 Y109.850 E0.01502
G1 X131.890 Y110.129 E0.00899
G1 X131.794 Y110.399 E0.00899
G1 X131.671 Y110.658 E0.00899
G1 X131.521 Y110.903 E0.00899
G1 X131.346 Y111.131 E0.00899
G1 X131.149 Y111.339 E0.00899
G1 X130.932 Y111.526 E0.00899
G1 X130.696 Y111.689 E0.00899
G1 X130.384 Y111.854 E0.01105
G1 X130.055 Y111.979 E0.01105
G1 X129.712 Y112.060 E0.01105
G1 X129.361 Y112.096 E0.01105
G1 X120.549 Y112.091 E0.27630
G1 X120.224 Y112.048 E0.01028
G1 X119.911 Y111.968 E0.01015
G1 X119.605 Y111.849 E0.01028
G1 X119.319 Y111.698 E0.01015
G1 X119.053 Y111.514 E0.01015
G1 X118.810 Y111.300 E0.01015
G1 X118.594 Y111.058 E0.01015
G1 X118.406 Y110.790 E0.01028
G1 X118.244 Y110.486 E0.01079
G1 X118.120 Y110.161 E0.01092
G1 X118.038 Y109.827 E0.01079
G1 X117.999 Y109.485 E0.01079
G1 X117.996 Y105.443 E0.12673
G1 X118.026 Y105.092 E0.01105
G1 X118.100 Y104.751 E0.01092
G1 X118.211 Y104.434 E0.01053
G1 X118.359 Y104.133 E0.01053
G1 X122.104 Y97.742 E0.23223
G1 X122.464 Y97.883 F7200.000
G1 F967.857
G1 X122.713 Y97.584 E0.01217
G1 X123.003 Y97.333 E0.01205
G1 X123.334 Y97.130 E0.01217
G1 X123.693 Y96.983 E0.01217
G1 X123.982 Y96.912 E0.00931
G1 X124.276 Y96.877 E0.00931
G1 X125.664 Y96.874 E0.04350
G1 X125.959 Y96.902 E0.00931
G1 X126.249 Y96.966 E0.00931
G1 X126.529 Y97.066 E0.00931
G1 X126.797 Y97.201 E0.00943
G1 X127.043 Y97.368 E0.00931
G1 X127.269 Y97.566 E0.00943
G1 X127.466 Y97.788 E0.00931
G1 X127.635 Y98.037 E0.00943
G1 X131.319 Y104.329 E0.22860
G1 X131.472 Y104.656 E0.01133
G1 X131.575 Y105.006 E0.01145
G1 X131.627 Y105.490 E0.01526
G1 X131.627 Y109.364 E0.12144
G1 X131.592 Y109.750 E0.01217
G1 X131.535 Y109.999 E0.00800
G1 X131.452 Y110.240 E0.00800
G1 X131.343 Y110.471 E0.00800
G1 X131.211 Y110.688 E0.00800
G1 X131.055 Y110.891 E0.00800
G1 X130.879 Y111.075 E0.00800
G1 X130.684 Y111.240 E0.00800
G1 X130.470 Y111.385 E0.00812
G1 X130.202 Y111.522 E0.00943
G1 X129.924 Y111.624 E0.00931
G1 X129.630 Y111.691 E0.00943
G1 X129.331 Y111.720 E0.00943
G1 X120.586 Y111.716 E0.27418
G1 X120.303 Y111.679 E0.00895
G1 X120.027 Y111.609 E0.00895
G1 X119.760 Y111.506 E0.00895
G1 X119.508 Y111.372 E0.00895
G1 X119.274 Y111.208 E0.00895
G1 X119.061 Y111.018 E0.00895
G1 X118.873 Y110.803 E0.00895
G1 X118.710 Y110.564 E0.00907
G1 X118.575 Y110.304 E0.00919
G1 X118.473 Y110.025 E0.00931
G1 X118.406 Y109.740 E0.00919
G1 X118.375 Y109.445 E0.00931
G1 X118.373 Y105.451 E0.12523
G1 X118.401 Y105.136 E0.00991
G1 X118.470 Y104.828 E0.00991
G1 X118.564 Y104.566 E0.00871
G1 X118.688 Y104.317 E0.00871
G1 X122.430 Y97.932 E0.23206
G1 F5760
G1 X122.713 Y97.584 E-0.15512
G1 F5760
G1 X123.003 Y97.333 E-0.13310
G1 F5760
G1 X123.334 Y97.130 E-0.13442
G1 F5760
G1 X123.693 Y96.983 E-0.13442
G1 F5760
G1 X123.982 Y96.912 E-0.10284
G1 F5760
G1 X124.269 Y96.878 E-0.10012
G1 E-0.04000 F2100.00000
G1 X128.214 Y105.864 F7200.000
G1 E0.80000 F2100.00000
G1 F900.000
G1 X128.251 Y105.864 E0.00114
G1 X128.286 Y105.899 E0.00156
G1 X128.286 Y108.380 E0.07779
G1 X128.214 Y108.380 E0.00225
G1 X128.214 Y105.924 E0.07701
G1 F5760
G1 X128.251 Y105.864 E-0.02432
G1 F5760
G1 X128.286 Y105.899 E-0.01725
G1 F5760
G1 X128.286 Y107.974 E-0.71843
G1 E-0.04000 F2100.00000
G1 X121.786 Y105.924 F7200.000
G1 E0.80000 F2100.00000
G1 F900.000
G1 X121.786 Y108.380 E0.07701
G1 X121.714 Y108.380 E0.00225
G1 X121.714 Y105.899 E0.07779
G1 X121.749 Y105.864 E0.00156
G1 X121.786 Y105.864 E0.00114
G1 F5760
G1 X121.786 Y108.058 E-0.76000
G1 E-0.04000 F2100.00000
G1 X125.017 Y105.487 F7200.000
G1 E0.80000 F2100.00000
G1 F900.000
G1 X128.407 Y105.487 E0.10630
G1 X128.663 Y105.743 E0.01136
G1 X128.663 Y108.757 E0.09451
G1 X127.837 Y108.757 E0.02589
G1 X127.837 Y105.663 E0.09703
G1 X122.163 Y105.663 E0.17791
G1 X122.163 Y108.757 E0.09703
G1 X121.337 Y108.757 E0.02589
G1 X121.337 Y105.743 E0.09451
G1 X121.593 Y105.487 E0.01136
G1 X124.987 Y105.487 E0.10643
G1 X124.971 Y103.744 E0.05464
G1 X124.987 Y102.587 E0.03629
G1 X125.011 Y102.587 E0.00075
G1 X125.015 Y102.864 E0.00868
G1 X125.017 Y105.427 E0.08036
G1 X125.393 Y105.110 F7200.000
G1 F900.000
G1 X128.563 Y105.110 E0.09938
G1 X129.040 Y105.587 E0.02115
G1 X129.040 Y109.135 E0.11123
G1 X127.460 Y109.135 E0.04954
G1 X127.460 Y106.040 E0.09703
G1 X122.540 Y106.040 E0.15426
G1 X122.540 Y109.135 E0.09703
G1 X120.960 Y109.135 E0.04954
G1 X120.960 Y105.587 E0.11123
G1 X121.437 Y105.110 E0.02115
G1 X124.607 Y105.110 E0.09939
G1 X124.594 Y103.744 E0.04285
G1 X124.616 Y102.210 E0.04809
G1 X125.384 Y102.210 E0.02408
G1 X125.393 Y105.050 E0.08905
G1 X125.428 Y105.508 F7200.000
G1 F5760
G1 X127.587 Y105.092 E-0.76000
G1 E-0.04000 F2100.00000
G1 X125.381 Y100.040 F7200.000
G1 E0.80000 F2100.00000
G1 F900.000
G1 X124.619 Y100.040 E0.02391
G1 X124.619 Y99.460 E0.01819
G1 X125.381 Y99.460 E0.02391
G1 X125.381 Y99.980 E0.01630
G1 X124.991 Y99.954 F7200.000
M106 S255
M104 S205 ; set temperature
G1 F5760
G1 X124.619 Y100.040 E-0.26491
G1 F5760
G1 X124.619 Y99.460 E-0.20089
G1 F5760
G1 X125.381 Y99.460 E-0.26410
G1 F5760
G1 X125.381 Y99.547 E-0.03010
G1 E-0.04000 F2100.00000
G1 Z0.400 F7200.000
G1 X125.004 Y103.039 F7200.000
G1 E0.80000 F2100.00000
M204 S800
G1 F900.000
G1 X124.993 Y104.468 E0.04836
G1 X124.999 Y103.095 E0.04648
M204 S1000
G1 F5760
G1 X124.993 Y104.468 E-0.47564
G1 F5760
G1 X124.996 Y103.647 E-0.28436
G1 E-0.04000 F2100.00000
G1 X125.394 Y105.332 F7200.000
G1 E0.80000 F2100.00000
M204 S800
G1 F900.000
G1 X128.188 Y105.332 E0.09458
G1 X128.618 Y105.762 E0.02057
G1 X128.618 Y109.160 E0.11501
G1 X127.882 Y109.160 E0.02491
G1 X127.882 Y105.618 E0.11988
G1 X122.118 Y105.618 E0.19511
G1 X122.118 Y109.160 E0.11988
G1 X121.382 Y109.160 E0.02491
G1 X121.382 Y105.762 E0.11501
G1 X121.812 Y105.332 E0.02057
G1 X124.583 Y105.332 E0.09378
G1 X124.594 Y102.632 E0.09139
G1 X125.410 Y102.632 E0.02764
G1 X125.394 Y105.272 E0.08936
M204 S1000
G1 F5760
G1 X127.588 Y105.319 E-0.76000
G1 E-0.04000 F2100.00000
G1 X127.475 Y106.025 F7200.000
G1 E0.80000 F2100.00000
M204 S800
G1 F900.000
G1 X122.525 Y106.025 E0.16755
G1 X122.525 Y109.567 E0.11988
G1 X120.975 Y109.567 E0.05247
G1 X120.975 Y105.593 E0.13450
G1 X121.643 Y104.925 E0.03199
G1 X124.177 Y104.925 E0.08577
G1 X124.188 Y102.225 E0.09139
G1 X125.813 Y102.225 E0.05500
G1 X125.804 Y104.925 E0.09139
G1 X128.357 Y104.925 E0.08641
G1 X129.025 Y105.593 E0.03199
G1 X129.025 Y109.567 E0.13450
G1 X127.475 Y109.567 E0.05247
G1 X127.475 Y106.085 E0.11785
M204 S1000
G1 X127.420 Y105.629 F7200.000
G1 X128.250 Y105.682 F7200.000
G1 F900.000
G1 X128.250 Y108.956 E0.07783
G1 F5760
G1 X128.250 Y106.762 E-0.76000
G1 E-0.04000 F2100.00000
G1 X121.750 Y108.956 F7200.000
G1 E0.80000 F2100.00000
G1 F900.000
G1 X121.750 Y105.682 E0.07783
G1 F5760
G1 X121.750 Y107.876 E-0.76000
G1 E-0.04000 F2100.00000
G1 X124.189 Y100.025 F7200.000
G1 E0.80000 F2100.00000
M204 S800
G1 F900.000
G1 X124.189 Y99.475 E0.01862
G1 X125.811 Y99.475 E0.05490
G1 X125.811 Y100.025 E0.01862
G1 X124.249 Y100.025 E0.05287
M204 S1000
G1 X124.350 Y99.659 F7200.000
G1 X124.393 Y99.750 F7200.000
G1 F900.000
G1 X125.607 Y99.750 E0.01010
G1 F5760
G1 X124.393 Y99.750 E-0.42074
G1 E-0.37926 F2100.00000
G1 Z0.600 F7200.000
G1 X125.278 Y103.039 F7200.000
G1 E0.80000 F2100.00000
M204 S800
G1 F900.000
G1 X125.260 Y105.211 E0.07351
G1 X124.716 Y105.211 E0.01844
G1 X124.724 Y103.039 E0.07351
G1 X125.218 Y103.039 E0.01674
M204 S1000
G1 F5760
G1 X125.260 Y105.211 E-0.75231
G1 F5760
G1 X125.238 Y105.211 E-0.00769
G1 E-0.04000 F2100.00000
G1 X125.668 Y105.132 F7200.000
G1 E0.80000 F2100.00000
M204 S800
G1 F900.000
G1 X127.988 Y105.132 E0.07853
G1 X128.618 Y105.762 E0.03015
G1 X128.618 Y109.420 E0.12384
G1 X127.882 Y109.420 E0.02491
G1 X127.882 Y105.618 E0.12871
G1 X122.118 Y105.618 E0.19511
G1 X122.118 Y109.420 E0.12871
G1 X121.382 Y109.420 E0.02491
G1 X121.382 Y105.762 E0.12384
G1 X122.012 Y105.132 E0.03015
G1 X124.309 Y105.132 E0.07775
G1 X124.318 Y102.632 E0.08462
G1 X125.685 Y102.632 E0.04627
G1 X125.669 Y105.072 E0.08259
M204 S1000
G1 F5760
G1 X127.862 Y105.129 E-0.76000
G1 E-0.04000 F2100.00000
G1 X127.475 Y106.025 F7200.000
G1 E0.80000 F2100.00000
M204 S800
G1 F900.000
G1 X122.525 Y106.025 E0.16755
G1 X122.525 Y109.827 E0.12871
G1 X120.975 Y109.827 E0.05247
G1 X120.975 Y105.593 E0.14332
G1 X121.843 Y104.725 E0.04156
G1 X123.903 Y104.725 E0.06973
G1 X123.913 Y102.225 E0.08462
G1 X126.088 Y102.225 E0.07364
G1 X126.079 Y104.725 E0.08462
G1 X128.157 Y104.725 E0.07035
G1 X129.025 Y105.593 E0.04156
G1 X129.025 Y109.827 E0.14332
G1 X127.475 Y109.827 E0.05247
G1 X127.475 Y106.085 E0.12668
M204 S1000
G1 X127.424 Y105.628 F7200.000
G1 X127.943 Y105.375 F7200.000
G1 F900.000
G1 X125.462 Y105.375 E0.00739
G1 X124.989 Y105.007 F7200.000
G1 F900.000
G1 X125.000 Y103.243 E0.01515
G1 F5760
G1 X124.989 Y105.007 E-0.61119
G1 E-0.18881 F2100.00000
G1 X124.511 Y105.375 F7200.000
G1 E0.80000 F2100.00000
G1 F900.000
G1 X122.057 Y105.375 E0.00731
G1 X121.750 Y105.682 F7200.000
G1 F900.000
G1 X121.750 Y109.217 E0.08402
G1 F5760
G1 X121.750 Y107.023 E-0.76000
G1 E-0.04000 F2100.00000
G1 X128.250 Y109.217 F7200.000
G1 E0.80000 F2100.00000
G1 F900.000
G1 X128.250 Y105.682 E0.08402
G1 F5760
G1 X128.250 Y107.876 E-0.76000
G1 E-0.04000 F2100.00000
G1 X126.086 Y100.025 F7200.000
G1 E0.80000 F2100.00000
M204 S800
G1 F900.000
G1 X123.914 Y100.025 E0.07353
G1 X123.914 Y99.475 E0.01862
G1 X126.086 Y99.475 E0.07353
G1 X126.086 Y99.965 E0.01659
M204 S1000
G1 X125.688 Y99.992 F7200.000
G1 X125.883 Y99.750 F7200.000
G1 F900.000
G1 X124.117 Y99.750 E0.01468
G1 F5760
G1 X125.883 Y99.750 E-0.61143
G1 E-0.18857 F2100.00000
G1 Z0.800 F7200.000
G1 X124.532 Y103.039 F7200.000
G1 E0.80000 F2100.00000
M204 S800
G1 F900.000
G1 X125.470 Y103.039 E0.03176
G1 X125.463 Y105.211 E0.07351
G1 X124.515 Y105.211 E0.03209
G1 X124.531 Y103.099 E0.07148
M204 S1000
G1 F5760
G1 X125.470 Y103.039 E-0.32580
G1 F5760
G1 X125.466 Y104.293 E-0.43420
G1 E-0.04000 F2100.00000
G1 X125.873 Y104.932 F7200.000
G1 E0.80000 F2100.00000
M204 S800
G1 F900.000
G1 X127.788 Y104.932 E0.06484
G1 X128.618 Y105.762 E0.03972
G1 X128.618 Y109.620 E0.13059
G1 X127.882 Y109.620 E0.02491
G1 X127.882 Y105.618 E0.13546
G1 X122.118 Y105.618 E0.19511
G1 X122.118 Y109.620 E0.13546
G1 X121.382 Y109.620 E0.02491
G1 X121.382 Y105.762 E0.13059
G1 X122.212 Y104.932 E0.03972
G1 X124.110 Y104.932 E0.06426
G1 X124.128 Y102.632 E0.07785
G1 X125.873 Y102.632 E0.05909
G1 X125.873 Y104.872 E0.07582
M204 S1000
G1 F5760
G1 X127.788 Y104.932 E-0.66359
G1 F5760
G1 X127.985 Y105.129 E-0.09641
G1 E-0.04000 F2100.00000
G1 X127.475 Y106.025 F7200.000
G1 E0.80000 F2100.00000
M204 S800
G1 F900.000
G1 X122.525 Y106.025 E0.16755
G1 X122.525 Y110.027 E0.13546
G1 X120.975 Y110.027 E0.05247
G1 X120.975 Y105.593 E0.15007
G1 X122.043 Y104.525 E0.05113
G1 X123.706 Y104.525 E0.05629
G1 X123.724 Y102.225 E0.07785
G1 X126.277 Y102.225 E0.08642
G1 X126.283 Y104.525 E0.07785
G1 X127.957 Y104.525 E0.05665
G1 X129.025 Y105.593 E0.05113
G1 X129.025 Y110.027 E0.15007
G1 X127.475 Y110.027 E0.05247
G1 X127.475 Y106.085 E0.13343
M204 S1000
G1 X127.426 Y105.628 F7200.000
G1 X128.250 Y105.682 F7200.000
G1 F900.000
G1 X128.250 Y109.416 E0.08876
G1 F5760
G1 X128.250 Y107.222 E-0.76000
G1 E-0.04000 F2100.00000
G1 X127.843 Y105.275 F7200.000
G1 E0.80000 F2100.00000
G1 F900.000
G1 X125.666 Y105.275 E0.04269
G1 F5760
G1 X127.843 Y105.275 E-0.75401
G1 E-0.04599 F2100.00000
G1 X124.640 Y104.819 F7200.000
G1 E0.80000 F2100.00000
M204 S2000
G1 F900.000
G1 X125.166 Y104.294 E0.02947
G1 X125.170 Y103.615 E0.02691
G1 X124.645 Y104.140 E0.02941
M204 S1000
G1 F5760
G1 X125.170 Y103.615 E-0.25682
G1 F5760
G1 X125.166 Y104.294 E-0.23502
G1 F5760
G1 X124.640 Y104.819 E-0.25735
G1 E-0.05081 F2100.00000
G1 X124.311 Y105.275 F7200.000
G1 E0.80000 F2100.00000
G1 F900.000
G1 X122.157 Y105.275 E0.04225
G1 X121.750 Y105.682 F7200.000
G1 F900.000
G1 X121.750 Y109.416 E0.08876
G1 F5760
G1 X121.750 Y107.222 E-0.76000
G1 E-0.04000 F2100.00000
G1 X123.725 Y100.025 F7200.000
G1 E0.80000 F2100.00000
M204 S800
G1 F900.000
G1 X123.725 Y99.475 E0.01862
G1 X126.275 Y99.475 E0.08630
G1 X126.275 Y100.025 E0.01862
G1 X123.785 Y100.025 E0.08427
M204 S1000
G1 X123.900 Y99.665 F7200.000
G1 X123.929 Y99.750 F7200.000
G1 F900.000
G1 X126.071 Y99.750 E0.01781
G1 F5760
G1 X123.929 Y99.750 E-0.74204
G1 E-0.05796 F2100.00000
G1 Z1.000 F7200.000
G1 Z1.500 F7200.000
G1 X125.620 Y103.039 F7200.000
G1 Z1.000 F7200.000
G1 E0.80000 F2100.00000
M204 S800
G1 F900.000
G1 X125.606 Y105.211 E0.07351
G1 X124.394 Y105.211 E0.04103
G1 X124.380 Y103.039 E0.07351
G1 X125.560 Y103.039 E0.03991
M204 S1000
G1 F5760
G1 X125.606 Y105.211 E-0.75234
G1 F5760
G1 X125.584 Y105.211 E-0.00766
G1 E-0.04000 F2100.00000
G1 Z1.500 F7200.000
G1 X126.015 Y104.882 F7200.000
G1 Z1.000 F7200.000
G1 E0.80000 F2100.00000
M204 S800
G1 F900.000
G1 X127.738 Y104.882 E0.05832
G1 X128.618 Y105.762 E0.04211
G1 X128.618 Y109.773 E0.13578
G1 X127.882 Y109.773 E0.02491
G1 X127.882 Y108.869 E0.03060
G1 X127.852 Y108.750 E0.00416
