; generated by Slic3r 1.33.8-prusa3d-win64 on 2017-03-11 at 00:29:49

; external perimeters extrusion width = 0.45mm
; perimeters extrusion width = 0.45mm
; infill extrusion width = 0.45mm
; solid infill extrusion width = 0.45mm
; top infill extrusion width = 0.40mm

M107
M115 U3.0.10 ; tell printer latest fw version
M83  ; extruder relative mode
M104 S215 ; set extruder temp
M140 S55 ; set bed temp
M190 S55 ; wait for bed temp
M109 S215 ; wait for extruder temp
G28 W ; home all without mesh bed level
G80 ; mesh bed leveling
G1 Y-3.0 F1000.0 ; go outside pritn area
G1 X60.0 E9.0  F1000.0 ; intro line
G1 X100.0 E12.5  F1000.0 ; intro line
G21 ; set units to millimeters
G90 ; use absolute coordinates
M83 ; use relative distances for extrusion
G1 E-0.80000 F2100.00000
G1 Z0.200 F7200.000
G1 X89.006 Y92.302 F7200.000
G1 E0.80000 F2100.00000
M204 S1000
G1 F2100
G1 X89.061 Y91.956 E0.01098
G1 X89.166 Y91.622 E0.01098
G1 X89.321 Y91.304 E0.01110
G1 X89.519 Y91.015 E0.01098
G1 X89.688 Y90.825 E0.00800
G1 X92.202 Y88.311 E0.11147
G1 X92.527 Y88.042 E0.01324
G1 X92.899 Y87.833 E0.01336
G1 X93.298 Y87.694 E0.01324
G1 X93.718 Y87.628 E0.01336
G1 X156.129 Y87.623 E1.95683
G1 X156.538 Y87.659 E0.01288
G1 X156.935 Y87.765 E0.01288
G1 X157.350 Y87.963 E0.01443
G1 X157.723 Y88.240 E0.01455
G1 X160.380 Y90.896 E0.11780
G1 X160.602 Y91.181 E0.01133
G1 X160.781 Y91.499 E0.01145
G1 X160.909 Y91.842 E0.01145
G1 X160.983 Y92.196 E0.01133
G1 X161.002 Y92.500 E0.00956
G1 X161.002 Y117.511 E0.78422
G1 X160.966 Y117.913 E0.01264
G1 X160.861 Y118.306 E0.01276
G1 X160.662 Y118.725 E0.01455
G1 X160.382 Y119.101 E0.01467
G1 X157.700 Y121.780 E0.11887
G1 X157.383 Y122.017 E0.01241
G1 X157.031 Y122.197 E0.01241
G1 X156.654 Y122.317 E0.01241
G1 X156.263 Y122.373 E0.01241
G1 X93.871 Y122.377 E1.95624
G1 X93.466 Y122.342 E0.01276
G1 X93.069 Y122.236 E0.01288
G1 X92.650 Y122.037 E0.01455
G1 X92.277 Y121.760 E0.01455
G1 X89.623 Y119.107 E0.11768
G1 X89.402 Y118.825 E0.01122
G1 X89.224 Y118.511 E0.01133
G1 X89.095 Y118.173 E0.01133
G1 X89.019 Y117.820 E0.01133
G1 X88.998 Y117.500 E0.01004
G1 X89.002 Y92.362 E0.78818
G1 F5760
G1 X89.061 Y91.956 E-0.14198
G1 F5760
G1 X89.166 Y91.622 E-0.12126
G1 F5760
G1 X89.321 Y91.304 E-0.12258
G1 F5760
G1 X89.519 Y91.015 E-0.12126
G1 F5760
G1 X89.688 Y90.825 E-0.08835
G1 F5760
G1 X90.024 Y90.489 E-0.16457
G1 E-0.04000 F2100.00000
G1 X151.582 Y114.054 F7200.000
G1 E0.80000 F2100.00000
G1 F840
G1 X151.894 Y113.481 E0.02044
G1 X152.338 Y113.005 E0.02044
G1 X152.890 Y112.652 E0.02053
G1 X153.525 Y112.448 E0.02091
G1 X154.159 Y112.408 E0.01990
G1 X154.798 Y112.529 E0.02040
G1 X155.388 Y112.805 E0.02044
G1 X155.894 Y113.223 E0.02056
G1 X156.282 Y113.764 E0.02088
G1 X156.515 Y114.354 E0.01987
G1 X156.597 Y115.000 E0.02043
G1 X156.515 Y115.646 E0.02043
G1 X156.282 Y116.236 E0.01987
G1 X155.894 Y116.777 E0.02088
G1 X155.389 Y117.194 E0.02053
G1 X154.815 Y117.464 E0.01989
G1 X154.161 Y117.592 E0.02090
G1 X153.508 Y117.550 E0.02050
G1 X152.905 Y117.353 E0.01990
G1 X152.340 Y116.998 E0.02092
G1 X151.895 Y116.520 E0.02047
G1 X151.589 Y115.963 E0.01992
G1 X151.423 Y115.319 E0.02086
G1 X151.423 Y114.683 E0.01993
G1 X151.567 Y114.112 E0.01848
G1 X151.936 Y114.192 F7200.000
G1 F840
G1 X152.202 Y113.704 E0.01744
G1 X152.582 Y113.297 E0.01744
G1 X153.052 Y112.996 E0.01750
G1 X153.596 Y112.821 E0.01790
G1 X154.135 Y112.788 E0.01695
G1 X154.681 Y112.891 E0.01742
G1 X155.185 Y113.127 E0.01745
G1 X155.616 Y113.482 E0.01752
G1 X155.948 Y113.946 E0.01788
G1 X156.147 Y114.448 E0.01693
G1 X156.217 Y115.000 E0.01744
G1 X156.147 Y115.552 E0.01744
G1 X155.948 Y116.054 E0.01693
G1 X155.616 Y116.518 E0.01788
G1 X155.186 Y116.873 E0.01750
G1 X154.697 Y117.103 E0.01694
G1 X154.137 Y117.213 E0.01790
G1 X153.580 Y117.176 E0.01748
G1 X153.066 Y117.009 E0.01695
G1 X152.583 Y116.705 E0.01791
G1 X152.203 Y116.297 E0.01746
G1 X151.942 Y115.823 E0.01696
G1 X151.800 Y115.271 E0.01788
G1 X151.800 Y114.730 E0.01696
G1 X151.921 Y114.250 E0.01552
G1 X152.290 Y114.331 F7200.000
G1 F840
G1 X152.511 Y113.926 E0.01445
G1 X152.825 Y113.589 E0.01445
G1 X153.214 Y113.340 E0.01447
G1 X153.666 Y113.195 E0.01490
G1 X154.112 Y113.167 E0.01399
G1 X154.564 Y113.252 E0.01445
G1 X154.982 Y113.448 E0.01445
G1 X155.338 Y113.742 E0.01448
G1 X155.615 Y114.128 E0.01489
G1 X155.779 Y114.543 E0.01399
G1 X155.837 Y115.000 E0.01445
G1 X155.779 Y115.457 E0.01445
G1 X155.615 Y115.872 E0.01399
G1 X155.338 Y116.258 E0.01489
G1 X154.982 Y116.552 E0.01448
G1 X154.578 Y116.742 E0.01399
G1 X154.112 Y116.833 E0.01489
G1 X153.652 Y116.803 E0.01447
G1 X153.227 Y116.665 E0.01399
G1 X152.825 Y116.412 E0.01490
G1 X152.511 Y116.074 E0.01446
G1 X152.296 Y115.683 E0.01400
G1 X152.177 Y115.223 E0.01489
G1 X152.177 Y114.777 E0.01400
G1 X152.275 Y114.389 E0.01256
G1 X152.041 Y114.018 F7200.000
G1 F5760
G1 X152.511 Y113.926 E-0.17985
G1 F5760
G1 X152.825 Y113.589 E-0.15966
G1 F5760
G1 X153.214 Y113.340 E-0.15989
G1 F5760
G1 X153.666 Y113.195 E-0.16457
G1 F5760
G1 X153.943 Y113.177 E-0.09603
G1 E-0.04000 F2100.00000
G1 X153.503 Y97.548 F7200.000
G1 E0.80000 F2100.00000
G1 F840
G1 X152.894 Y97.350 E0.02008
G1 X152.345 Y97.001 E0.02041
G1 X151.899 Y96.526 E0.02041
G1 X151.591 Y95.965 E0.02008
G1 X151.424 Y95.328 E0.02066
G1 X151.424 Y94.675 E0.02048
G1 X151.586 Y94.044 E0.02041
G1 X151.899 Y93.474 E0.02041
G1 X152.345 Y92.999 E0.02041
G1 X152.894 Y92.650 E0.02041
G1 X153.513 Y92.449 E0.02041
G1 X154.153 Y92.409 E0.02008
G1 X154.800 Y92.529 E0.02066
G1 X155.391 Y92.807 E0.02048
G1 X155.893 Y93.222 E0.02041
G1 X156.276 Y93.749 E0.02041
G1 X156.515 Y94.354 E0.02041
G1 X156.597 Y95.000 E0.02041
G1 X156.515 Y95.646 E0.02041
G1 X156.276 Y96.251 E0.02041
G1 X155.893 Y96.778 E0.02041
G1 X155.391 Y97.193 E0.02041
G1 X154.802 Y97.470 E0.02041
G1 X154.161 Y97.592 E0.02048
G1 X153.563 Y97.552 E0.01878
G1 X153.575 Y97.175 F7200.000
G1 F840
G1 X153.056 Y97.006 E0.01712
G1 X152.587 Y96.708 E0.01742
G1 X152.207 Y96.303 E0.01742
G1 X151.944 Y95.824 E0.01712
G1 X151.801 Y95.279 E0.01767
G1 X151.801 Y94.722 E0.01747
G1 X151.939 Y94.184 E0.01742
G1 X152.207 Y93.697 E0.01742
G1 X152.587 Y93.292 E0.01742
G1 X153.056 Y92.994 E0.01742
G1 X153.585 Y92.823 E0.01742
G1 X154.130 Y92.788 E0.01712
G1 X154.684 Y92.891 E0.01767
G1 X155.188 Y93.128 E0.01747
G1 X155.616 Y93.483 E0.01742
G1 X155.943 Y93.932 E0.01742
G1 X156.147 Y94.449 E0.01742
G1 X156.217 Y95.000 E0.01742
G1 X156.147 Y95.551 E0.01742
G1 X155.943 Y96.068 E0.01742
G1 X155.616 Y96.517 E0.01742
G1 X155.188 Y96.872 E0.01742
G1 X154.685 Y97.108 E0.01742
G1 X154.138 Y97.213 E0.01747
G1 X153.635 Y97.179 E0.01579
G1 X153.648 Y96.801 F7200.000
G1 F840
G1 X153.218 Y96.662 E0.01416
G1 X152.829 Y96.415 E0.01444
G1 X152.514 Y96.080 E0.01444
G1 X152.296 Y95.684 E0.01416
G1 X152.178 Y95.231 E0.01468
G1 X152.178 Y94.770 E0.01445
G1 X152.292 Y94.324 E0.01444
G1 X152.514 Y93.920 E0.01444
G1 X152.829 Y93.585 E0.01444
G1 X153.218 Y93.338 E0.01444
G1 X153.656 Y93.196 E0.01444
G1 X154.107 Y93.167 E0.01416
G1 X154.567 Y93.253 E0.01468
G1 X154.984 Y93.449 E0.01445
G1 X155.339 Y93.743 E0.01444
G1 X155.609 Y94.115 E0.01444
G1 X155.779 Y94.543 E0.01444
G1 X155.837 Y95.000 E0.01444
G1 X155.779 Y95.457 E0.01444
G1 X155.609 Y95.885 E0.01444
G1 X155.339 Y96.257 E0.01444
G1 X154.984 Y96.551 E0.01444
G1 X154.568 Y96.747 E0.01444
G1 X154.115 Y96.833 E0.01445
G1 X153.707 Y96.806 E0.01280
G1 X153.386 Y97.104 F7200.000
G1 F5760
G1 X153.218 Y96.662 E-0.17668
G1 F5760
G1 X152.829 Y96.415 E-0.15946
G1 F5760
G1 X152.514 Y96.080 E-0.15946
G1 F5760
G1 X152.296 Y95.684 E-0.15646
G1 F5760
G1 X152.218 Y95.382 E-0.10795
G1 E-0.04000 F2100.00000
G1 X134.597 Y95.000 F7200.000
G1 E0.80000 F2100.00000
G1 F840
G1 X134.515 Y95.646 E0.02041
G1 X134.276 Y96.251 E0.02041
G1 X133.893 Y96.778 E0.02041
G1 X133.391 Y97.193 E0.02041
G1 X132.802 Y97.470 E0.02041
G1 X132.163 Y97.592 E0.02041
G1 X131.513 Y97.551 E0.02041
G1 X130.894 Y97.350 E0.02041
G1 X130.345 Y97.001 E0.02041
G1 X129.899 Y96.526 E0.02041
G1 X129.591 Y95.965 E0.02008
G1 X129.424 Y95.328 E0.02066
G1 X129.424 Y94.675 E0.02048
G1 X129.586 Y94.044 E0.02041
G1 X129.899 Y93.474 E0.02041
G1 X130.345 Y92.999 E0.02041
G1 X130.894 Y92.650 E0.02041
G1 X131.513 Y92.449 E0.02041
G1 X132.153 Y92.409 E0.02008
G1 X132.800 Y92.529 E0.02066
G1 X133.391 Y92.807 E0.02048
G1 X133.893 Y93.222 E0.02041
G1 X134.276 Y93.749 E0.02041
G1 X134.515 Y94.354 E0.02041
G1 X134.589 Y94.940 E0.01853
G1 X134.217 Y95.000 F7200.000
G1 F840
G1 X134.147 Y95.551 E0.01742
G1 X133.943 Y96.068 E0.01742
G1 X133.616 Y96.517 E0.01742
G1 X133.188 Y96.872 E0.01742
G1 X132.685 Y97.108 E0.01742
G1 X132.139 Y97.212 E0.01742
G1 X131.585 Y97.177 E0.01742
G1 X131.056 Y97.006 E0.01742
G1 X130.587 Y96.708 E0.01742
G1 X130.207 Y96.303 E0.01742
G1 X129.944 Y95.824 E0.01712
G1 X129.801 Y95.279 E0.01767
G1 X129.801 Y94.722 E0.01747
G1 X129.939 Y94.184 E0.01742
G1 X130.207 Y93.697 E0.01742
G1 X130.587 Y93.292 E0.01742
G1 X131.056 Y92.994 E0.01742
G1 X131.585 Y92.823 E0.01742
G1 X132.130 Y92.788 E0.01712
G1 X132.684 Y92.891 E0.01767
G1 X133.188 Y93.128 E0.01747
G1 X133.616 Y93.483 E0.01742
G1 X133.943 Y93.932 E0.01742
G1 X134.147 Y94.449 E0.01742
G1 X134.209 Y94.940 E0.01554
G1 X133.837 Y95.000 F7200.000
G1 F840
G1 X133.779 Y95.457 E0.01444
G1 X133.609 Y95.885 E0.01444
G1 X133.339 Y96.257 E0.01444
G1 X132.984 Y96.551 E0.01444
G1 X132.568 Y96.747 E0.01444
G1 X132.115 Y96.833 E0.01444
G1 X131.656 Y96.804 E0.01444
G1 X131.218 Y96.662 E0.01444
G1 X130.829 Y96.415 E0.01444
G1 X130.514 Y96.080 E0.01444
G1 X130.296 Y95.684 E0.01416
G1 X130.178 Y95.231 E0.01468
G1 X130.178 Y94.770 E0.01445
G1 X130.292 Y94.324 E0.01444
G1 X130.514 Y93.920 E0.01444
G1 X130.829 Y93.585 E0.01444
G1 X131.218 Y93.338 E0.01444
G1 X131.656 Y93.196 E0.01444
G1 X132.107 Y93.167 E0.01416
G1 X132.567 Y93.253 E0.01468
G1 X132.984 Y93.449 E0.01445
G1 X133.339 Y93.743 E0.01444
G1 X133.609 Y94.115 E0.01444
G1 X133.779 Y94.543 E0.01444
G1 X133.829 Y94.940 E0.01255
G1 X134.183 Y95.200 F7200.000
G1 F5760
G1 X133.779 Y95.457 E-0.17966
G1 F5760
G1 X133.609 Y95.885 E-0.15946
G1 F5760
G1 X133.339 Y96.257 E-0.15946
G1 F5760
G1 X132.984 Y96.551 E-0.15946
G1 F5760
G1 X132.718 Y96.676 E-0.10196
G1 E-0.04000 F2100.00000
G1 X120.576 Y94.675 F7200.000
G1 E0.80000 F2100.00000
G1 F840
G1 X120.576 Y95.325 E0.02041
G1 X120.414 Y95.956 E0.02041
G1 X120.101 Y96.526 E0.02041
G1 X119.655 Y97.001 E0.02041
G1 X119.106 Y97.350 E0.02041
G1 X118.484 Y97.552 E0.02048
G1 X117.827 Y97.590 E0.02066
G1 X117.198 Y97.470 E0.02008
G1 X116.609 Y97.193 E0.02041
G1 X116.107 Y96.778 E0.02041
G1 X115.724 Y96.251 E0.02041
G1 X115.485 Y95.646 E0.02041
G1 X115.403 Y95.000 E0.02041
G1 X115.483 Y94.365 E0.02008
G1 X115.723 Y93.751 E0.02066
G1 X116.107 Y93.222 E0.02048
G1 X116.610 Y92.806 E0.02048
G1 X117.208 Y92.528 E0.02066
G1 X117.837 Y92.408 E0.02008
G1 X118.487 Y92.449 E0.02041
G1 X119.106 Y92.650 E0.02041
G1 X119.655 Y92.999 E0.02041
G1 X120.101 Y93.474 E0.02041
G1 X120.414 Y94.044 E0.02041
G1 X120.561 Y94.616 E0.01853
G1 X120.199 Y94.722 F7200.000
G1 F840
G1 X120.199 Y95.278 E0.01742
G1 X120.061 Y95.816 E0.01742
G1 X119.793 Y96.303 E0.01742
G1 X119.413 Y96.708 E0.01742
G1 X118.944 Y97.006 E0.01742
G1 X118.414 Y97.178 E0.01747
G1 X117.851 Y97.211 E0.01767
G1 X117.315 Y97.108 E0.01712
G1 X116.812 Y96.872 E0.01742
G1 X116.384 Y96.517 E0.01742
G1 X116.057 Y96.068 E0.01742
G1 X115.853 Y95.551 E0.01742
G1 X115.783 Y95.000 E0.01742
G1 X115.852 Y94.458 E0.01712
G1 X116.057 Y93.933 E0.01767
G1 X116.384 Y93.483 E0.01747
G1 X116.813 Y93.127 E0.01747
G1 X117.324 Y92.890 E0.01767
G1 X117.861 Y92.788 E0.01712
G1 X118.415 Y92.823 E0.01742
G1 X118.944 Y92.994 E0.01742
G1 X119.413 Y93.292 E0.01742
G1 X119.793 Y93.697 E0.01742
G1 X120.061 Y94.184 E0.01742
G1 X120.184 Y94.664 E0.01554
G1 X119.822 Y94.770 F7200.000
G1 F840
G1 X119.822 Y95.230 E0.01444
G1 X119.708 Y95.676 E0.01444
G1 X119.486 Y96.080 E0.01444
G1 X119.171 Y96.415 E0.01444
G1 X118.782 Y96.662 E0.01444
G1 X118.344 Y96.804 E0.01445
G1 X117.876 Y96.831 E0.01468
G1 X117.432 Y96.747 E0.01416
G1 X117.016 Y96.551 E0.01444
G1 X116.661 Y96.257 E0.01444
G1 X116.391 Y95.885 E0.01444
G1 X116.221 Y95.457 E0.01444
G1 X116.163 Y95.000 E0.01444
G1 X116.220 Y94.552 E0.01416
G1 X116.390 Y94.116 E0.01468
G1 X116.661 Y93.743 E0.01445
G1 X117.016 Y93.449 E0.01445
G1 X117.441 Y93.252 E0.01468
G1 X117.885 Y93.167 E0.01416
G1 X118.344 Y93.196 E0.01444
G1 X118.782 Y93.338 E0.01444
G1 X119.171 Y93.585 E0.01444
G1 X119.486 Y93.920 E0.01444
G1 X119.708 Y94.324 E0.01444
G1 X119.807 Y94.712 E0.01255
G1 X120.191 Y94.925 F7200.000
G1 F5760
G1 X119.822 Y95.230 E-0.17966
G1 F5760
G1 X119.708 Y95.676 E-0.15946
G1 F5760
G1 X119.486 Y96.080 E-0.15946
G1 F5760
G1 X119.171 Y96.415 E-0.15946
G1 F5760
G1 X118.922 Y96.573 E-0.10196
G1 E-0.04000 F2100.00000
G1 X115.911 Y99.036 F7200.000
G1 E0.80000 F2100.00000
G1 F1680
G1 X134.089 Y99.036 E0.56997
G1 X134.089 Y103.964 E0.15452
G1 X115.911 Y103.964 E0.56997
G1 X115.911 Y99.096 E0.15264
G1 X116.288 Y99.413 F7200.000
G1 F1680
G1 X133.712 Y99.413 E0.54632
G1 X133.712 Y103.587 E0.13088
G1 X116.288 Y103.587 E0.54632
G1 X116.288 Y99.473 E0.12900
G1 X116.665 Y99.790 F7200.000
G1 F840
G1 X133.335 Y99.790 E0.52268
G1 X133.335 Y103.210 E0.10723
G1 X116.665 Y103.210 E0.52268
G1 X116.665 Y99.850 E0.10535
G1 X116.489 Y99.431 F7200.000
G1 F5760
G1 X118.859 Y99.842 E-0.76000
G1 E-0.04000 F2100.00000
G1 X115.911 Y104.036 F7200.000
G1 E0.80000 F2100.00000
G1 F1680
G1 X134.089 Y104.036 E0.56997
G1 X134.089 Y110.964 E0.21723
G1 X115.911 Y110.964 E0.56997
G1 X115.911 Y104.096 E0.21535
G1 X116.288 Y104.413 F7200.000
G1 F1680
G1 X133.712 Y104.413 E0.54632
G1 X133.712 Y110.587 E0.19359
G1 X116.288 Y110.587 E0.54632
G1 X116.288 Y104.473 E0.19171
G1 X116.665 Y104.790 F7200.000
G1 F1260
G1 X133.335 Y104.790 E0.52268
G1 X133.335 Y110.210 E0.16994
G1 X116.665 Y110.210 E0.52268
G1 X116.665 Y104.850 E0.16806
G1 X116.502 Y104.425 F7200.000
G1 F5760
G1 X118.859 Y104.842 E-0.76000
G1 E-0.04000 F2100.00000
G1 X117.824 Y112.410 F7200.000
G1 E0.80000 F2100.00000
G1 F840
G1 X118.490 Y112.450 E0.02090
G1 X119.112 Y112.654 E0.02054
G1 X119.662 Y113.005 E0.02044
G1 X120.105 Y113.480 E0.02038
G1 X120.411 Y114.037 E0.01992
G1 X120.577 Y114.681 E0.02086
G1 X120.577 Y115.317 E0.01993
G1 X120.418 Y115.946 E0.02037
G1 X120.106 Y116.519 E0.02044
G1 X119.662 Y116.995 E0.02044
G1 X119.110 Y117.348 E0.02053
G1 X118.475 Y117.552 E0.02091
G1 X117.841 Y117.592 E0.01990
G1 X117.202 Y117.471 E0.02040
G1 X116.612 Y117.195 E0.02044
G1 X116.109 Y116.780 E0.02044
G1 X115.723 Y116.249 E0.02056
G1 X115.483 Y115.629 E0.02087
G1 X115.403 Y115.000 E0.01987
G1 X115.485 Y114.353 E0.02044
G1 X115.725 Y113.748 E0.02042
G1 X116.098 Y113.235 E0.01988
G1 X116.608 Y112.807 E0.02088
G1 X117.201 Y112.529 E0.02052
G1 X117.765 Y112.422 E0.01801
G1 X117.849 Y112.790 F7200.000
G1 F840
G1 X118.419 Y112.823 E0.01790
G1 X118.949 Y112.997 E0.01751
G1 X119.418 Y113.297 E0.01745
G1 X119.797 Y113.703 E0.01741
G1 X120.058 Y114.177 E0.01696
G1 X120.200 Y114.729 E0.01788
G1 X120.200 Y115.270 E0.01696
G1 X120.064 Y115.808 E0.01740
G1 X119.798 Y116.296 E0.01744
G1 X119.418 Y116.703 E0.01744
G1 X118.948 Y117.004 E0.01750
G1 X118.404 Y117.179 E0.01790
G1 X117.865 Y117.212 E0.01695
G1 X117.319 Y117.109 E0.01742
G1 X116.815 Y116.873 E0.01745
G1 X116.386 Y116.519 E0.01745
G1 X116.057 Y116.067 E0.01752
G1 X115.851 Y115.536 E0.01788
G1 X115.783 Y115.000 E0.01693
G1 X115.853 Y114.448 E0.01745
G1 X116.058 Y113.931 E0.01744
G1 X116.376 Y113.494 E0.01693
G1 X116.813 Y113.128 E0.01789
G1 X117.318 Y112.891 E0.01750
G1 X117.790 Y112.801 E0.01506
G1 X117.874 Y113.169 F7200.000
G1 F840
G1 X118.348 Y113.197 E0.01490
G1 X118.787 Y113.340 E0.01448
G1 X119.175 Y113.589 E0.01445
G1 X119.489 Y113.926 E0.01444
G1 X119.704 Y114.317 E0.01400
G1 X119.823 Y114.777 E0.01489
G1 X119.823 Y115.223 E0.01400
G1 X119.710 Y115.669 E0.01444
G1 X119.489 Y116.074 E0.01445
G1 X119.175 Y116.411 E0.01445
G1 X118.786 Y116.660 E0.01447
G1 X118.334 Y116.805 E0.01490
G1 X117.888 Y116.833 E0.01399
G1 X117.436 Y116.748 E0.01445
G1 X117.018 Y116.552 E0.01445
