; generated by Slic3r 1.33.8-prusa3d-win64 on 2017-03-11 at 00:31:00

; external perimeters extrusion width = 0.45mm
; perimeters extrusion width = 0.45mm
; infill extrusion width = 0.45mm
; solid infill extrusion width = 0.45mm
; top infill extrusion width = 0.40mm

M107
M115 U3.0.10 ; tell printer latest fw version
M83  ; extruder relative mode
M104 S215 ; set extruder temp
M140 S55 ; set bed temp
M190 S55 ; wait for bed temp
M109 S215 ; wait for extruder temp
G28 W ; home all without mesh bed level
G80 ; mesh bed leveling
G1 Y-3.0 F1000.0 ; go outside pritn area
G1 X60.0 E9.0  F1000.0 ; intro line
G1 X100.0 E12.5  F1000.0 ; intro line
G21 ; set units to millimeters
G90 ; use absolute coordinates
M83 ; use relative distances for extrusion
G1 E-0.80000 F2100.00000
G1 Z0.200 F7200.000
G1 X92.340 Y93.560 F7200.000
G1 E0.80000 F2100.00000
M204 S1000
G1 F2100
G1 X92.675 Y93.323 E0.01288
G1 X93.047 Y93.147 E0.01288
G1 X93.443 Y93.038 E0.01288
G1 X93.855 Y92.998 E0.01300
G1 X156.125 Y92.998 E1.95242
G1 X156.455 Y93.021 E0.01038
G1 X156.798 Y93.095 E0.01098
G1 X157.125 Y93.219 E0.01098
G1 X157.431 Y93.389 E0.01098
G1 X157.711 Y93.605 E0.01110
G1 X160.361 Y96.252 E0.11744
G1 X160.607 Y96.562 E0.01241
G1 X160.797 Y96.909 E0.01241
G1 X160.942 Y97.346 E0.01443
G1 X161.001 Y97.806 E0.01455
G1 X161.002 Y102.886 E0.15930
G1 X160.979 Y103.205 E0.01002
G1 X160.875 Y103.642 E0.01407
G1 X160.689 Y104.054 E0.01419
G1 X154.824 Y113.986 E0.36165
G1 X154.571 Y114.291 E0.01241
G1 X152.428 Y116.425 E0.09484
G1 X152.194 Y116.602 E0.00919
G1 X151.941 Y116.750 E0.00919
G1 X151.671 Y116.865 E0.00919
G1 X151.389 Y116.946 E0.00919
G1 X151.134 Y116.988 E0.00812
G1 X150.875 Y117.002 E0.00813
G1 X99.125 Y117.002 E1.62258
G1 X98.795 Y116.979 E0.01038
G1 X98.478 Y116.912 E0.01014
G1 X98.170 Y116.802 E0.01026
G1 X97.880 Y116.650 E0.01026
G1 X97.614 Y116.460 E0.01026
G1 X95.433 Y114.295 E0.09633
G1 X95.197 Y114.016 E0.01145
G1 X89.322 Y104.073 E0.36214
G1 X89.185 Y103.800 E0.00955
G1 X89.085 Y103.513 E0.00955
G1 X89.022 Y103.215 E0.00955
G1 X88.998 Y102.911 E0.00955
G1 X88.998 Y97.864 E0.15827
G1 X89.028 Y97.499 E0.01145
G1 X89.113 Y97.144 E0.01145
G1 X89.201 Y96.913 E0.00776
G1 X89.313 Y96.692 E0.00776
G1 X89.447 Y96.484 E0.00776
G1 X89.605 Y96.289 E0.00788
G1 X92.295 Y93.599 E0.11926
G1 F5760
G1 X92.675 Y93.323 E-0.16299
G1 F5760
G1 X93.047 Y93.147 E-0.14230
G1 F5760
G1 X93.443 Y93.038 E-0.14230
G1 F5760
G1 X93.855 Y92.998 E-0.14362
G1 F5760
G1 X94.343 Y92.998 E-0.16878
G1 E-0.04000 F2100.00000
G1 X115.911 Y104.411 F7200.000
G1 E0.80000 F2100.00000
G1 F1680
G1 X134.089 Y104.411 E0.56997
G1 X134.089 Y111.339 E0.21723
G1 X115.911 Y111.339 E0.56997
G1 X115.911 Y104.471 E0.21535
G1 X116.288 Y104.788 F7200.000
G1 F1680
G1 X133.712 Y104.788 E0.54632
G1 X133.712 Y110.962 E0.19359
G1 X116.288 Y110.962 E0.54632
G1 X116.288 Y104.848 E0.19171
G1 X116.665 Y105.165 F7200.000
G1 F1260
G1 X133.335 Y105.165 E0.52268
G1 X133.335 Y110.585 E0.16994
G1 X116.665 Y110.585 E0.52268
G1 X116.665 Y105.225 E0.16806
G1 X116.502 Y104.800 F7200.000
G1 F5760
G1 X118.859 Y105.217 E-0.76000
G1 E-0.04000 F2100.00000
G1 X117.202 Y102.846 F7200.000
G1 E0.80000 F2100.00000
G1 F840
G1 X116.612 Y102.570 E0.02044
G1 X116.109 Y102.155 E0.02044
G1 X115.723 Y101.624 E0.02056
G1 X115.483 Y101.004 E0.02087
G1 X115.403 Y100.375 E0.01987
G1 X115.485 Y99.728 E0.02044
G1 X115.725 Y99.123 E0.02042
G1 X116.098 Y98.610 E0.01988
G1 X116.608 Y98.182 E0.02088
G1 X117.201 Y97.904 E0.02052
G1 X117.824 Y97.785 E0.01989
G1 X118.490 Y97.825 E0.02090
G1 X119.112 Y98.029 E0.02054
G1 X119.661 Y98.380 E0.02044
G1 X120.105 Y98.855 E0.02038
G1 X120.411 Y99.412 E0.01992
G1 X120.577 Y100.056 E0.02086
G1 X120.577 Y100.692 E0.01993
G1 X120.418 Y101.321 E0.02037
G1 X120.106 Y101.894 E0.02044
G1 X119.661 Y102.370 E0.02044
G1 X119.110 Y102.723 E0.02053
G1 X118.475 Y102.927 E0.02091
G1 X117.841 Y102.967 E0.01990
G1 X117.261 Y102.857 E0.01852
G1 X117.319 Y102.484 F7200.000
G1 F840
G1 X116.815 Y102.248 E0.01745
G1 X116.386 Y101.894 E0.01745
G1 X116.057 Y101.442 E0.01752
G1 X115.851 Y100.911 E0.01788
G1 X115.783 Y100.375 E0.01693
G1 X115.853 Y99.823 E0.01744
G1 X116.058 Y99.306 E0.01744
G1 X116.376 Y98.869 E0.01693
G1 X116.813 Y98.503 E0.01789
G1 X117.318 Y98.266 E0.01750
G1 X117.849 Y98.165 E0.01694
G1 X118.419 Y98.198 E0.01790
G1 X118.949 Y98.372 E0.01751
G1 X119.418 Y98.672 E0.01744
G1 X119.797 Y99.078 E0.01741
G1 X120.058 Y99.552 E0.01696
G1 X120.200 Y100.104 E0.01788
G1 X120.200 Y100.645 E0.01696
G1 X120.064 Y101.183 E0.01740
G1 X119.798 Y101.671 E0.01744
G1 X119.418 Y102.078 E0.01745
G1 X118.948 Y102.379 E0.01750
G1 X118.404 Y102.554 E0.01790
G1 X117.865 Y102.587 E0.01695
G1 X117.378 Y102.496 E0.01554
G1 X117.436 Y102.123 F7200.000
G1 F840
G1 X117.018 Y101.927 E0.01445
G1 X116.662 Y101.634 E0.01446
G1 X116.391 Y101.260 E0.01448
G1 X116.219 Y100.817 E0.01489
G1 X116.163 Y100.375 E0.01398
G1 X116.221 Y99.918 E0.01445
G1 X116.391 Y99.489 E0.01445
G1 X116.653 Y99.128 E0.01399
G1 X117.017 Y98.823 E0.01489
G1 X117.435 Y98.627 E0.01447
G1 X117.874 Y98.544 E0.01399
G1 X118.348 Y98.572 E0.01490
G1 X118.787 Y98.716 E0.01448
G1 X119.175 Y98.964 E0.01445
G1 X119.489 Y99.301 E0.01444
G1 X119.704 Y99.692 E0.01400
G1 X119.823 Y100.152 E0.01489
G1 X119.823 Y100.598 E0.01400
G1 X119.710 Y101.044 E0.01444
G1 X119.489 Y101.449 E0.01445
G1 X119.175 Y101.786 E0.01445
G1 X118.786 Y102.035 E0.01447
G1 X118.334 Y102.180 E0.01490
G1 X117.888 Y102.208 E0.01399
G1 X117.494 Y102.134 E0.01257
G1 X117.138 Y102.391 F7200.000
G1 F5760
G1 X117.018 Y101.927 E-0.17988
G1 F5760
G1 X116.662 Y101.634 E-0.15968
G1 F5760
G1 X116.391 Y101.260 E-0.15998
G1 F5760
G1 X116.219 Y100.817 E-0.16444
G1 F5760
G1 X116.184 Y100.542 E-0.09602
G1 E-0.04000 F2100.00000
G1 X129.423 Y100.694 F7200.000
G1 E0.80000 F2100.00000
G1 F840
G1 X129.423 Y100.058 E0.01993
G1 X129.582 Y99.429 E0.02037
G1 X129.894 Y98.856 E0.02044
G1 X130.338 Y98.380 E0.02044
G1 X130.890 Y98.027 E0.02053
G1 X131.525 Y97.823 E0.02091
G1 X132.159 Y97.783 E0.01990
G1 X132.798 Y97.904 E0.02040
G1 X133.388 Y98.180 E0.02044
G1 X133.894 Y98.598 E0.02056
G1 X134.282 Y99.139 E0.02088
G1 X134.515 Y99.729 E0.01987
G1 X134.597 Y100.375 E0.02043
G1 X134.515 Y101.021 E0.02043
G1 X134.282 Y101.611 E0.01987
G1 X133.894 Y102.152 E0.02088
G1 X133.389 Y102.569 E0.02053
G1 X132.815 Y102.839 E0.01989
G1 X132.161 Y102.967 E0.02090
G1 X131.508 Y102.925 E0.02050
G1 X130.905 Y102.728 E0.01990
G1 X130.340 Y102.373 E0.02091
G1 X129.895 Y101.895 E0.02047
G1 X129.589 Y101.338 E0.01992
G1 X129.438 Y100.752 E0.01898
G1 X129.800 Y100.646 F7200.000
G1 F840
G1 X129.800 Y100.105 E0.01696
G1 X129.936 Y99.567 E0.01740
G1 X130.202 Y99.079 E0.01744
G1 X130.582 Y98.672 E0.01744
G1 X131.052 Y98.371 E0.01750
G1 X131.596 Y98.196 E0.01790
G1 X132.135 Y98.163 E0.01695
G1 X132.681 Y98.266 E0.01742
G1 X133.185 Y98.502 E0.01745
G1 X133.616 Y98.857 E0.01752
G1 X133.948 Y99.321 E0.01788
G1 X134.147 Y99.823 E0.01693
G1 X134.217 Y100.375 E0.01744
G1 X134.147 Y100.927 E0.01744
G1 X133.948 Y101.429 E0.01693
G1 X133.616 Y101.893 E0.01788
G1 X133.186 Y102.248 E0.01751
G1 X132.697 Y102.478 E0.01694
G1 X132.137 Y102.588 E0.01790
G1 X131.580 Y102.551 E0.01748
G1 X131.066 Y102.384 E0.01695
G1 X130.583 Y102.080 E0.01791
G1 X130.203 Y101.672 E0.01746
G1 X129.942 Y101.198 E0.01696
G1 X129.815 Y100.704 E0.01599
G1 X130.177 Y100.598 F7200.000
G1 F840
G1 X130.177 Y100.152 E0.01400
G1 X130.290 Y99.706 E0.01444
G1 X130.511 Y99.301 E0.01445
G1 X130.825 Y98.964 E0.01445
G1 X131.214 Y98.715 E0.01447
G1 X131.666 Y98.570 E0.01490
G1 X132.112 Y98.542 E0.01399
G1 X132.564 Y98.627 E0.01445
G1 X132.982 Y98.823 E0.01445
G1 X133.338 Y99.117 E0.01448
G1 X133.615 Y99.503 E0.01489
G1 X133.779 Y99.918 E0.01399
G1 X133.837 Y100.375 E0.01445
G1 X133.779 Y100.832 E0.01445
G1 X133.615 Y101.247 E0.01399
G1 X133.338 Y101.633 E0.01489
G1 X132.982 Y101.927 E0.01448
G1 X132.578 Y102.117 E0.01399
G1 X132.112 Y102.208 E0.01489
G1 X131.652 Y102.178 E0.01447
G1 X131.227 Y102.040 E0.01399
G1 X130.825 Y101.787 E0.01490
G1 X130.511 Y101.449 E0.01446
G1 X130.296 Y101.058 E0.01400
G1 X130.192 Y100.657 E0.01301
G1 X129.809 Y100.443 F7200.000
G1 F5760
G1 X130.177 Y100.152 E-0.17482
G1 F5760
G1 X130.290 Y99.706 E-0.15948
G1 F5760
G1 X130.511 Y99.301 E-0.15965
G1 F5760
G1 X130.825 Y98.964 E-0.15966
G1 F5760
G1 X131.084 Y98.798 E-0.10639
G1 E-0.04000 F2100.00000
G1 X151.423 Y100.694 F7200.000
G1 E0.80000 F2100.00000
G1 F840
G1 X151.423 Y100.058 E0.01993
G1 X151.582 Y99.429 E0.02037
G1 X151.894 Y98.856 E0.02044
G1 X152.339 Y98.380 E0.02044
G1 X152.890 Y98.027 E0.02053
G1 X153.525 Y97.823 E0.02091
G1 X154.159 Y97.783 E0.01990
G1 X154.798 Y97.904 E0.02040
G1 X155.388 Y98.180 E0.02044
G1 X155.894 Y98.598 E0.02056
G1 X156.282 Y99.139 E0.02088
G1 X156.515 Y99.729 E0.01987
G1 X156.597 Y100.375 E0.02043
G1 X156.515 Y101.021 E0.02043
G1 X156.282 Y101.611 E0.01987
G1 X155.894 Y102.152 E0.02088
G1 X155.389 Y102.569 E0.02053
G1 X154.815 Y102.839 E0.01989
G1 X154.161 Y102.967 E0.02090
G1 X153.508 Y102.925 E0.02050
G1 X152.905 Y102.728 E0.01990
G1 X152.340 Y102.373 E0.02091
G1 X151.895 Y101.895 E0.02047
G1 X151.589 Y101.338 E0.01992
G1 X151.438 Y100.752 E0.01898
G1 X151.800 Y100.646 F7200.000
G1 F840
G1 X151.800 Y100.105 E0.01696
G1 X151.936 Y99.567 E0.01740
G1 X152.202 Y99.079 E0.01744
G1 X152.582 Y98.672 E0.01745
G1 X153.052 Y98.371 E0.01750
G1 X153.596 Y98.196 E0.01790
G1 X154.135 Y98.163 E0.01695
G1 X154.681 Y98.266 E0.01742
G1 X155.185 Y98.502 E0.01745
G1 X155.616 Y98.857 E0.01752
G1 X155.948 Y99.321 E0.01788
G1 X156.147 Y99.823 E0.01693
G1 X156.217 Y100.375 E0.01744
G1 X156.147 Y100.927 E0.01744
G1 X155.948 Y101.429 E0.01693
G1 X155.616 Y101.893 E0.01788
G1 X155.186 Y102.248 E0.01751
G1 X154.697 Y102.478 E0.01694
G1 X154.137 Y102.588 E0.01790
G1 X153.580 Y102.551 E0.01748
G1 X153.066 Y102.384 E0.01695
G1 X152.583 Y102.080 E0.01791
G1 X152.203 Y101.672 E0.01746
G1 X151.942 Y101.198 E0.01696
G1 X151.815 Y100.704 E0.01599
G1 X152.177 Y100.598 F7200.000
G1 F840
G1 X152.177 Y100.152 E0.01400
G1 X152.290 Y99.706 E0.01444
G1 X152.511 Y99.301 E0.01445
G1 X152.825 Y98.964 E0.01445
G1 X153.214 Y98.715 E0.01447
G1 X153.666 Y98.570 E0.01490
G1 X154.112 Y98.542 E0.01399
G1 X154.564 Y98.627 E0.01445
G1 X154.982 Y98.823 E0.01445
G1 X155.338 Y99.117 E0.01448
G1 X155.615 Y99.503 E0.01489
G1 X155.779 Y99.918 E0.01399
G1 X155.837 Y100.375 E0.01445
G1 X155.779 Y100.832 E0.01445
G1 X155.615 Y101.247 E0.01399
G1 X155.338 Y101.633 E0.01489
G1 X154.982 Y101.927 E0.01448
G1 X154.578 Y102.117 E0.01399
G1 X154.112 Y102.208 E0.01489
G1 X153.652 Y102.178 E0.01447
G1 X153.227 Y102.040 E0.01399
G1 X152.825 Y101.787 E0.01490
G1 X152.511 Y101.449 E0.01446
G1 X152.296 Y101.058 E0.01400
G1 X152.192 Y100.657 E0.01301
G1 X151.809 Y100.443 F7200.000
G1 F5760
G1 X152.177 Y100.152 E-0.17482
G1 F5760
G1 X152.290 Y99.706 E-0.15948
G1 F5760
G1 X152.511 Y99.301 E-0.15965
G1 F5760
G1 X152.825 Y98.964 E-0.15966
G1 F5760
G1 X153.084 Y98.798 E-0.10638
G1 E-0.04000 F2100.00000
G1 X98.577 Y100.692 F7200.000
G1 E0.80000 F2100.00000
G1 F840
G1 X98.418 Y101.321 E0.02037
G1 X98.106 Y101.894 E0.02044
G1 X97.661 Y102.370 E0.02044
G1 X97.110 Y102.723 E0.02053
G1 X96.475 Y102.927 E0.02091
G1 X95.841 Y102.967 E0.01990
G1 X95.202 Y102.846 E0.02040
G1 X94.612 Y102.570 E0.02044
G1 X94.109 Y102.155 E0.02044
G1 X93.723 Y101.624 E0.02056
G1 X93.483 Y101.004 E0.02087
G1 X93.403 Y100.375 E0.01987
G1 X93.485 Y99.728 E0.02044
G1 X93.725 Y99.123 E0.02042
G1 X94.098 Y98.610 E0.01988
G1 X94.608 Y98.182 E0.02088
G1 X95.201 Y97.904 E0.02052
G1 X95.824 Y97.785 E0.01989
G1 X96.490 Y97.825 E0.02090
G1 X97.112 Y98.029 E0.02054
G1 X97.661 Y98.380 E0.02044
G1 X98.105 Y98.855 E0.02038
G1 X98.411 Y99.412 E0.01992
G1 X98.577 Y100.056 E0.02086
G1 X98.577 Y100.632 E0.01805
G1 X98.200 Y100.645 F7200.000
G1 F840
G1 X98.064 Y101.183 E0.01740
G1 X97.798 Y101.671 E0.01744
G1 X97.418 Y102.078 E0.01745
G1 X96.948 Y102.379 E0.01750
G1 X96.404 Y102.554 E0.01790
G1 X95.865 Y102.587 E0.01695
G1 X95.319 Y102.484 E0.01742
G1 X94.815 Y102.248 E0.01745
G1 X94.386 Y101.894 E0.01745
G1 X94.057 Y101.442 E0.01752
G1 X93.851 Y100.911 E0.01788
G1 X93.783 Y100.375 E0.01693
G1 X93.853 Y99.823 E0.01744
G1 X94.058 Y99.306 E0.01744
G1 X94.376 Y98.869 E0.01693
G1 X94.813 Y98.503 E0.01789
G1 X95.318 Y98.266 E0.01750
G1 X95.849 Y98.165 E0.01694
G1 X96.419 Y98.198 E0.01790
G1 X96.949 Y98.372 E0.01751
G1 X97.418 Y98.672 E0.01744
G1 X97.797 Y99.078 E0.01741
G1 X98.058 Y99.552 E0.01696
G1 X98.200 Y100.104 E0.01788
G1 X98.200 Y100.585 E0.01508
G1 X97.823 Y100.598 F7200.000
G1 F840
G1 X97.710 Y101.044 E0.01444
G1 X97.489 Y101.449 E0.01445
G1 X97.175 Y101.786 E0.01445
G1 X96.786 Y102.035 E0.01447
G1 X96.334 Y102.180 E0.01490
G1 X95.888 Y102.208 E0.01399
G1 X95.436 Y102.123 E0.01445
G1 X95.018 Y101.927 E0.01445
G1 X94.662 Y101.634 E0.01446
G1 X94.391 Y101.260 E0.01448
G1 X94.219 Y100.817 E0.01489
G1 X94.163 Y100.375 E0.01398
G1 X94.221 Y99.918 E0.01445
G1 X94.391 Y99.489 E0.01445
G1 X94.653 Y99.128 E0.01399
G1 X95.017 Y98.823 E0.01489
G1 X95.435 Y98.627 E0.01447
G1 X95.874 Y98.544 E0.01399
G1 X96.348 Y98.572 E0.01490
G1 X96.787 Y98.716 E0.01448
G1 X97.175 Y98.964 E0.01445
G1 X97.489 Y99.301 E0.01444
G1 X97.704 Y99.692 E0.01400
G1 X97.823 Y100.152 E0.01489
G1 X97.823 Y100.538 E0.01212
G1 X98.142 Y100.838 F7200.000
G1 F5760
G1 X97.710 Y101.044 E-0.17970
G1 F5760
G1 X97.489 Y101.449 E-0.15965
G1 F5760
G1 X97.175 Y101.786 E-0.15966
G1 F5760
G1 X96.786 Y102.035 E-0.15989
G1 F5760
G1 X96.508 Y102.124 E-0.10110
G1 E-0.04000 F2100.00000
G1 X151.911 Y104.411 F7200.000
G1 E0.80000 F2100.00000
G1 F1680
G1 X151.911 Y112.226 E0.24503
G1 X150.476 Y113.661 E0.06364
G1 X135.524 Y113.661 E0.46879
G1 X134.089 Y112.226 E0.06364
G1 X134.089 Y111.411 E0.02555
G1 X115.911 Y111.411 E0.56997
G1 X115.911 Y112.226 E0.02555
G1 X114.476 Y113.661 E0.06364
G1 X99.524 Y113.661 E0.46879
G1 X98.089 Y112.226 E0.06364
G1 X98.089 Y104.411 E0.24503
G1 X94.274 Y104.411 E0.11961
G1 X92.339 Y102.476 E0.08581
G1 X92.339 Y98.274 E0.13173
G1 X94.274 Y96.339 E0.08581
G1 X155.726 Y96.339 E1.92676
G1 X157.661 Y98.274 E0.08581
G1 X157.661 Y102.476 E0.13173
G1 X155.726 Y104.411 E0.08581
G1 X151.971 Y104.411 E0.11773
G1 X152.288 Y104.788 F7200.000
G1 F1680
G1 X152.288 Y112.382 E0.23810
G1 X150.632 Y114.038 E0.07343
G1 X135.368 Y114.038 E0.47858
G1 X133.712 Y112.382 E0.07343
G1 X133.712 Y111.788 E0.01862
G1 X116.288 Y111.788 E0.54632
G1 X116.288 Y112.382 E0.01862
G1 X114.632 Y114.038 E0.07343
G1 X99.368 Y114.038 E0.47858
G1 X97.712 Y112.382 E0.07343
G1 X97.712 Y104.788 E0.23810
G1 X94.118 Y104.788 E0.11268
G1 X91.962 Y102.632 E0.09560
G1 X91.962 Y98.118 E0.14152
G1 X94.118 Y95.962 E0.09560
G1 X155.882 Y95.962 E1.93656
G1 X158.038 Y98.118 E0.09561
G1 X158.038 Y102.632 E0.14152
G1 X155.882 Y104.788 E0.09560
G1 X152.348 Y104.788 E0.11080
G1 X152.665 Y105.165 F7200.000
G1 F1260
G1 X152.665 Y112.538 E0.23118
G1 X150.788 Y114.415 E0.08323
G1 X135.212 Y114.415 E0.48838
G1 X133.335 Y112.538 E0.08323
G1 X133.335 Y112.165 E0.01170
G1 X116.665 Y112.165 E0.52268
G1 X116.665 Y112.538 E0.01170
G1 X114.788 Y114.415 E0.08323
G1 X99.212 Y114.415 E0.48838
G1 X97.335 Y112.538 E0.08323
G1 X97.335 Y105.165 E0.23118
G1 X93.962 Y105.165 E0.10576
G1 X91.585 Y102.788 E0.10540
G1 X91.585 Y97.962 E0.15132
G1 X93.962 Y95.585 E0.10540
G1 X156.038 Y95.585 E1.94635
G1 X158.415 Y97.962 E0.10540
G1 X158.415 Y102.788 E0.15132
G1 X156.038 Y105.165 E0.10540
G1 X152.725 Y105.165 E0.10388
G1 X152.268 Y105.217 F7200.000
G1 F5760
G1 X152.707 Y107.359 E-0.76000
G1 E-0.04000 F2100.00000
G1 X153.659 Y104.298 F7200.000
G1 E0.80000 F2100.00000
G1 F1680
G1 X145.983 Y96.622 E0.34128
G1 X145.448 Y96.622 E0.01681
G1 X152.954 Y104.128 E0.33374
G1 X152.419 Y104.128 E0.01681
G1 X144.913 Y96.622 E0.33374
G1 X144.379 Y96.622 E0.01681
G1 X151.885 Y104.128 E0.33374
G1 X151.628 Y104.128 E0.00807
G1 X151.628 Y104.406 E0.00874
G1 X143.844 Y96.622 E0.34610
G1 X143.309 Y96.622 E0.01681
G1 X151.628 Y104.941 E0.36987
G1 X151.628 Y105.476 E0.01681
G1 X142.774 Y96.622 E0.39365
G1 X142.240 Y96.622 E0.01681
