; generated by Slic3r 1.33.8-prusa3d-win64 on 2017-03-11 at 00:30:23

; external perimeters extrusion width = 0.45mm
; perimeters extrusion width = 0.45mm
; infill extrusion width = 0.45mm
; solid infill extrusion width = 0.45mm
; top infill extrusion width = 0.40mm

M107
M115 U3.0.10 ; tell printer latest fw version
M83  ; extruder relative mode
M104 S215 ; set extruder temp
M140 S55 ; set bed temp
M190 S55 ; wait for bed temp
M109 S215 ; wait for extruder temp
G28 W ; home all without mesh bed level
G80 ; mesh bed leveling
G1 Y-3.0 F1000.0 ; go outside pritn area
G1 X60.0 E9.0  F1000.0 ; intro line
G1 X100.0 E12.5  F1000.0 ; intro line
G21 ; set units to millimeters
G90 ; use absolute coordinates
M83 ; use relative distances for extrusion
G1 E-0.80000 F2100.00000
G1 Z0.200 F7200.000
G1 X89.006 Y92.302 F7200.000
G1 E0.80000 F2100.00000
M204 S1000
G1 F2100
G1 X89.061 Y91.956 E0.01098
G1 X89.166 Y91.622 E0.01098
G1 X89.321 Y91.304 E0.01110
G1 X89.519 Y91.015 E0.01098
G1 X89.688 Y90.825 E0.00800
G1 X92.202 Y88.311 E0.11147
G1 X92.527 Y88.042 E0.01324
G1 X92.899 Y87.833 E0.01336
G1 X93.298 Y87.694 E0.01324
G1 X93.718 Y87.628 E0.01336
G1 X156.129 Y87.623 E1.95683
G1 X156.538 Y87.659 E0.01288
G1 X156.935 Y87.765 E0.01288
G1 X157.350 Y87.963 E0.01443
G1 X157.723 Y88.240 E0.01455
G1 X160.380 Y90.896 E0.11780
G1 X160.602 Y91.181 E0.01133
G1 X160.781 Y91.499 E0.01145
G1 X160.909 Y91.842 E0.01145
G1 X160.983 Y92.196 E0.01133
G1 X161.002 Y92.500 E0.00956
G1 X161.002 Y117.511 E0.78422
G1 X160.966 Y117.913 E0.01264
G1 X160.861 Y118.306 E0.01276
G1 X160.662 Y118.725 E0.01455
G1 X160.382 Y119.101 E0.01467
G1 X157.700 Y121.780 E0.11887
G1 X157.383 Y122.017 E0.01241
G1 X157.031 Y122.197 E0.01241
G1 X156.654 Y122.317 E0.01241
G1 X156.263 Y122.373 E0.01241
G1 X93.871 Y122.377 E1.95624
G1 X93.466 Y122.342 E0.01276
G1 X93.069 Y122.236 E0.01288
G1 X92.650 Y122.037 E0.01455
G1 X92.277 Y121.760 E0.01455
G1 X89.623 Y119.107 E0.11768
G1 X89.402 Y118.825 E0.01122
G1 X89.224 Y118.511 E0.01133
G1 X89.095 Y118.173 E0.01133
G1 X89.019 Y117.820 E0.01133
G1 X88.998 Y117.500 E0.01004
G1 X89.002 Y92.362 E0.78818
G1 F5760
G1 X89.061 Y91.956 E-0.14198
G1 F5760
G1 X89.166 Y91.622 E-0.12126
G1 F5760
G1 X89.321 Y91.304 E-0.12258
G1 F5760
G1 X89.519 Y91.015 E-0.12126
G1 F5760
G1 X89.688 Y90.825 E-0.08835
G1 F5760
G1 X90.024 Y90.489 E-0.16457
G1 E-0.04000 F2100.00000
G1 X151.582 Y114.054 F7200.000
G1 E0.80000 F2100.00000
G1 F840
G1 X151.894 Y113.481 E0.02044
G1 X152.338 Y113.005 E0.02044
G1 X152.890 Y112.652 E0.02053
G1 X153.525 Y112.448 E0.02091
G1 X154.159 Y112.408 E0.01990
G1 X154.798 Y112.529 E0.02040
G1 X155.388 Y112.805 E0.02044
G1 X155.894 Y113.223 E0.02056
G1 X156.282 Y113.764 E0.02088
G1 X156.515 Y114.354 E0.01987
G1 X156.597 Y115.000 E0.02043
G1 X156.515 Y115.646 E0.02043
G1 X156.282 Y116.236 E0.01987
G1 X155.894 Y116.777 E0.02088
G1 X155.389 Y117.194 E0.02053
G1 X154.815 Y117.464 E0.01989
G1 X154.161 Y117.592 E0.02090
G1 X153.508 Y117.550 E0.02050
G1 X152.905 Y117.353 E0.01990
G1 X152.340 Y116.998 E0.02092
G1 X151.895 Y116.520 E0.02047
G1 X151.589 Y115.963 E0.01992
G1 X151.423 Y115.319 E0.02086
G1 X151.423 Y114.683 E0.01993
G1 X151.567 Y114.112 E0.01848
G1 X151.936 Y114.192 F7200.000
G1 F840
G1 X152.202 Y113.704 E0.01744
G1 X152.582 Y113.297 E0.01744
G1 X153.052 Y112.996 E0.01750
G1 X153.596 Y112.821 E0.01790
G1 X154.135 Y112.788 E0.01695
G1 X154.681 Y112.891 E0.01742
G1 X155.185 Y113.127 E0.01745
G1 X155.616 Y113.482 E0.01752
G1 X155.948 Y113.946 E0.01788
G1 X156.147 Y114.448 E0.01693
G1 X156.217 Y115.000 E0.01744
G1 X156.147 Y115.552 E0.01744
G1 X155.948 Y116.054 E0.01693
G1 X155.616 Y116.518 E0.01788
G1 X155.186 Y116.873 E0.01750
G1 X154.697 Y117.103 E0.01694
G1 X154.137 Y117.213 E0.01790
G1 X153.580 Y117.176 E0.01748
G1 X153.066 Y117.009 E0.01695
G1 X152.583 Y116.705 E0.01791
G1 X152.203 Y116.297 E0.01746
G1 X151.942 Y115.823 E0.01696
G1 X151.800 Y115.271 E0.01788
G1 X151.800 Y114.730 E0.01696
G1 X151.921 Y114.250 E0.01552
G1 X152.290 Y114.331 F7200.000
G1 F840
G1 X152.511 Y113.926 E0.01445
G1 X152.825 Y113.589 E0.01445
G1 X153.214 Y113.340 E0.01447
G1 X153.666 Y113.195 E0.01490
G1 X154.112 Y113.167 E0.01399
G1 X154.564 Y113.252 E0.01445
G1 X154.982 Y113.448 E0.01445
G1 X155.338 Y113.742 E0.01448
G1 X155.615 Y114.128 E0.01489
G1 X155.779 Y114.543 E0.01399
G1 X155.837 Y115.000 E0.01445
G1 X155.779 Y115.457 E0.01445
G1 X155.615 Y115.872 E0.01399
G1 X155.338 Y116.258 E0.01489
G1 X154.982 Y116.552 E0.01448
G1 X154.578 Y116.742 E0.01399
G1 X154.112 Y116.833 E0.01489
G1 X153.652 Y116.803 E0.01447
G1 X153.227 Y116.665 E0.01399
G1 X152.825 Y116.412 E0.01490
G1 X152.511 Y116.074 E0.01446
G1 X152.296 Y115.683 E0.01400
G1 X152.177 Y115.223 E0.01489
G1 X152.177 Y114.777 E0.01400
G1 X152.275 Y114.389 E0.01256
G1 X152.041 Y114.018 F7200.000
G1 F5760
G1 X152.511 Y113.926 E-0.17985
G1 F5760
G1 X152.825 Y113.589 E-0.15966
G1 F5760
G1 X153.214 Y113.340 E-0.15989
G1 F5760
G1 X153.666 Y113.195 E-0.16457
G1 F5760
G1 X153.943 Y113.177 E-0.09604
G1 E-0.04000 F2100.00000
G1 X153.508 Y97.550 F7200.000
G1 E0.80000 F2100.00000
G1 F840
G1 X152.905 Y97.353 E0.01990
G1 X152.340 Y96.998 E0.02092
G1 X151.895 Y96.520 E0.02047
G1 X151.589 Y95.963 E0.01992
G1 X151.423 Y95.319 E0.02086
G1 X151.423 Y94.683 E0.01993
G1 X151.582 Y94.054 E0.02037
G1 X151.894 Y93.481 E0.02044
G1 X152.338 Y93.005 E0.02044
G1 X152.890 Y92.652 E0.02053
G1 X153.525 Y92.448 E0.02091
G1 X154.159 Y92.408 E0.01990
G1 X154.798 Y92.529 E0.02040
G1 X155.388 Y92.805 E0.02044
G1 X155.894 Y93.223 E0.02056
G1 X156.282 Y93.764 E0.02088
G1 X156.515 Y94.354 E0.01987
G1 X156.597 Y95.000 E0.02043
G1 X156.515 Y95.646 E0.02043
G1 X156.282 Y96.236 E0.01987
G1 X155.894 Y96.777 E0.02088
G1 X155.389 Y97.194 E0.02053
G1 X154.815 Y97.464 E0.01989
G1 X154.161 Y97.592 E0.02090
G1 X153.568 Y97.553 E0.01862
G1 X153.580 Y97.176 F7200.000
G1 F840
G1 X153.066 Y97.009 E0.01695
G1 X152.583 Y96.705 E0.01791
G1 X152.203 Y96.297 E0.01746
G1 X151.942 Y95.823 E0.01696
G1 X151.800 Y95.271 E0.01788
G1 X151.800 Y94.730 E0.01696
G1 X151.936 Y94.192 E0.01740
G1 X152.202 Y93.704 E0.01744
G1 X152.582 Y93.297 E0.01744
G1 X153.052 Y92.996 E0.01750
G1 X153.596 Y92.821 E0.01790
G1 X154.135 Y92.788 E0.01695
G1 X154.681 Y92.891 E0.01742
G1 X155.185 Y93.127 E0.01745
G1 X155.616 Y93.482 E0.01752
G1 X155.948 Y93.946 E0.01788
G1 X156.147 Y94.448 E0.01693
G1 X156.217 Y95.000 E0.01744
G1 X156.147 Y95.552 E0.01744
G1 X155.948 Y96.054 E0.01693
G1 X155.616 Y96.518 E0.01788
G1 X155.186 Y96.873 E0.01750
G1 X154.697 Y97.103 E0.01694
G1 X154.137 Y97.213 E0.01790
G1 X153.640 Y97.180 E0.01560
G1 X153.652 Y96.803 F7200.000
G1 F840
G1 X153.227 Y96.665 E0.01399
G1 X152.825 Y96.412 E0.01490
G1 X152.511 Y96.074 E0.01446
G1 X152.296 Y95.683 E0.01400
G1 X152.177 Y95.223 E0.01489
G1 X152.177 Y94.777 E0.01400
G1 X152.290 Y94.331 E0.01444
G1 X152.511 Y93.926 E0.01445
G1 X152.825 Y93.589 E0.01445
G1 X153.214 Y93.340 E0.01447
G1 X153.666 Y93.195 E0.01490
G1 X154.112 Y93.167 E0.01399
G1 X154.564 Y93.252 E0.01445
G1 X154.982 Y93.448 E0.01445
G1 X155.338 Y93.742 E0.01448
G1 X155.615 Y94.128 E0.01489
G1 X155.779 Y94.543 E0.01399
G1 X155.837 Y95.000 E0.01445
G1 X155.779 Y95.457 E0.01445
G1 X155.615 Y95.872 E0.01399
G1 X155.338 Y96.258 E0.01489
G1 X154.982 Y96.552 E0.01448
G1 X154.578 Y96.742 E0.01399
G1 X154.112 Y96.833 E0.01489
G1 X153.712 Y96.807 E0.01259
G1 X153.391 Y97.106 F7200.000
G1 F5760
G1 X153.227 Y96.665 E-0.17478
G1 F5760
G1 X152.825 Y96.412 E-0.16459
G1 F5760
G1 X152.511 Y96.074 E-0.15973
G1 F5760
G1 X152.296 Y95.683 E-0.15460
G1 F5760
G1 X152.219 Y95.386 E-0.10630
G1 E-0.04000 F2100.00000
G1 X134.597 Y95.000 F7200.000
G1 E0.80000 F2100.00000
G1 F840
G1 X134.515 Y95.646 E0.02043
G1 X134.282 Y96.236 E0.01987
G1 X133.894 Y96.777 E0.02088
G1 X133.389 Y97.194 E0.02053
G1 X132.815 Y97.464 E0.01989
G1 X132.161 Y97.592 E0.02090
G1 X131.508 Y97.550 E0.02050
G1 X130.905 Y97.353 E0.01990
G1 X130.340 Y96.998 E0.02092
G1 X129.895 Y96.520 E0.02047
G1 X129.589 Y95.963 E0.01992
G1 X129.423 Y95.319 E0.02086
G1 X129.423 Y94.683 E0.01993
G1 X129.582 Y94.054 E0.02037
G1 X129.894 Y93.481 E0.02044
G1 X130.338 Y93.005 E0.02044
G1 X130.890 Y92.652 E0.02053
G1 X131.525 Y92.448 E0.02091
G1 X132.159 Y92.408 E0.01990
G1 X132.798 Y92.529 E0.02040
G1 X133.388 Y92.805 E0.02044
G1 X133.894 Y93.223 E0.02056
G1 X134.282 Y93.764 E0.02088
G1 X134.515 Y94.354 E0.01987
G1 X134.589 Y94.940 E0.01855
G1 X134.217 Y95.000 F7200.000
G1 F840
G1 X134.147 Y95.552 E0.01744
G1 X133.948 Y96.054 E0.01693
G1 X133.616 Y96.518 E0.01788
G1 X133.186 Y96.873 E0.01750
G1 X132.697 Y97.103 E0.01694
G1 X132.137 Y97.213 E0.01790
G1 X131.580 Y97.176 E0.01748
G1 X131.066 Y97.009 E0.01695
G1 X130.583 Y96.705 E0.01791
G1 X130.203 Y96.297 E0.01746
G1 X129.942 Y95.823 E0.01696
G1 X129.800 Y95.271 E0.01788
G1 X129.800 Y94.730 E0.01696
G1 X129.936 Y94.192 E0.01740
G1 X130.202 Y93.704 E0.01744
G1 X130.582 Y93.297 E0.01744
G1 X131.052 Y92.996 E0.01750
G1 X131.596 Y92.821 E0.01790
G1 X132.135 Y92.788 E0.01695
G1 X132.681 Y92.891 E0.01742
G1 X133.185 Y93.127 E0.01745
G1 X133.616 Y93.482 E0.01752
G1 X133.948 Y93.946 E0.01788
G1 X134.147 Y94.448 E0.01693
G1 X134.209 Y94.940 E0.01556
G1 X133.837 Y95.000 F7200.000
G1 F840
G1 X133.779 Y95.457 E0.01445
G1 X133.615 Y95.872 E0.01399
G1 X133.338 Y96.258 E0.01489
G1 X132.982 Y96.552 E0.01448
G1 X132.578 Y96.742 E0.01399
G1 X132.112 Y96.833 E0.01489
G1 X131.652 Y96.803 E0.01447
G1 X131.227 Y96.665 E0.01399
G1 X130.825 Y96.412 E0.01490
G1 X130.511 Y96.074 E0.01446
G1 X130.296 Y95.683 E0.01400
G1 X130.177 Y95.223 E0.01489
G1 X130.177 Y94.777 E0.01400
G1 X130.290 Y94.331 E0.01444
G1 X130.511 Y93.926 E0.01445
G1 X130.825 Y93.589 E0.01445
G1 X131.214 Y93.340 E0.01447
G1 X131.666 Y93.195 E0.01490
G1 X132.112 Y93.167 E0.01399
G1 X132.564 Y93.252 E0.01445
G1 X132.982 Y93.448 E0.01445
G1 X133.338 Y93.742 E0.01448
G1 X133.615 Y94.128 E0.01489
G1 X133.779 Y94.543 E0.01399
G1 X133.829 Y94.940 E0.01257
G1 X134.183 Y95.200 F7200.000
G1 F5760
G1 X133.779 Y95.457 E-0.17986
G1 F5760
G1 X133.615 Y95.872 E-0.15449
G1 F5760
G1 X133.338 Y96.258 E-0.16446
G1 F5760
G1 X132.982 Y96.552 E-0.15991
G1 F5760
G1 X132.717 Y96.676 E-0.10127
G1 E-0.04000 F2100.00000
G1 X120.577 Y94.681 F7200.000
G1 E0.80000 F2100.00000
G1 F840
G1 X120.577 Y95.317 E0.01993
G1 X120.418 Y95.946 E0.02037
G1 X120.106 Y96.519 E0.02044
G1 X119.661 Y96.995 E0.02044
G1 X119.110 Y97.348 E0.02053
G1 X118.475 Y97.552 E0.02091
G1 X117.841 Y97.592 E0.01990
G1 X117.202 Y97.471 E0.02040
G1 X116.612 Y97.195 E0.02044
G1 X116.109 Y96.780 E0.02044
G1 X115.723 Y96.249 E0.02056
G1 X115.483 Y95.629 E0.02087
G1 X115.403 Y95.000 E0.01987
G1 X115.485 Y94.353 E0.02044
G1 X115.725 Y93.748 E0.02042
G1 X116.098 Y93.235 E0.01988
G1 X116.608 Y92.807 E0.02088
G1 X117.201 Y92.529 E0.02052
G1 X117.824 Y92.410 E0.01989
G1 X118.490 Y92.450 E0.02090
G1 X119.112 Y92.654 E0.02054
G1 X119.661 Y93.005 E0.02044
G1 X120.105 Y93.480 E0.02038
G1 X120.411 Y94.037 E0.01992
G1 X120.562 Y94.623 E0.01898
G1 X120.200 Y94.729 F7200.000
G1 F840
G1 X120.200 Y95.270 E0.01696
G1 X120.064 Y95.808 E0.01740
G1 X119.798 Y96.296 E0.01744
G1 X119.418 Y96.703 E0.01744
G1 X118.948 Y97.004 E0.01750
G1 X118.404 Y97.179 E0.01790
G1 X117.865 Y97.212 E0.01695
G1 X117.319 Y97.109 E0.01742
G1 X116.815 Y96.873 E0.01745
G1 X116.386 Y96.519 E0.01745
G1 X116.057 Y96.067 E0.01752
G1 X115.851 Y95.536 E0.01788
G1 X115.783 Y95.000 E0.01693
G1 X115.853 Y94.448 E0.01745
G1 X116.058 Y93.931 E0.01744
G1 X116.376 Y93.494 E0.01693
G1 X116.813 Y93.128 E0.01789
G1 X117.318 Y92.891 E0.01750
G1 X117.849 Y92.790 E0.01694
G1 X118.419 Y92.823 E0.01790
G1 X118.949 Y92.997 E0.01751
G1 X119.418 Y93.297 E0.01745
G1 X119.797 Y93.703 E0.01741
G1 X120.058 Y94.177 E0.01696
G1 X120.185 Y94.671 E0.01599
G1 X119.823 Y94.777 F7200.000
G1 F840
G1 X119.823 Y95.223 E0.01400
G1 X119.710 Y95.669 E0.01444
G1 X119.489 Y96.074 E0.01445
G1 X119.175 Y96.411 E0.01445
G1 X118.786 Y96.660 E0.01447
G1 X118.334 Y96.805 E0.01490
G1 X117.888 Y96.833 E0.01399
G1 X117.436 Y96.748 E0.01445
G1 X117.018 Y96.552 E0.01445
G1 X116.662 Y96.259 E0.01445
G1 X116.391 Y95.885 E0.01448
G1 X116.219 Y95.442 E0.01489
G1 X116.163 Y95.000 E0.01398
G1 X116.221 Y94.543 E0.01445
G1 X116.391 Y94.114 E0.01445
G1 X116.653 Y93.753 E0.01399
G1 X117.017 Y93.448 E0.01489
G1 X117.435 Y93.252 E0.01447
G1 X117.874 Y93.169 E0.01399
G1 X118.348 Y93.197 E0.01490
G1 X118.787 Y93.340 E0.01448
G1 X119.175 Y93.589 E0.01445
G1 X119.489 Y93.926 E0.01444
G1 X119.704 Y94.317 E0.01400
G1 X119.808 Y94.718 E0.01301
G1 X120.191 Y94.932 F7200.000
G1 F5760
G1 X119.823 Y95.223 E-0.17483
G1 F5760
G1 X119.710 Y95.669 E-0.15948
G1 F5760
G1 X119.489 Y96.074 E-0.15965
G1 F5760
G1 X119.175 Y96.411 E-0.15966
G1 F5760
G1 X118.916 Y96.577 E-0.10638
G1 E-0.04000 F2100.00000
G1 X115.911 Y99.036 F7200.000
G1 E0.80000 F2100.00000
G1 F1680
G1 X134.089 Y99.036 E0.56997
G1 X134.089 Y110.964 E0.37400
G1 X115.911 Y110.964 E0.56997
G1 X115.911 Y99.096 E0.37212
G1 X116.288 Y99.413 F7200.000
G1 F1680
G1 X133.712 Y99.413 E0.54632
G1 X133.712 Y110.587 E0.35036
G1 X116.288 Y110.587 E0.54632
G1 X116.288 Y99.473 E0.34848
G1 X116.665 Y99.790 F7200.000
G1 F1260
G1 X133.335 Y99.790 E0.52268
G1 X133.335 Y110.210 E0.32671
G1 X116.665 Y110.210 E0.52268
G1 X116.665 Y99.850 E0.32483
G1 X116.533 Y99.413 F7200.000
G1 F5760
G1 X118.859 Y99.842 E-0.76000
G1 E-0.04000 F2100.00000
G1 X117.824 Y112.410 F7200.000
G1 E0.80000 F2100.00000
G1 F840
G1 X118.490 Y112.450 E0.02090
G1 X119.112 Y112.654 E0.02054
G1 X119.661 Y113.005 E0.02044
G1 X120.105 Y113.480 E0.02038
G1 X120.411 Y114.037 E0.01992
G1 X120.577 Y114.681 E0.02086
G1 X120.577 Y115.317 E0.01993
G1 X120.418 Y115.946 E0.02037
G1 X120.106 Y116.519 E0.02044
G1 X119.661 Y116.995 E0.02044
G1 X119.110 Y117.348 E0.02053
G1 X118.475 Y117.552 E0.02091
G1 X117.841 Y117.592 E0.01990
G1 X117.202 Y117.471 E0.02040
G1 X116.612 Y117.195 E0.02044
G1 X116.109 Y116.780 E0.02044
G1 X115.723 Y116.249 E0.02056
G1 X115.483 Y115.629 E0.02087
G1 X115.403 Y115.000 E0.01987
G1 X115.485 Y114.353 E0.02044
G1 X115.725 Y113.748 E0.02042
G1 X116.098 Y113.235 E0.01988
G1 X116.608 Y112.807 E0.02088
G1 X117.201 Y112.529 E0.02052
G1 X117.765 Y112.422 E0.01801
G1 X117.849 Y112.790 F7200.000
G1 F840
G1 X118.419 Y112.823 E0.01790
G1 X118.949 Y112.997 E0.01751
G1 X119.418 Y113.297 E0.01745
G1 X119.797 Y113.703 E0.01741
G1 X120.058 Y114.177 E0.01696
G1 X120.200 Y114.729 E0.01788
G1 X120.200 Y115.270 E0.01696
G1 X120.064 Y115.808 E0.01740
G1 X119.798 Y116.296 E0.01744
G1 X119.418 Y116.703 E0.01744
G1 X118.948 Y117.004 E0.01750
G1 X118.404 Y117.179 E0.01790
G1 X117.865 Y117.212 E0.01695
G1 X117.319 Y117.109 E0.01742
G1 X116.815 Y116.873 E0.01745
G1 X116.386 Y116.519 E0.01745
G1 X116.057 Y116.067 E0.01752
G1 X115.851 Y115.536 E0.01788
G1 X115.783 Y115.000 E0.01693
G1 X115.853 Y114.448 E0.01745
G1 X116.058 Y113.931 E0.01744
G1 X116.376 Y113.494 E0.01693
G1 X116.813 Y113.128 E0.01789
G1 X117.318 Y112.891 E0.01750
G1 X117.790 Y112.801 E0.01506
G1 X117.874 Y113.169 F7200.000
G1 F840
G1 X118.348 Y113.197 E0.01490
G1 X118.787 Y113.340 E0.01448
G1 X119.175 Y113.589 E0.01445
G1 X119.489 Y113.926 E0.01444
G1 X119.704 Y114.317 E0.01400
G1 X119.823 Y114.777 E0.01489
G1 X119.823 Y115.223 E0.01400
G1 X119.710 Y115.669 E0.01444
G1 X119.489 Y116.074 E0.01445
G1 X119.175 Y116.411 E0.01445
G1 X118.786 Y116.660 E0.01447
G1 X118.334 Y116.805 E0.01490
G1 X117.888 Y116.833 E0.01399
G1 X117.436 Y116.748 E0.01445
G1 X117.018 Y116.552 E0.01445
G1 X116.662 Y116.259 E0.01445
G1 X116.391 Y115.885 E0.01448
G1 X116.219 Y115.442 E0.01489
G1 X116.163 Y115.000 E0.01398
G1 X116.221 Y114.543 E0.01445
G1 X116.391 Y114.114 E0.01445
G1 X116.653 Y113.753 E0.01399
G1 X117.017 Y113.448 E0.01489
G1 X117.435 Y113.252 E0.01447
G1 X117.815 Y113.180 E0.01211
G1 X118.050 Y112.810 F7200.000
G1 F5760
G1 X118.348 Y113.197 E-0.18477
G1 F5760
G1 X118.787 Y113.340 E-0.15991
G1 F5760
G1 X119.175 Y113.589 E-0.15966
G1 F5760
G1 X119.489 Y113.926 E-0.15952
G1 F5760
G1 X119.623 Y114.169 E-0.09615
G1 E-0.04000 F2100.00000
G1 X129.423 Y114.683 F7200.000
G1 E0.80000 F2100.00000
