; generated by Slic3r 1.33.8-prusa3d-win64 on 2017-03-11 at 00:29:15

; external perimeters extrusion width = 0.45mm
; perimeters extrusion width = 0.45mm
; infill extrusion width = 0.45mm
; solid infill extrusion width = 0.45mm
; top infill extrusion width = 0.40mm

M107
M115 U3.0.10 ; tell printer latest fw version
M83  ; extruder relative mode
M104 S215 ; set extruder temp
M140 S55 ; set bed temp
M190 S55 ; wait for bed temp
M109 S215 ; wait for extruder temp
G28 W ; home all without mesh bed level
G80 ; mesh bed leveling
G1 Y-3.0 F1000.0 ; go outside pritn area
G1 X60.0 E9.0  F1000.0 ; intro line
G1 X100.0 E12.5  F1000.0 ; intro line
G21 ; set units to millimeters
G90 ; use absolute coordinates
M83 ; use relative distances for extrusion
G1 E-0.80000 F2100.00000
G1 Z0.200 F7200.000
G1 X92.340 Y98.185 F7200.000
G1 E0.80000 F2100.00000
M204 S1000
G1 F2100
G1 X92.675 Y97.948 E0.01288
G1 X93.047 Y97.772 E0.01288
G1 X93.443 Y97.663 E0.01288
G1 X93.855 Y97.623 E0.01300
G1 X156.125 Y97.623 E1.95242
G1 X156.455 Y97.646 E0.01038
G1 X156.798 Y97.720 E0.01098
G1 X157.125 Y97.844 E0.01098
G1 X157.431 Y98.014 E0.01098
G1 X157.711 Y98.230 E0.01110
G1 X160.361 Y100.877 E0.11744
G1 X160.607 Y101.187 E0.01241
G1 X160.797 Y101.534 E0.01241
G1 X160.942 Y101.971 E0.01443
G1 X161.001 Y102.431 E0.01455
G1 X161.002 Y107.511 E0.15930
G1 X160.979 Y107.830 E0.01002
G1 X160.911 Y108.151 E0.01026
G1 X160.800 Y108.458 E0.01026
G1 X160.648 Y108.748 E0.01026
G1 X160.457 Y109.014 E0.01026
G1 X157.779 Y111.708 E0.11910
G1 X157.457 Y111.969 E0.01300
G1 X157.091 Y112.172 E0.01312
G1 X156.699 Y112.307 E0.01300
G1 X156.285 Y112.372 E0.01312
G1 X93.875 Y112.377 E1.95683
G1 X93.545 Y112.354 E0.01038
G1 X93.228 Y112.287 E0.01014
G1 X92.920 Y112.177 E0.01026
G1 X92.630 Y112.025 E0.01026
G1 X92.364 Y111.835 E0.01026
G1 X89.675 Y109.162 E0.11886
G1 X89.417 Y108.848 E0.01276
G1 X89.216 Y108.494 E0.01276
G1 X89.078 Y108.111 E0.01276
G1 X89.007 Y107.710 E0.01276
G1 X88.998 Y102.454 E0.16478
G1 X89.035 Y102.083 E0.01169
G1 X89.129 Y101.722 E0.01169
G1 X89.328 Y101.291 E0.01490
G1 X89.612 Y100.905 E0.01502
G1 X92.295 Y98.224 E0.11890
G1 F5760
G1 X92.675 Y97.948 E-0.16299
G1 F5760
G1 X93.047 Y97.772 E-0.14230
G1 F5760
G1 X93.443 Y97.663 E-0.14230
G1 F5760
G1 X93.855 Y97.623 E-0.14362
G1 F5760
G1 X94.343 Y97.623 E-0.16878
G1 E-0.04000 F2100.00000
G1 X129.423 Y104.683 F7200.000
G1 E0.80000 F2100.00000
G1 F840
G1 X129.582 Y104.054 E0.02037
G1 X129.894 Y103.481 E0.02044
G1 X130.338 Y103.005 E0.02044
G1 X130.890 Y102.652 E0.02053
G1 X131.525 Y102.448 E0.02091
G1 X132.159 Y102.408 E0.01990
G1 X132.798 Y102.529 E0.02040
G1 X133.388 Y102.805 E0.02044
G1 X133.894 Y103.223 E0.02056
G1 X134.282 Y103.764 E0.02088
G1 X134.515 Y104.354 E0.01987
G1 X134.597 Y105.000 E0.02043
G1 X134.515 Y105.646 E0.02043
G1 X134.282 Y106.236 E0.01987
G1 X133.894 Y106.777 E0.02088
G1 X133.389 Y107.194 E0.02053
G1 X132.815 Y107.464 E0.01989
G1 X132.161 Y107.592 E0.02090
G1 X131.508 Y107.550 E0.02050
G1 X130.905 Y107.353 E0.01991
G1 X130.340 Y106.998 E0.02092
G1 X129.895 Y106.520 E0.02047
G1 X129.589 Y105.963 E0.01992
G1 X129.423 Y105.319 E0.02086
G1 X129.423 Y104.743 E0.01805
G1 X129.800 Y104.730 F7200.000
G1 F840
G1 X129.936 Y104.192 E0.01740
G1 X130.202 Y103.704 E0.01744
G1 X130.582 Y103.297 E0.01744
G1 X131.052 Y102.996 E0.01750
G1 X131.596 Y102.821 E0.01790
G1 X132.135 Y102.788 E0.01695
G1 X132.681 Y102.891 E0.01742
G1 X133.185 Y103.127 E0.01745
G1 X133.616 Y103.482 E0.01752
G1 X133.948 Y103.946 E0.01788
G1 X134.147 Y104.448 E0.01693
G1 X134.217 Y105.000 E0.01744
G1 X134.147 Y105.552 E0.01744
G1 X133.948 Y106.054 E0.01693
G1 X133.616 Y106.518 E0.01788
G1 X133.186 Y106.873 E0.01750
G1 X132.697 Y107.103 E0.01694
G1 X132.137 Y107.213 E0.01790
G1 X131.580 Y107.176 E0.01748
G1 X131.066 Y107.009 E0.01695
G1 X130.583 Y106.705 E0.01791
G1 X130.203 Y106.297 E0.01746
G1 X129.942 Y105.823 E0.01696
G1 X129.800 Y105.271 E0.01788
G1 X129.800 Y104.790 E0.01508
G1 X130.177 Y104.777 F7200.000
G1 F840
G1 X130.290 Y104.331 E0.01444
G1 X130.511 Y103.926 E0.01445
G1 X130.825 Y103.589 E0.01445
G1 X131.214 Y103.340 E0.01447
G1 X131.666 Y103.195 E0.01490
G1 X132.112 Y103.167 E0.01399
G1 X132.564 Y103.252 E0.01445
G1 X132.982 Y103.448 E0.01445
G1 X133.338 Y103.742 E0.01448
G1 X133.615 Y104.128 E0.01489
G1 X133.779 Y104.543 E0.01399
G1 X133.837 Y105.000 E0.01445
G1 X133.779 Y105.457 E0.01445
G1 X133.615 Y105.872 E0.01399
G1 X133.338 Y106.258 E0.01489
G1 X132.982 Y106.552 E0.01448
G1 X132.578 Y106.742 E0.01399
G1 X132.112 Y106.833 E0.01489
G1 X131.652 Y106.803 E0.01447
G1 X131.227 Y106.665 E0.01399
G1 X130.825 Y106.412 E0.01490
G1 X130.511 Y106.074 E0.01446
G1 X130.296 Y105.683 E0.01400
G1 X130.177 Y105.223 E0.01489
G1 X130.177 Y104.837 E0.01212
G1 X129.858 Y104.537 F7200.000
G1 F5760
G1 X130.290 Y104.331 E-0.17970
G1 F5760
G1 X130.511 Y103.926 E-0.15965
G1 F5760
G1 X130.825 Y103.589 E-0.15966
G1 F5760
G1 X131.214 Y103.340 E-0.15989
G1 F5760
G1 X131.492 Y103.251 E-0.10110
G1 E-0.04000 F2100.00000
G1 X120.577 Y104.681 F7200.000
G1 E0.80000 F2100.00000
G1 F840
G1 X120.577 Y105.317 E0.01993
G1 X120.418 Y105.946 E0.02037
G1 X120.106 Y106.519 E0.02044
G1 X119.662 Y106.995 E0.02044
G1 X119.110 Y107.348 E0.02053
G1 X118.475 Y107.552 E0.02091
G1 X117.841 Y107.592 E0.01990
G1 X117.202 Y107.471 E0.02040
G1 X116.612 Y107.195 E0.02044
G1 X116.109 Y106.780 E0.02044
G1 X115.723 Y106.249 E0.02056
G1 X115.483 Y105.629 E0.02087
G1 X115.403 Y105.000 E0.01987
G1 X115.485 Y104.353 E0.02044
G1 X115.725 Y103.748 E0.02042
G1 X116.098 Y103.235 E0.01988
G1 X116.608 Y102.807 E0.02088
G1 X117.201 Y102.529 E0.02052
G1 X117.824 Y102.410 E0.01989
G1 X118.490 Y102.450 E0.02090
G1 X119.112 Y102.654 E0.02054
G1 X119.662 Y103.005 E0.02044
G1 X120.105 Y103.480 E0.02038
G1 X120.411 Y104.037 E0.01992
G1 X120.562 Y104.623 E0.01898
G1 X120.200 Y104.729 F7200.000
G1 F840
G1 X120.200 Y105.270 E0.01696
G1 X120.064 Y105.808 E0.01740
G1 X119.798 Y106.296 E0.01744
G1 X119.418 Y106.703 E0.01744
G1 X118.948 Y107.004 E0.01750
G1 X118.404 Y107.179 E0.01790
G1 X117.865 Y107.212 E0.01695
G1 X117.319 Y107.109 E0.01742
G1 X116.815 Y106.873 E0.01745
G1 X116.386 Y106.519 E0.01745
G1 X116.057 Y106.067 E0.01752
G1 X115.851 Y105.536 E0.01788
G1 X115.783 Y105.000 E0.01693
G1 X115.853 Y104.448 E0.01745
G1 X116.058 Y103.931 E0.01744
G1 X116.376 Y103.494 E0.01693
G1 X116.813 Y103.128 E0.01789
G1 X117.318 Y102.891 E0.01750
G1 X117.849 Y102.790 E0.01694
G1 X118.419 Y102.823 E0.01790
G1 X118.949 Y102.997 E0.01751
G1 X119.418 Y103.297 E0.01745
G1 X119.797 Y103.703 E0.01741
G1 X120.058 Y104.177 E0.01696
G1 X120.185 Y104.671 E0.01599
G1 X119.823 Y104.777 F7200.000
G1 F840
G1 X119.823 Y105.223 E0.01400
G1 X119.710 Y105.669 E0.01444
G1 X119.489 Y106.074 E0.01445
G1 X119.175 Y106.411 E0.01445
G1 X118.786 Y106.660 E0.01447
G1 X118.334 Y106.805 E0.01490
G1 X117.888 Y106.833 E0.01399
G1 X117.436 Y106.748 E0.01445
G1 X117.018 Y106.552 E0.01445
G1 X116.662 Y106.259 E0.01445
G1 X116.391 Y105.885 E0.01448
G1 X116.219 Y105.442 E0.01489
G1 X116.163 Y105.000 E0.01398
G1 X116.221 Y104.543 E0.01445
G1 X116.391 Y104.114 E0.01445
G1 X116.653 Y103.753 E0.01399
G1 X117.017 Y103.448 E0.01489
G1 X117.435 Y103.252 E0.01447
G1 X117.874 Y103.169 E0.01399
G1 X118.348 Y103.197 E0.01490
G1 X118.787 Y103.340 E0.01448
G1 X119.175 Y103.589 E0.01445
G1 X119.489 Y103.926 E0.01444
G1 X119.704 Y104.317 E0.01400
G1 X119.808 Y104.718 E0.01301
G1 X120.191 Y104.932 F7200.000
G1 F5760
G1 X119.823 Y105.223 E-0.17483
G1 F5760
G1 X119.710 Y105.669 E-0.15948
G1 F5760
G1 X119.489 Y106.074 E-0.15965
G1 F5760
G1 X119.175 Y106.411 E-0.15966
G1 F5760
G1 X118.916 Y106.577 E-0.10638
G1 E-0.04000 F2100.00000
G1 X98.577 Y104.681 F7200.000
G1 E0.80000 F2100.00000
G1 F840
G1 X98.577 Y105.317 E0.01993
G1 X98.418 Y105.946 E0.02037
G1 X98.106 Y106.519 E0.02044
G1 X97.662 Y106.995 E0.02044
G1 X97.110 Y107.348 E0.02053
G1 X96.475 Y107.552 E0.02091
G1 X95.841 Y107.592 E0.01990
G1 X95.202 Y107.471 E0.02040
G1 X94.612 Y107.195 E0.02044
G1 X94.109 Y106.780 E0.02044
G1 X93.723 Y106.249 E0.02056
G1 X93.483 Y105.629 E0.02087
G1 X93.403 Y105.000 E0.01987
G1 X93.485 Y104.353 E0.02044
G1 X93.725 Y103.748 E0.02042
G1 X94.098 Y103.235 E0.01988
G1 X94.608 Y102.807 E0.02088
G1 X95.201 Y102.529 E0.02052
G1 X95.824 Y102.410 E0.01989
G1 X96.490 Y102.450 E0.02090
G1 X97.112 Y102.654 E0.02054
G1 X97.662 Y103.005 E0.02044
G1 X98.105 Y103.480 E0.02038
G1 X98.411 Y104.037 E0.01992
G1 X98.562 Y104.623 E0.01898
G1 X98.200 Y104.729 F7200.000
G1 F840
G1 X98.200 Y105.270 E0.01696
G1 X98.064 Y105.808 E0.01740
G1 X97.798 Y106.296 E0.01744
G1 X97.418 Y106.703 E0.01744
G1 X96.948 Y107.004 E0.01750
G1 X96.404 Y107.179 E0.01790
G1 X95.865 Y107.212 E0.01695
G1 X95.319 Y107.109 E0.01742
G1 X94.815 Y106.873 E0.01745
G1 X94.386 Y106.519 E0.01745
G1 X94.057 Y106.067 E0.01752
G1 X93.851 Y105.536 E0.01788
G1 X93.783 Y105.000 E0.01693
G1 X93.853 Y104.448 E0.01745
G1 X94.058 Y103.931 E0.01744
G1 X94.376 Y103.494 E0.01693
G1 X94.813 Y103.128 E0.01789
G1 X95.318 Y102.891 E0.01750
G1 X95.849 Y102.790 E0.01694
G1 X96.419 Y102.823 E0.01790
G1 X96.949 Y102.997 E0.01751
G1 X97.418 Y103.297 E0.01745
G1 X97.797 Y103.703 E0.01741
G1 X98.058 Y104.177 E0.01696
G1 X98.185 Y104.671 E0.01599
G1 X97.823 Y104.777 F7200.000
G1 F840
G1 X97.823 Y105.223 E0.01400
G1 X97.710 Y105.669 E0.01444
G1 X97.489 Y106.074 E0.01445
G1 X97.175 Y106.411 E0.01445
G1 X96.786 Y106.660 E0.01447
G1 X96.334 Y106.805 E0.01490
G1 X95.888 Y106.833 E0.01399
G1 X95.436 Y106.748 E0.01445
G1 X95.018 Y106.552 E0.01445
G1 X94.662 Y106.259 E0.01445
G1 X94.391 Y105.885 E0.01448
G1 X94.219 Y105.442 E0.01489
G1 X94.163 Y105.000 E0.01398
G1 X94.221 Y104.543 E0.01445
G1 X94.391 Y104.114 E0.01445
G1 X94.653 Y103.753 E0.01399
G1 X95.017 Y103.448 E0.01489
G1 X95.435 Y103.252 E0.01447
G1 X95.874 Y103.169 E0.01399
G1 X96.348 Y103.197 E0.01490
G1 X96.787 Y103.340 E0.01448
G1 X97.175 Y103.589 E0.01445
G1 X97.489 Y103.926 E0.01444
G1 X97.704 Y104.317 E0.01400
G1 X97.808 Y104.718 E0.01301
G1 X98.191 Y104.932 F7200.000
G1 F5760
G1 X97.823 Y105.223 E-0.17483
G1 F5760
G1 X97.710 Y105.669 E-0.15948
G1 F5760
G1 X97.489 Y106.074 E-0.15965
G1 F5760
G1 X97.175 Y106.411 E-0.15966
G1 F5760
G1 X96.916 Y106.577 E-0.10638
G1 E-0.04000 F2100.00000
G1 X151.423 Y104.683 F7200.000
G1 E0.80000 F2100.00000
G1 F840
G1 X151.582 Y104.054 E0.02037
G1 X151.894 Y103.481 E0.02044
G1 X152.338 Y103.005 E0.02044
G1 X152.890 Y102.652 E0.02053
G1 X153.525 Y102.448 E0.02091
G1 X154.159 Y102.408 E0.01990
G1 X154.798 Y102.529 E0.02040
G1 X155.388 Y102.805 E0.02044
G1 X155.894 Y103.223 E0.02056
G1 X156.282 Y103.764 E0.02088
G1 X156.515 Y104.354 E0.01987
G1 X156.597 Y105.000 E0.02043
G1 X156.515 Y105.646 E0.02043
G1 X156.282 Y106.236 E0.01987
G1 X155.894 Y106.777 E0.02088
G1 X155.389 Y107.194 E0.02053
G1 X154.815 Y107.464 E0.01989
G1 X154.161 Y107.592 E0.02090
G1 X153.508 Y107.550 E0.02050
G1 X152.905 Y107.353 E0.01991
G1 X152.340 Y106.998 E0.02092
G1 X151.895 Y106.520 E0.02047
G1 X151.589 Y105.963 E0.01992
G1 X151.423 Y105.319 E0.02086
G1 X151.423 Y104.743 E0.01805
G1 X151.800 Y104.730 F7200.000
G1 F840
G1 X151.936 Y104.192 E0.01740
G1 X152.202 Y103.704 E0.01744
G1 X152.582 Y103.297 E0.01744
G1 X153.052 Y102.996 E0.01750
G1 X153.596 Y102.821 E0.01790
G1 X154.135 Y102.788 E0.01695
G1 X154.681 Y102.891 E0.01742
G1 X155.185 Y103.127 E0.01745
G1 X155.616 Y103.482 E0.01752
G1 X155.948 Y103.946 E0.01788
G1 X156.147 Y104.448 E0.01693
G1 X156.217 Y105.000 E0.01744
G1 X156.147 Y105.552 E0.01744
G1 X155.948 Y106.054 E0.01693
G1 X155.616 Y106.518 E0.01788
G1 X155.186 Y106.873 E0.01750
G1 X154.697 Y107.103 E0.01694
G1 X154.137 Y107.213 E0.01790
G1 X153.580 Y107.176 E0.01748
G1 X153.066 Y107.009 E0.01695
G1 X152.583 Y106.705 E0.01791
G1 X152.203 Y106.297 E0.01746
G1 X151.942 Y105.823 E0.01696
G1 X151.800 Y105.271 E0.01788
G1 X151.800 Y104.790 E0.01508
G1 X152.177 Y104.777 F7200.000
G1 F840
G1 X152.290 Y104.331 E0.01444
G1 X152.511 Y103.926 E0.01445
G1 X152.825 Y103.589 E0.01445
G1 X153.214 Y103.340 E0.01447
G1 X153.666 Y103.195 E0.01490
G1 X154.112 Y103.167 E0.01399
G1 X154.564 Y103.252 E0.01445
G1 X154.982 Y103.448 E0.01445
G1 X155.338 Y103.742 E0.01448
G1 X155.615 Y104.128 E0.01489
G1 X155.779 Y104.543 E0.01399
G1 X155.837 Y105.000 E0.01445
G1 X155.779 Y105.457 E0.01445
G1 X155.615 Y105.872 E0.01399
G1 X155.338 Y106.258 E0.01489
G1 X154.982 Y106.552 E0.01448
G1 X154.578 Y106.742 E0.01399
G1 X154.112 Y106.833 E0.01489
G1 X153.652 Y106.803 E0.01447
G1 X153.227 Y106.665 E0.01399
G1 X152.825 Y106.412 E0.01490
G1 X152.511 Y106.074 E0.01446
G1 X152.296 Y105.683 E0.01400
G1 X152.177 Y105.223 E0.01489
G1 X152.177 Y104.837 E0.01212
G1 X151.858 Y104.537 F7200.000
G1 F5760
G1 X152.290 Y104.331 E-0.17970
G1 F5760
G1 X152.511 Y103.926 E-0.15965
G1 F5760
G1 X152.825 Y103.589 E-0.15966
G1 F5760
G1 X153.214 Y103.340 E-0.15989
G1 F5760
G1 X153.492 Y103.251 E-0.10110
G1 E-0.04000 F2100.00000
G1 X155.726 Y100.964 F7200.000
G1 E0.80000 F2100.00000
G1 F1680
G1 X157.661 Y102.899 E0.08581
G1 X157.661 Y107.101 E0.13173
G1 X155.726 Y109.036 E0.08581
G1 X94.274 Y109.036 E1.92676
G1 X92.339 Y107.101 E0.08581
G1 X92.339 Y102.899 E0.13173
G1 X94.274 Y100.964 E0.08581
G1 X155.666 Y100.964 E1.92488
G1 X155.882 Y100.587 F7200.000
G1 F1680
G1 X158.038 Y102.743 E0.09561
G1 X158.038 Y107.257 E0.14152
G1 X155.882 Y109.413 E0.09560
G1 X94.118 Y109.413 E1.93656
G1 X91.962 Y107.257 E0.09560
G1 X91.962 Y102.743 E0.14152
G1 X94.118 Y100.587 E0.09560
G1 X155.822 Y100.587 E1.93467
G1 X156.038 Y100.210 F7200.000
G1 F1260
G1 X158.415 Y102.587 E0.10540
G1 X158.415 Y107.413 E0.15132
G1 X156.038 Y109.790 E0.10540
G1 X93.962 Y109.790 E1.94635
G1 X91.585 Y107.413 E0.10540
G1 X91.585 Y102.587 E0.15132
G1 X93.962 Y100.210 E0.10540
G1 X155.978 Y100.210 E1.94447
G1 X156.043 Y100.610 F7200.000
G1 F5760
G1 X157.549 Y101.742 E-0.76000
G1 E-0.04000 F2100.00000
G1 X157.548 Y103.188 F7200.000
G1 E0.80000 F2100.00000
G1 F1680
G1 X155.607 Y101.247 E0.08665
G1 X155.070 Y101.247 E0.01695
G1 X157.378 Y103.555 E0.10304
G1 X157.378 Y104.092 E0.01695
G1 X154.533 Y101.247 E0.12701
G1 X153.996 Y101.247 E0.01695
G1 X155.113 Y102.364 E0.04988
G1 X154.886 Y102.258 E0.00794
G1 X154.373 Y102.161 E0.01646
G1 X153.459 Y101.247 E0.04080
G1 X152.922 Y101.247 E0.01695
G1 X153.821 Y102.146 E0.04014
G1 X153.472 Y102.168 E0.01104
G1 X153.347 Y102.208 E0.00416
G1 X152.385 Y101.247 E0.04292
G1 X151.849 Y101.247 E0.01695
G1 X152.940 Y102.339 E0.04874
G1 X152.769 Y102.394 E0.00569
G1 X152.580 Y102.515 E0.00709
G1 X151.312 Y101.247 E0.05660
G1 X150.775 Y101.247 E0.01695
G1 X152.252 Y102.724 E0.06595
G1 X152.156 Y102.786 E0.00359
G1 X151.973 Y102.982 E0.00848
G1 X150.238 Y101.247 E0.07745
G1 X149.701 Y101.247 E0.01695
G1 X151.714 Y103.260 E0.08985
G1 X151.663 Y103.315 E0.00236
G1 X151.511 Y103.594 E0.01003
G1 X149.164 Y101.247 E0.10475
G1 X148.627 Y101.247 E0.01695
G1 X151.321 Y103.941 E0.12027
G1 X151.211 Y104.368 E0.01391
G1 X148.090 Y101.247 E0.13931
G1 X147.554 Y101.247 E0.01695
G1 X151.140 Y104.834 E0.16012
G1 X151.146 Y105.376 E0.01712
G1 X147.017 Y101.247 E0.18433
G1 X146.480 Y101.247 E0.01695
G1 X151.352 Y106.119 E0.21750
G1 F5760
G1 X149.801 Y104.568 E-0.76000
G1 E-0.04000 F2100.00000
G1 X152.873 Y107.641 F7200.000
G1 E0.80000 F2100.00000
G1 F1680
G1 X153.986 Y108.753 E0.04966
G1 X154.523 Y108.753 E0.01695
G1 X153.609 Y107.840 E0.04078
G1 X154.183 Y107.876 E0.01814
G1 X155.060 Y108.753 E0.03915
G1 X155.597 Y108.753 E0.01695
G1 X154.632 Y107.788 E0.04307
G1 X154.904 Y107.735 E0.00875
G1 X155.048 Y107.667 E0.00502
G1 X155.871 Y108.491 E0.03676
G1 X156.139 Y108.222 E0.01198
G1 X155.413 Y107.495 E0.03244
G1 X155.542 Y107.435 E0.00450
G1 X155.732 Y107.278 E0.00779
G1 X156.408 Y107.954 E0.03018
G1 X156.676 Y107.685 E0.01198
G1 X156.026 Y107.035 E0.02903
G1 X156.103 Y106.972 E0.00313
G1 X156.268 Y106.740 E0.00899
G1 X156.945 Y107.417 E0.03020
G1 X157.213 Y107.148 E0.01198
G1 X156.492 Y106.428 E0.03218
G1 X156.532 Y106.372 E0.00215
G1 X156.657 Y106.056 E0.01075
G1 X157.378 Y106.776 E0.03218
G1 X157.378 Y106.240 E0.01695
G1 X156.798 Y105.660 E0.02588
