; generated by Slic3r 1.33.8-prusa3d-win64 on 2017-03-11 at 00:38:09

; external perimeters extrusion width = 0.45mm
; perimeters extrusion width = 0.45mm
; infill extrusion width = 0.45mm
; solid infill extrusion width = 0.45mm
; top infill extrusion width = 0.40mm

M107
M115 U3.0.10 ; tell printer latest fw version
M83  ; extruder relative mode
M104 S215 ; set extruder temp
M140 S55 ; set bed temp
M190 S55 ; wait for bed temp
M109 S215 ; wait for extruder temp
G28 W ; home all without mesh bed level
G80 ; mesh bed leveling
G1 Y-3.0 F1000.0 ; go outside pritn area
G1 X60.0 E9.0  F1000.0 ; intro line
G1 X100.0 E12.5  F1000.0 ; intro line
G21 ; set units to millimeters
G90 ; use absolute coordinates
M83 ; use relative distances for extrusion
G1 E-0.80000 F2100.00000
G1 Z0.200 F7200.000
G1 X105.042 Y100.851 F7200.000
G1 E0.80000 F2100.00000
M204 S1000
G1 F2100
G1 X112.704 Y93.402 E0.33505
G1 X112.965 Y93.191 E0.01053
G1 X113.250 Y93.013 E0.01053
G1 X113.555 Y92.871 E0.01053
G1 X113.874 Y92.768 E0.01053
G1 X114.216 Y92.702 E0.01092
G1 X114.560 Y92.680 E0.01079
G1 X135.771 Y92.680 E0.66506
G1 X136.061 Y92.697 E0.00912
G1 X136.352 Y92.744 E0.00925
G1 X136.722 Y92.853 E0.01207
G1 X137.073 Y93.012 E0.01207
G1 X137.398 Y93.218 E0.01207
G1 X137.691 Y93.468 E0.01207
G1 X144.857 Y100.725 E0.31978
G1 X145.366 Y101.327 E0.02472
G1 X145.836 Y102.044 E0.02685
G1 X146.100 Y102.516 E0.01697
G1 X146.251 Y102.888 E0.01259
G1 X146.506 Y103.752 E0.02825
G1 X146.648 Y104.363 E0.01968
G1 X146.699 Y104.728 E0.01154
G1 X146.723 Y105.204 E0.01496
G1 X146.724 Y108.931 E0.11684
G1 X146.697 Y109.518 E0.01842
G1 X146.632 Y109.954 E0.01383
G1 X146.467 Y110.624 E0.02162
G1 X146.257 Y111.299 E0.02217
G1 X146.097 Y111.672 E0.01272
G1 X145.839 Y112.159 E0.01728
G1 X145.448 Y112.771 E0.02279
G1 X145.257 Y113.022 E0.00989
G1 X144.661 Y113.665 E0.02746
G1 X144.202 Y114.076 E0.01935
G1 X143.820 Y114.361 E0.01494
G1 X143.317 Y114.676 E0.01859
G1 X140.184 Y116.488 E0.11349
G1 X139.767 Y116.700 E0.01466
G1 X139.456 Y116.831 E0.01058
G1 X138.800 Y117.035 E0.02154
G1 X138.457 Y117.115 E0.01105
G1 X137.688 Y117.263 E0.02456
G1 X137.097 Y117.297 E0.01854
G1 X113.051 Y117.298 E0.75395
G1 X112.389 Y117.270 E0.02078
G1 X111.437 Y117.092 E0.03036
G1 X110.655 Y116.865 E0.02555
G1 X110.153 Y116.653 E0.01708
G1 X109.544 Y116.324 E0.02167
G1 X106.505 Y114.569 E0.11004
G1 X105.954 Y114.198 E0.02084
G1 X105.637 Y113.950 E0.01262
G1 X105.340 Y113.683 E0.01252
G1 X105.027 Y113.365 E0.01400
G1 X104.725 Y113.003 E0.01477
G1 X104.241 Y112.307 E0.02659
G1 X103.749 Y111.319 E0.03460
G1 X103.448 Y110.352 E0.03176
G1 X103.363 Y109.853 E0.01587
G1 X103.316 Y109.372 E0.01514
G1 X103.297 Y108.911 E0.01449
G1 X103.297 Y105.381 E0.11067
G1 X103.310 Y104.919 E0.01449
G1 X103.354 Y104.436 E0.01520
G1 X103.416 Y104.023 E0.01311
G1 X103.489 Y103.712 E0.01000
G1 X103.712 Y103.020 E0.02282
G1 X103.819 Y102.754 E0.00899
G1 X104.100 Y102.164 E0.02046
G1 X104.296 Y101.818 E0.01250
G1 X104.692 Y101.264 E0.02133
G1 X105.002 Y100.896 E0.01509
G1 X105.305 Y101.122 F7200.000
G1 F2100
G1 X112.951 Y93.687 E0.33438
G1 X113.175 Y93.504 E0.00907
G1 X113.423 Y93.348 E0.00919
G1 X113.689 Y93.224 E0.00919
G1 X113.967 Y93.133 E0.00919
G1 X114.259 Y93.077 E0.00931
G1 X114.559 Y93.057 E0.00943
G1 X135.766 Y93.057 E0.66495
G1 X136.013 Y93.071 E0.00776
G1 X136.258 Y93.110 E0.00776
G1 X136.580 Y93.202 E0.01050
G1 X136.889 Y93.341 E0.01062
G1 X137.175 Y93.522 E0.01062
G1 X137.432 Y93.743 E0.01062
G1 X144.583 Y100.985 E0.31912
G1 X145.065 Y101.554 E0.02339
G1 X145.512 Y102.237 E0.02557
G1 X145.759 Y102.675 E0.01579
G1 X145.892 Y103.003 E0.01110
G1 X146.139 Y103.839 E0.02733
G1 X146.278 Y104.435 E0.01919
G1 X146.324 Y104.772 E0.01066
G1 X146.346 Y105.206 E0.01363
G1 X146.347 Y108.921 E0.11646
G1 X146.322 Y109.475 E0.01739
G1 X146.266 Y109.863 E0.01230
G1 X146.106 Y110.517 E0.02111
G1 X145.903 Y111.168 E0.02138
G1 X145.757 Y111.508 E0.01161
G1 X145.508 Y111.978 E0.01667
G1 X145.134 Y112.562 E0.02174
G1 X144.963 Y112.786 E0.00883
G1 X144.387 Y113.406 E0.02653
G1 X143.901 Y113.837 E0.02039
G1 X143.585 Y114.065 E0.01220
G1 X143.108 Y114.362 E0.01763
G1 X140.075 Y116.118 E0.10987
G1 X139.646 Y116.340 E0.01513
G1 X139.303 Y116.485 E0.01171
G1 X138.693 Y116.674 E0.02000
G1 X137.784 Y116.866 E0.02915
G1 X137.505 Y116.904 E0.00883
G1 X137.084 Y116.920 E0.01319
G1 X113.044 Y116.921 E0.75377
G1 X112.434 Y116.895 E0.01912
G1 X111.531 Y116.727 E0.02880
G1 X110.784 Y116.510 E0.02439
G1 X110.330 Y116.320 E0.01545
G1 X109.731 Y115.997 E0.02132
G1 X106.695 Y114.243 E0.10995
G1 X106.189 Y113.903 E0.01911
G1 X105.882 Y113.664 E0.01218
G1 X105.604 Y113.414 E0.01174
G1 X105.308 Y113.113 E0.01322
G1 X105.026 Y112.777 E0.01377
G1 X104.568 Y112.119 E0.02511
G1 X104.104 Y111.191 E0.03255
G1 X103.816 Y110.269 E0.03028
G1 X103.736 Y109.801 E0.01489
G1 X103.692 Y109.345 E0.01437
G1 X103.674 Y108.905 E0.01382
G1 X103.674 Y105.386 E0.11031
G1 X103.686 Y104.943 E0.01390
G1 X103.727 Y104.492 E0.01421
G1 X103.786 Y104.097 E0.01252
G1 X103.851 Y103.820 E0.00893
G1 X104.067 Y103.148 E0.02213
G1 X104.159 Y102.918 E0.00776
G1 X104.434 Y102.340 E0.02008
G1 X104.612 Y102.024 E0.01137
G1 X104.988 Y101.498 E0.02027
G1 X105.266 Y101.168 E0.01354
G1 F5760
G1 X106.839 Y99.637 E-0.76000
G1 E-0.04000 F2100.00000
G1 X111.535 Y103.028 F7200.000
G1 E0.80000 F2100.00000
G1 F840
G1 X111.896 Y103.097 E0.01152
G1 X111.981 Y103.156 E0.00324
G1 X112.431 Y103.636 E0.02062
G1 X112.491 Y103.897 E0.00841
G1 X113.175 Y104.118 E0.02256
G1 X113.560 Y104.173 E0.01220
G1 X113.704 Y104.266 E0.00535
G1 X113.769 Y104.270 E0.00204
G1 X113.781 Y104.303 E0.00112
G1 X114.206 Y104.398 E0.01364
G1 X114.333 Y104.568 E0.00665
G1 X114.520 Y104.576 E0.00586
G1 X114.599 Y104.774 E0.00667
G1 X114.887 Y104.826 E0.00918
G1 X115.000 Y104.942 E0.00508
G1 X115.039 Y104.948 E0.00125
G1 X115.324 Y105.254 E0.01310
G1 X115.380 Y105.600 E0.01099
G1 X115.612 Y105.695 E0.00786
G1 X115.630 Y105.768 E0.00236
G1 X115.759 Y105.972 E0.00758
G1 X115.806 Y106.170 E0.00638
G1 X115.893 Y106.382 E0.00719
G1 X116.002 Y106.912 E0.01695
G1 X115.989 Y107.401 E0.01534
G1 X115.948 Y107.519 E0.00392
G1 X115.882 Y107.881 E0.01153
G1 X115.818 Y108.035 E0.00525
G1 X115.702 Y108.492 E0.01478
G1 X115.673 Y108.800 E0.00968
G1 X115.701 Y109.250 E0.01415
G1 X115.760 Y109.396 E0.00493
G1 X115.824 Y109.786 E0.01238
G1 X115.894 Y109.866 E0.00334
G1 X116.002 Y110.366 E0.01605
G1 X115.991 Y110.876 E0.01600
G1 X115.885 Y111.350 E0.01522
G1 X115.809 Y111.529 E0.00610
G1 X115.764 Y111.731 E0.00649
G1 X115.644 Y111.884 E0.00610
G1 X115.610 Y112.034 E0.00481
G1 X115.356 Y112.358 E0.01292
G1 X115.336 Y112.444 E0.00277
G1 X115.080 Y112.721 E0.01181
G1 X114.844 Y112.932 E0.00994
G1 X114.755 Y112.958 E0.00289
G1 X114.449 Y113.190 E0.01205
G1 X114.260 Y113.255 E0.00626
G1 X114.152 Y113.338 E0.00426
G1 X113.642 Y113.483 E0.01666
G1 X113.293 Y113.533 E0.01103
G1 X113.168 Y113.574 E0.00412
G1 X112.946 Y113.578 E0.00697
G1 X112.435 Y113.492 E0.01626
G1 X112.386 Y113.443 E0.00215
G1 X112.025 Y113.371 E0.01156
G1 X111.795 Y113.280 E0.00773
G1 X111.681 Y113.093 E0.00688
G1 X111.531 Y113.080 E0.00473
G1 X111.520 Y113.057 E0.00079
G1 X111.404 Y113.011 E0.00393
G1 X111.355 Y112.861 E0.00497
G1 X111.083 Y112.814 E0.00865
G1 X111.043 Y112.770 E0.00184
G1 X110.999 Y112.756 E0.00145
G1 X110.887 Y112.452 E0.01015
G1 X110.782 Y112.435 E0.00335
G1 X110.740 Y112.318 E0.00388
G1 X110.710 Y112.072 E0.00778
G1 X110.247 Y111.994 E0.01474
G1 X110.142 Y111.894 E0.00453
G1 X109.428 Y111.757 E0.02282
G1 X109.400 Y111.725 E0.00133
G1 X108.951 Y111.612 E0.01451
G1 X108.797 Y111.548 E0.00525
G1 X108.758 Y111.480 E0.00245
G1 X108.589 Y111.418 E0.00564
G1 X108.515 Y111.220 E0.00662
G1 X108.371 Y111.197 E0.00459
G1 X108.346 Y111.117 E0.00261
G1 X108.046 Y111.066 E0.00956
G1 X107.959 Y110.950 E0.00453
G1 X107.871 Y110.717 E0.00782
G1 X107.760 Y110.695 E0.00353
G1 X107.729 Y110.500 E0.00619
G1 X107.541 Y110.416 E0.00645
G1 X107.475 Y110.164 E0.00819
G1 X107.397 Y110.142 E0.00253
G1 X107.390 Y110.109 E0.00105
G1 X107.281 Y110.025 E0.00432
G1 X107.191 Y109.690 E0.01085
G1 X107.168 Y109.677 E0.00084
G1 X107.148 Y109.380 E0.00934
G1 X107.044 Y109.292 E0.00429
G1 X107.019 Y108.974 E0.00998
G1 X107.021 Y108.634 E0.01067
G1 X107.065 Y108.233 E0.01264
G1 X107.131 Y108.040 E0.00640
G1 X107.162 Y108.026 E0.00107
G1 X107.362 Y107.360 E0.02178
G1 X107.354 Y106.952 E0.01281
G1 X107.243 Y106.239 E0.02262
G1 X107.164 Y106.195 E0.00284
G1 X107.143 Y105.875 E0.01005
G1 X107.038 Y105.792 E0.00419
G1 X107.022 Y105.152 E0.02009
G1 X107.063 Y104.793 E0.01134
G1 X107.090 Y104.749 E0.00160
G1 X107.206 Y104.318 E0.01399
G1 X107.396 Y103.892 E0.01465
G1 X107.439 Y103.841 E0.00207
G1 X107.604 Y103.772 E0.00562
G1 X107.642 Y103.667 E0.00349
G1 X107.837 Y103.610 E0.00638
G1 X107.885 Y103.370 E0.00767
G1 X108.170 Y103.297 E0.00921
G1 X108.268 Y103.008 E0.00957
G1 X108.340 Y102.907 E0.00388
G1 X108.446 Y102.831 E0.00410
G1 X108.672 Y102.710 E0.00803
G1 X108.797 Y102.693 E0.00395
G1 X108.994 Y102.554 E0.00756
G1 X109.494 Y102.530 E0.01569
G1 X109.612 Y102.415 E0.00518
G1 X110.134 Y102.397 E0.01637
G1 X110.430 Y102.424 E0.00932
G1 X110.493 Y102.474 E0.00253
G1 X110.759 Y102.510 E0.00843
G1 X110.781 Y102.561 E0.00172
G1 X111.167 Y102.651 E0.01244
G1 X111.286 Y102.815 E0.00636
G1 X111.478 Y102.828 E0.00603
G1 X111.519 Y102.971 E0.00464
G1 X111.834 Y102.701 F7200.000
G1 F840
G1 X112.047 Y102.741 E0.00679
G1 X112.231 Y102.872 E0.00706
G1 X112.775 Y103.447 E0.02483
G1 X112.811 Y103.604 E0.00506
G1 X113.261 Y103.750 E0.01482
G1 X113.696 Y103.812 E0.01379
G1 X113.825 Y103.895 E0.00481
G1 X114.035 Y103.907 E0.00661
G1 X114.063 Y103.980 E0.00243
G1 X114.424 Y104.060 E0.01160
G1 X114.528 Y104.199 E0.00544
G1 X114.699 Y104.207 E0.00537
G1 X114.839 Y104.369 E0.00670
G1 X114.860 Y104.372 E0.00066
G1 X114.884 Y104.442 E0.00232
G1 X115.052 Y104.472 E0.00535
G1 X115.183 Y104.589 E0.00551
G1 X115.238 Y104.610 E0.00183
G1 X115.678 Y105.081 E0.02021
G1 X115.718 Y105.332 E0.00797
G1 X115.894 Y105.404 E0.00596
G1 X115.981 Y105.618 E0.00724
G1 X116.112 Y105.823 E0.00764
G1 X116.166 Y106.055 E0.00746
G1 X116.258 Y106.278 E0.00756
G1 X116.376 Y106.853 E0.01840
G1 X116.384 Y107.135 E0.00884
G1 X116.362 Y107.475 E0.01069
G1 X116.314 Y107.615 E0.00462
G1 X116.245 Y107.988 E0.01192
G1 X116.176 Y108.155 E0.00564
G1 X116.075 Y108.557 E0.01301
G1 X116.051 Y108.806 E0.00785
G1 X116.073 Y109.166 E0.01130
G1 X116.125 Y109.293 E0.00432
G1 X116.178 Y109.619 E0.01033
G1 X116.243 Y109.692 E0.00307
G1 X116.346 Y110.188 E0.01588
G1 X116.370 Y110.229 E0.00148
G1 X116.379 Y110.350 E0.00381
G1 X116.365 Y110.948 E0.01875
G1 X116.247 Y111.462 E0.01655
G1 X116.170 Y111.644 E0.00620
G1 X116.114 Y111.896 E0.00809
G1 X115.993 Y112.051 E0.00615
G1 X115.958 Y112.199 E0.00479
G1 X115.704 Y112.526 E0.01296
G1 X115.680 Y112.628 E0.00330
G1 X115.345 Y112.990 E0.01548
G1 X115.032 Y113.270 E0.01315
G1 X114.928 Y113.300 E0.00339
G1 X114.629 Y113.527 E0.01178
G1 X114.441 Y113.592 E0.00622
G1 X114.316 Y113.687 E0.00494
G1 X114.068 Y113.743 E0.00797
G1 X113.726 Y113.852 E0.01126
G1 X113.380 Y113.902 E0.01098
G1 X113.236 Y113.949 E0.00473
G1 X112.883 Y113.953 E0.01107
G1 X112.251 Y113.844 E0.02011
G1 X112.199 Y113.790 E0.00235
G1 X111.910 Y113.733 E0.00921
G1 X111.539 Y113.584 E0.01253
G1 X111.459 Y113.452 E0.00485
G1 X111.281 Y113.437 E0.00559
G1 X111.242 Y113.353 E0.00289
G1 X111.101 Y113.298 E0.00477
G1 X111.067 Y113.194 E0.00342
G1 X110.889 Y113.164 E0.00565
G1 X110.830 Y113.097 E0.00279
G1 X110.771 Y113.078 E0.00194
G1 X110.669 Y112.951 E0.00511
G1 X110.609 Y112.788 E0.00544
G1 X110.501 Y112.770 E0.00345
G1 X110.449 Y112.624 E0.00483
G1 X110.396 Y112.611 E0.00172
G1 X110.370 Y112.397 E0.00678
G1 X110.070 Y112.346 E0.00954
G1 X109.971 Y112.252 E0.00428
G1 X109.231 Y112.106 E0.02366
G1 X109.192 Y112.062 E0.00183
G1 X108.832 Y111.971 E0.01166
G1 X108.533 Y111.846 E0.01016
G1 X108.499 Y111.787 E0.00215
G1 X108.296 Y111.712 E0.00676
G1 X108.238 Y111.557 E0.00519
G1 X108.080 Y111.532 E0.00504
G1 X108.054 Y111.450 E0.00269
G1 X107.860 Y111.416 E0.00619
G1 X107.731 Y111.291 E0.00562
G1 X107.682 Y111.215 E0.00284
G1 X107.653 Y111.207 E0.00095
G1 X107.592 Y111.047 E0.00537
G1 X107.482 Y111.026 E0.00351
G1 X107.423 Y110.868 E0.00529
G1 X107.387 Y110.860 E0.00115
G1 X107.376 Y110.755 E0.00330
G1 X107.223 Y110.687 E0.00528
G1 X107.165 Y110.468 E0.00709
G1 X107.078 Y110.443 E0.00285
G1 X107.051 Y110.323 E0.00385
G1 X106.950 Y110.245 E0.00401
G1 X106.869 Y109.943 E0.00982
G1 X106.808 Y109.909 E0.00216
G1 X106.782 Y109.564 E0.01085
G1 X106.689 Y109.484 E0.00386
G1 X106.675 Y109.411 E0.00235
G1 X106.642 Y108.988 E0.01329
G1 X106.644 Y108.612 E0.01179
G1 X106.695 Y108.151 E0.01455
G1 X106.826 Y107.767 E0.01273
G1 X106.849 Y107.756 E0.00080
G1 X106.983 Y107.308 E0.01464
G1 X106.977 Y106.985 E0.01016
G1 X106.899 Y106.478 E0.01607
G1 X106.804 Y106.425 E0.00339
G1 X106.778 Y106.067 E0.01125
G1 X106.686 Y105.995 E0.00367
G1 X106.638 Y105.394 E0.01890
G1 X106.645 Y105.125 E0.00844
G1 X106.699 Y104.666 E0.01448
G1 X106.740 Y104.598 E0.00250
G1 X106.858 Y104.161 E0.01422
G1 X107.030 Y103.778 E0.01315
G1 X107.182 Y103.540 E0.00886
G1 X107.305 Y103.488 E0.00419
G1 X107.352 Y103.358 E0.00432
G1 X107.512 Y103.312 E0.00524
G1 X107.562 Y103.064 E0.00792
G1 X107.836 Y102.993 E0.00887
G1 X107.849 Y102.905 E0.00280
G1 X107.907 Y102.896 E0.00182
G1 X107.963 Y102.755 E0.00477
G1 X107.990 Y102.748 E0.00089
G1 X108.069 Y102.637 E0.00426
G1 X108.283 Y102.484 E0.00825
G1 X108.554 Y102.345 E0.00955
G1 X108.655 Y102.332 E0.00319
G1 X108.845 Y102.197 E0.00730
G1 X109.333 Y102.160 E0.01533
G1 X109.441 Y102.054 E0.00476
G1 X109.750 Y102.023 E0.00974
G1 X110.149 Y102.020 E0.01252
G1 X110.577 Y102.059 E0.01345
G1 X110.646 Y102.115 E0.00280
G1 X111.019 Y102.165 E0.01178
G1 X111.053 Y102.237 E0.00250
G1 X111.389 Y102.315 E0.01084
G1 X111.488 Y102.451 E0.00527
G1 X111.685 Y102.465 E0.00619
G1 X111.806 Y102.600 E0.00567
G1 X111.818 Y102.643 E0.00141
G1 F5760
G1 X112.047 Y102.741 E-0.08634
G1 F5760
G1 X112.231 Y102.872 E-0.07794
G1 F5760
G1 X112.775 Y103.447 E-0.27429
G1 F5760
G1 X112.811 Y103.604 E-0.05587
G1 F5760
G1 X113.261 Y103.750 E-0.16376
G1 F5760
G1 X113.551 Y103.791 E-0.10180
G1 E-0.04000 F2100.00000
G1 X113.130 Y103.311 F7200.000
G1 E0.80000 F2100.00000
G1 F840
G1 X113.346 Y103.381 E0.00709
G1 X113.831 Y103.450 E0.01538
G1 X113.946 Y103.525 E0.00428
G1 X114.104 Y103.533 E0.00496
G1 X114.317 Y103.583 E0.00686
G1 X114.344 Y103.656 E0.00245
G1 X114.585 Y103.710 E0.00774
G1 X114.657 Y103.743 E0.00249
G1 X114.723 Y103.831 E0.00343
G1 X114.829 Y103.836 E0.00334
G1 X114.910 Y103.875 E0.00281
G1 X115.034 Y104.018 E0.00592
G1 X115.144 Y104.039 E0.00353
G1 X115.169 Y104.110 E0.00237
G1 X115.259 Y104.126 E0.00288
G1 X115.346 Y104.221 E0.00403
G1 X115.527 Y104.355 E0.00705
G1 X115.827 Y104.665 E0.01352
G1 X116.036 Y104.933 E0.01068
G1 X116.057 Y105.063 E0.00414
G1 X116.175 Y105.115 E0.00404
G1 X116.277 Y105.333 E0.00755
G1 X116.300 Y105.337 E0.00074
G1 X116.332 Y105.468 E0.00421
G1 X116.419 Y105.604 E0.00506
G1 X116.452 Y105.621 E0.00117
G1 X116.526 Y105.940 E0.01026
G1 X116.623 Y106.174 E0.00794
G1 X116.680 Y106.512 E0.01075
G1 X116.746 Y106.736 E0.00733
G1 X116.756 Y106.882 E0.00458
G1 X116.761 Y107.144 E0.00820
G1 X116.735 Y107.549 E0.01274
G1 X116.680 Y107.710 E0.00533
G1 X116.609 Y108.096 E0.01231
G1 X116.535 Y108.274 E0.00603
G1 X116.447 Y108.621 E0.01124
G1 X116.429 Y108.812 E0.00602
G1 X116.446 Y109.081 E0.00844
G1 X116.490 Y109.191 E0.00371
G1 X116.533 Y109.451 E0.00828
G1 X116.592 Y109.519 E0.00280
G1 X116.702 Y110.049 E0.01698
G1 X116.740 Y110.112 E0.00231
G1 X116.761 Y110.638 E0.01649
G1 X116.738 Y111.019 E0.01198
G1 X116.608 Y111.575 E0.01789
G1 X116.530 Y111.760 E0.00629
G1 X116.446 Y112.084 E0.01050
G1 X116.341 Y112.217 E0.00531
G1 X116.287 Y112.391 E0.00572
G1 X116.052 Y112.693 E0.01198
G1 X115.999 Y112.838 E0.00485
G1 X115.609 Y113.259 E0.01801
G1 X115.247 Y113.583 E0.01523
G1 X115.101 Y113.642 E0.00494
G1 X114.808 Y113.864 E0.01150
G1 X114.622 Y113.928 E0.00618
