; generated by Slic3r 1.33.8-prusa3d-win64 on 2017-03-11 at 00:34:30

; external perimeters extrusion width = 0.45mm
; perimeters extrusion width = 0.45mm
; infill extrusion width = 0.45mm
; solid infill extrusion width = 0.45mm
; top infill extrusion width = 0.40mm

M107
M115 U3.0.10 ; tell printer latest fw version
M83  ; extruder relative mode
M104 S215 ; set extruder temp
M140 S55 ; set bed temp
M190 S55 ; wait for bed temp
M109 S215 ; wait for extruder temp
G28 W ; home all without mesh bed level
G80 ; mesh bed leveling
G1 Y-3.0 F1000.0 ; go outside pritn area
G1 X60.0 E9.0  F1000.0 ; intro line
G1 X100.0 E12.5  F1000.0 ; intro line
G21 ; set units to millimeters
G90 ; use absolute coordinates
M83 ; use relative distances for extrusion
G1 E-0.80000 F2100.00000
G1 Z0.200 F7200.000
G1 X118.012 Y99.122 F7200.000
G1 E0.80000 F2100.00000
M204 S1000
G1 F1743.569
G1 X118.590 Y98.497 E0.02668
G1 X119.251 Y97.906 E0.02779
G1 X119.958 Y97.387 E0.02753
G1 X120.749 Y96.919 E0.02882
G1 X121.542 Y96.549 E0.02743
G1 X122.384 Y96.252 E0.02798
G1 X123.251 Y96.038 E0.02801
G1 X124.166 Y95.907 E0.02899
G1 X125.041 Y95.869 E0.02745
G1 X125.926 Y95.916 E0.02779
G1 X126.812 Y96.050 E0.02810
G1 X127.697 Y96.276 E0.02863
G1 X128.525 Y96.577 E0.02763
G1 X129.331 Y96.961 E0.02798
G1 X130.096 Y97.423 E0.02801
G1 X130.840 Y97.981 E0.02918
G1 X131.486 Y98.573 E0.02745
G1 X132.078 Y99.232 E0.02779
G1 X132.606 Y99.948 E0.02791
G1 X133.073 Y100.733 E0.02863
G1 X133.449 Y101.537 E0.02782
G1 X133.745 Y102.372 E0.02779
G1 X133.960 Y103.239 E0.02801
G1 X134.091 Y104.150 E0.02884
G1 X134.131 Y105.023 E0.02741
G1 X134.085 Y105.920 E0.02817
G1 X133.951 Y106.804 E0.02803
G1 X133.726 Y107.691 E0.02870
G1 X133.423 Y108.525 E0.02782
G1 X133.039 Y109.331 E0.02798
G1 X132.577 Y110.096 E0.02801
G1 X132.019 Y110.840 E0.02917
G1 X131.427 Y111.486 E0.02745
G1 X130.773 Y112.074 E0.02760
G1 X130.057 Y112.603 E0.02791
G1 X129.272 Y113.070 E0.02862
G1 X128.469 Y113.446 E0.02782
G1 X127.634 Y113.743 E0.02779
G1 X126.767 Y113.959 E0.02801
G1 X125.858 Y114.091 E0.02880
G1 X124.971 Y114.131 E0.02783
G1 X124.086 Y114.085 E0.02779
G1 X123.200 Y113.952 E0.02811
G1 X122.321 Y113.729 E0.02843
G1 X121.486 Y113.428 E0.02782
G1 X120.680 Y113.045 E0.02798
G1 X119.915 Y112.584 E0.02801
G1 X119.174 Y112.031 E0.02898
G1 X118.523 Y111.436 E0.02764
G1 X117.929 Y110.778 E0.02779
G1 X117.397 Y110.057 E0.02810
G1 X116.933 Y109.278 E0.02843
G1 X116.554 Y108.469 E0.02801
G1 X116.257 Y107.634 E0.02779
G1 X116.041 Y106.767 E0.02801
G1 X115.910 Y105.863 E0.02865
G1 X115.869 Y104.983 E0.02760
G1 X115.915 Y104.086 E0.02817
G1 X116.048 Y103.201 E0.02805
G1 X116.271 Y102.321 E0.02849
G1 X116.575 Y101.480 E0.02801
G1 X116.958 Y100.675 E0.02798
G1 X117.419 Y99.909 E0.02801
G1 X117.974 Y99.168 E0.02903
G1 X118.292 Y99.376 F7200.000
G1 F1743.569
G1 X118.851 Y98.769 E0.02588
G1 X119.482 Y98.204 E0.02654
G1 X120.165 Y97.702 E0.02658
G1 X120.919 Y97.255 E0.02749
G1 X121.680 Y96.900 E0.02635
G1 X122.484 Y96.615 E0.02672
G1 X123.315 Y96.410 E0.02686
G1 X124.192 Y96.283 E0.02777
G1 X125.034 Y96.246 E0.02644
G1 X125.885 Y96.291 E0.02672
G1 X126.729 Y96.418 E0.02676
G1 X127.579 Y96.635 E0.02749
G1 X128.380 Y96.925 E0.02672
G1 X129.149 Y97.292 E0.02672
G1 X129.883 Y97.734 E0.02686
G1 X130.592 Y98.265 E0.02777
G1 X131.214 Y98.834 E0.02644
G1 X131.781 Y99.463 E0.02654
G1 X132.291 Y100.155 E0.02695
G1 X132.736 Y100.903 E0.02730
G1 X133.098 Y101.675 E0.02672
G1 X133.383 Y102.478 E0.02672
G1 X133.589 Y103.309 E0.02686
G1 X133.716 Y104.181 E0.02760
G1 X133.754 Y105.017 E0.02625
G1 X133.710 Y105.879 E0.02708
G1 X133.582 Y106.728 E0.02690
G1 X133.367 Y107.573 E0.02735
G1 X133.077 Y108.375 E0.02672
G1 X132.711 Y109.144 E0.02672
G1 X132.266 Y109.883 E0.02704
G1 X131.735 Y110.592 E0.02776
G1 X131.166 Y111.214 E0.02645
G1 X130.537 Y111.781 E0.02654
G1 X129.845 Y112.291 E0.02695
G1 X129.097 Y112.736 E0.02730
G1 X128.325 Y113.098 E0.02673
G1 X127.528 Y113.381 E0.02654
G1 X126.696 Y113.588 E0.02686
G1 X125.826 Y113.715 E0.02758
G1 X124.972 Y113.754 E0.02681
G1 X124.126 Y113.710 E0.02654
G1 X123.276 Y113.583 E0.02695
G1 X122.432 Y113.369 E0.02730
G1 X121.631 Y113.080 E0.02673
G1 X120.861 Y112.714 E0.02672
G1 X120.127 Y112.272 E0.02686
G1 X119.422 Y111.747 E0.02758
G1 X118.794 Y111.174 E0.02663
G1 X118.223 Y110.541 E0.02672
G1 X117.712 Y109.850 E0.02695
G1 X117.269 Y109.108 E0.02711
G1 X116.904 Y108.331 E0.02691
G1 X116.621 Y107.533 E0.02654
G1 X116.413 Y106.702 E0.02686
G1 X116.286 Y105.837 E0.02742
G1 X116.246 Y104.989 E0.02661
G1 X116.289 Y104.132 E0.02690
G1 X116.417 Y103.277 E0.02710
G1 X116.629 Y102.438 E0.02715
G1 X116.920 Y101.631 E0.02691
G1 X117.286 Y100.861 E0.02672
G1 X117.728 Y100.127 E0.02686
G1 X118.253 Y99.422 E0.02756
G1 X118.572 Y99.629 F7200.000
G1 F1743.569
G1 X119.109 Y99.045 E0.02488
G1 X119.713 Y98.502 E0.02548
G1 X120.366 Y98.021 E0.02544
G1 X121.089 Y97.592 E0.02634
G1 X121.819 Y97.251 E0.02526
G1 X122.590 Y96.977 E0.02566
G1 X123.380 Y96.781 E0.02552
G1 X124.218 Y96.660 E0.02655
G1 X125.028 Y96.623 E0.02542
G1 X125.839 Y96.665 E0.02548
G1 X126.653 Y96.788 E0.02580
G1 X127.462 Y96.993 E0.02616
G1 X128.230 Y97.271 E0.02562
G1 X128.964 Y97.620 E0.02548
G1 X129.666 Y98.043 E0.02570
G1 X130.345 Y98.549 E0.02655
G1 X130.943 Y99.096 E0.02541
G1 X131.487 Y99.700 E0.02548
G1 X131.973 Y100.357 E0.02562
G1 X132.400 Y101.074 E0.02616
G1 X132.747 Y101.813 E0.02562
G1 X133.019 Y102.579 E0.02548
G1 X133.218 Y103.374 E0.02570
G1 X133.339 Y104.206 E0.02637
G1 X133.377 Y105.011 E0.02527
G1 X133.335 Y105.834 E0.02581
G1 X133.214 Y106.646 E0.02576
G1 X133.009 Y107.456 E0.02620
G1 X132.731 Y108.225 E0.02562
G1 X132.380 Y108.964 E0.02566
G1 X131.957 Y109.666 E0.02570
G1 X131.451 Y110.344 E0.02654
G1 X130.904 Y110.943 E0.02542
G1 X130.300 Y111.487 E0.02548
G1 X129.638 Y111.976 E0.02580
G1 X128.926 Y112.400 E0.02598
G1 X128.187 Y112.747 E0.02562
G1 X127.421 Y113.019 E0.02548
G1 X126.626 Y113.218 E0.02570
G1 X125.799 Y113.339 E0.02619
G1 X124.978 Y113.377 E0.02577
G1 X124.172 Y113.336 E0.02530
G1 X123.358 Y113.215 E0.02580
G1 X122.549 Y113.011 E0.02616
G1 X121.781 Y112.733 E0.02562
G1 X121.046 Y112.385 E0.02548
G1 X120.339 Y111.960 E0.02588
G1 X119.669 Y111.462 E0.02619
G1 X119.061 Y110.908 E0.02578
G1 X118.520 Y110.309 E0.02530
G1 X118.031 Y109.648 E0.02580
G1 X117.603 Y108.932 E0.02616
G1 X117.255 Y108.192 E0.02562
G1 X116.982 Y107.427 E0.02548
G1 X116.783 Y106.631 E0.02570
G1 X116.662 Y105.805 E0.02619
G1 X116.623 Y104.994 E0.02544
G1 X116.664 Y104.172 E0.02581
G1 X116.785 Y103.359 E0.02578
G1 X116.988 Y102.555 E0.02600
G1 X117.267 Y101.781 E0.02580
G1 X117.615 Y101.046 E0.02548
G1 X118.036 Y100.343 E0.02570
G1 X118.533 Y99.675 E0.02611
G1 F5760
G1 X119.109 Y99.045 E-0.29554
G1 F5760
G1 X119.713 Y98.502 E-0.28146
G1 F5760
G1 X120.139 Y98.189 E-0.18300
G1 E-0.04000 F2100.00000
G1 X119.277 Y100.408 F7200.000
G1 E0.80000 F2100.00000
G1 F1743.569
G1 X119.768 Y99.858 E0.02311
G1 X120.255 Y99.404 E0.02088
G1 X120.837 Y98.958 E0.02300
G1 X121.528 Y98.537 E0.02535
G1 X122.250 Y98.198 E0.02502
G1 X122.885 Y97.974 E0.02112
G1 X123.462 Y97.826 E0.01868
G1 X124.200 Y97.707 E0.02345
G1 X124.936 Y97.664 E0.02311
G1 X125.602 Y97.688 E0.02088
G1 X126.329 Y97.784 E0.02300
G1 X127.115 Y97.974 E0.02535
G1 X127.750 Y98.198 E0.02112
G1 X128.472 Y98.537 E0.02502
G1 X128.986 Y98.840 E0.01868
G1 X129.592 Y99.277 E0.02345
G1 X130.142 Y99.768 E0.02311
G1 X130.596 Y100.255 E0.02088
G1 X131.042 Y100.837 E0.02300
G1 X131.463 Y101.528 E0.02535
G1 X131.802 Y102.250 E0.02502
G1 X132.026 Y102.885 E0.02112
G1 X132.198 Y103.580 E0.02244
G1 X132.292 Y104.198 E0.01960
G1 X132.336 Y104.924 E0.02280
G1 X132.305 Y105.686 E0.02391
G1 X132.198 Y106.420 E0.02327
G1 X132.026 Y107.115 E0.02244
G1 X131.802 Y107.750 E0.02112
G1 X131.463 Y108.473 E0.02502
G1 X131.160 Y108.986 E0.01868
G1 X130.723 Y109.592 E0.02345
G1 X130.232 Y110.142 E0.02311
G1 X129.745 Y110.596 E0.02088
G1 X129.163 Y111.042 E0.02300
G1 X128.473 Y111.463 E0.02534
G1 X127.865 Y111.754 E0.02112
G1 X127.115 Y112.026 E0.02502
G1 X126.538 Y112.174 E0.01868
G1 X125.800 Y112.293 E0.02345
G1 X125.064 Y112.336 E0.02311
G1 X124.398 Y112.312 E0.02088
G1 X123.671 Y112.216 E0.02300
G1 X122.885 Y112.026 E0.02535
G1 X122.250 Y111.802 E0.02112
G1 X121.527 Y111.463 E0.02502
G1 X121.014 Y111.160 E0.01868
G1 X120.408 Y110.723 E0.02345
G1 X119.858 Y110.232 E0.02311
G1 X119.404 Y109.745 E0.02088
G1 X118.958 Y109.163 E0.02300
G1 X118.537 Y108.473 E0.02534
G1 X118.246 Y107.865 E0.02112
G1 X117.974 Y107.115 E0.02502
G1 X117.802 Y106.421 E0.02243
G1 X117.708 Y105.802 E0.01961
G1 X117.664 Y105.076 E0.02280
G1 X117.695 Y104.314 E0.02392
G1 X117.802 Y103.579 E0.02328
G1 X117.974 Y102.885 E0.02243
G1 X118.198 Y102.250 E0.02112
G1 X118.537 Y101.528 E0.02502
G1 X118.840 Y101.014 E0.01868
G1 X119.241 Y100.456 E0.02157
G1 X119.574 Y100.642 F7200.000
G1 F1743.569
G1 X120.037 Y100.121 E0.02186
G1 X120.502 Y99.689 E0.01989
G1 X121.055 Y99.266 E0.02182
G1 X121.707 Y98.869 E0.02396
G1 X122.390 Y98.549 E0.02365
G1 X122.993 Y98.336 E0.02004
G1 X123.545 Y98.194 E0.01787
G1 X124.245 Y98.081 E0.02223
G1 X124.941 Y98.041 E0.02186
G1 X125.575 Y98.064 E0.01989
G1 X126.265 Y98.156 E0.02182
G1 X127.007 Y98.336 E0.02396
G1 X127.610 Y98.549 E0.02004
G1 X128.293 Y98.869 E0.02365
G1 X128.784 Y99.158 E0.01787
G1 X129.358 Y99.574 E0.02223
G1 X129.879 Y100.037 E0.02186
G1 X130.311 Y100.502 E0.01989
G1 X130.734 Y101.055 E0.02182
G1 X131.131 Y101.707 E0.02396
G1 X131.451 Y102.390 E0.02365
G1 X131.664 Y102.993 E0.02004
G1 X131.828 Y103.652 E0.02130
G1 X131.918 Y104.242 E0.01869
G1 X131.959 Y104.930 E0.02164
G1 X131.929 Y105.651 E0.02263
G1 X131.828 Y106.348 E0.02207
G1 X131.664 Y107.007 E0.02130
G1 X131.407 Y107.716 E0.02366
G1 X131.131 Y108.293 E0.02004
G1 X130.842 Y108.784 E0.01786
G1 X130.426 Y109.358 E0.02223
G1 X129.963 Y109.879 E0.02186
G1 X129.498 Y110.311 E0.01989
G1 X128.945 Y110.734 E0.02182
G1 X128.293 Y111.131 E0.02395
G1 X127.716 Y111.407 E0.02004
G1 X127.007 Y111.664 E0.02366
G1 X126.455 Y111.806 E0.01787
G1 X125.755 Y111.919 E0.02223
G1 X125.059 Y111.959 E0.02186
G1 X124.425 Y111.936 E0.01989
G1 X123.735 Y111.844 E0.02182
G1 X122.993 Y111.664 E0.02395
G1 X122.390 Y111.451 E0.02004
G1 X121.707 Y111.131 E0.02366
G1 X121.216 Y110.842 E0.01786
G1 X120.642 Y110.426 E0.02223
G1 X120.121 Y109.963 E0.02186
G1 X119.689 Y109.498 E0.01989
G1 X119.266 Y108.945 E0.02182
G1 X118.869 Y108.293 E0.02395
G1 X118.593 Y107.716 E0.02004
G1 X118.336 Y107.007 E0.02366
G1 X118.172 Y106.348 E0.02129
G1 X118.082 Y105.758 E0.01870
G1 X118.041 Y105.070 E0.02164
G1 X118.071 Y104.349 E0.02263
G1 X118.172 Y103.652 E0.02207
G1 X118.336 Y102.993 E0.02129
G1 X118.549 Y102.390 E0.02004
G1 X118.869 Y101.707 E0.02365
G1 X119.158 Y101.216 E0.01787
G1 X119.538 Y100.690 E0.02035
G1 X119.870 Y100.875 F7200.000
G1 F1743.569
G1 X120.307 Y100.384 E0.02061
G1 X120.749 Y99.974 E0.01889
G1 X121.272 Y99.575 E0.02064
G1 X121.886 Y99.200 E0.02256
G1 X122.530 Y98.899 E0.02229
G1 X123.101 Y98.697 E0.01897
G1 X123.627 Y98.562 E0.01705
G1 X124.289 Y98.456 E0.02101
G1 X124.945 Y98.418 E0.02062
G1 X125.548 Y98.440 E0.01889
G1 X126.200 Y98.528 E0.02064
G1 X126.899 Y98.697 E0.02256
G1 X127.470 Y98.899 E0.01897
G1 X128.114 Y99.200 E0.02229
G1 X128.582 Y99.477 E0.01706
G1 X129.125 Y99.870 E0.02101
G1 X129.616 Y100.307 E0.02061
G1 X130.026 Y100.749 E0.01889
G1 X130.425 Y101.272 E0.02064
G1 X130.800 Y101.886 E0.02256
G1 X131.101 Y102.530 E0.02229
G1 X131.303 Y103.101 E0.01897
G1 X131.458 Y103.725 E0.02016
G1 X131.543 Y104.285 E0.01778
G1 X131.582 Y104.937 E0.02048
G1 X131.554 Y105.617 E0.02134
G1 X131.458 Y106.275 E0.02086
G1 X131.303 Y106.899 E0.02016
G1 X131.101 Y107.470 E0.01897
G1 X130.800 Y108.114 E0.02229
G1 X130.523 Y108.582 E0.01705
G1 X130.130 Y109.125 E0.02101
G1 X129.693 Y109.616 E0.02062
G1 X129.251 Y110.026 E0.01889
G1 X128.728 Y110.425 E0.02064
G1 X128.114 Y110.800 E0.02256
G1 X127.470 Y111.101 E0.02229
G1 X126.899 Y111.303 E0.01897
G1 X126.373 Y111.438 E0.01705
G1 X125.711 Y111.544 E0.02101
G1 X125.054 Y111.582 E0.02062
G1 X124.452 Y111.560 E0.01889
G1 X123.800 Y111.472 E0.02064
G1 X123.101 Y111.303 E0.02256
G1 X122.530 Y111.101 E0.01897
G1 X121.886 Y110.800 E0.02229
G1 X121.418 Y110.523 E0.01705
G1 X120.875 Y110.130 E0.02101
G1 X120.384 Y109.693 E0.02062
G1 X119.974 Y109.251 E0.01889
G1 X119.575 Y108.728 E0.02064
G1 X119.200 Y108.114 E0.02256
G1 X118.899 Y107.470 E0.02229
G1 X118.697 Y106.899 E0.01897
G1 X118.542 Y106.276 E0.02015
G1 X118.457 Y105.715 E0.01779
G1 X118.418 Y105.063 E0.02047
G1 X118.446 Y104.383 E0.02134
G1 X118.542 Y103.724 E0.02087
G1 X118.697 Y103.101 E0.02015
G1 X118.899 Y102.530 E0.01897
G1 X119.200 Y101.886 E0.02229
G1 X119.477 Y101.418 E0.01705
G1 X119.834 Y100.923 E0.01913
G1 X120.166 Y101.109 F7200.000
G1 F1743.569
G1 X120.577 Y100.648 E0.01937
G1 X120.996 Y100.260 E0.01790
G1 X121.489 Y99.883 E0.01946
G1 X122.066 Y99.532 E0.02117
G1 X122.670 Y99.249 E0.02093
G1 X123.208 Y99.059 E0.01790
G1 X123.710 Y98.930 E0.01624
G1 X124.333 Y98.830 E0.01979
G1 X124.950 Y98.795 E0.01937
G1 X125.520 Y98.816 E0.01790
G1 X126.136 Y98.899 E0.01946
G1 X126.792 Y99.059 E0.02117
G1 X127.330 Y99.249 E0.01790
G1 X127.934 Y99.532 E0.02093
G1 X128.380 Y99.796 E0.01624
G1 X128.891 Y100.166 E0.01979
G1 X129.352 Y100.577 E0.01937
G1 X129.740 Y100.996 E0.01790
G1 X130.117 Y101.489 E0.01946
G1 X130.468 Y102.066 E0.02117
G1 X130.751 Y102.670 E0.02093
G1 X130.941 Y103.208 E0.01790
G1 X131.088 Y103.797 E0.01902
G1 X131.169 Y104.329 E0.01686
G1 X131.205 Y104.944 E0.01931
G1 X131.178 Y105.583 E0.02005
G1 X131.088 Y106.203 E0.01966
G1 X130.941 Y106.792 E0.01902
G1 X130.751 Y107.330 E0.01790
G1 X130.468 Y107.934 E0.02093
G1 X130.204 Y108.380 E0.01624
G1 X129.834 Y108.891 E0.01979
G1 X129.423 Y109.352 E0.01937
G1 X129.004 Y109.741 E0.01789
G1 X128.511 Y110.117 E0.01946
G1 X127.934 Y110.468 E0.02117
G1 X127.330 Y110.751 E0.02093
G1 X126.792 Y110.941 E0.01790
G1 X126.290 Y111.070 E0.01624
G1 X125.667 Y111.170 E0.01979
G1 X125.050 Y111.205 E0.01937
G1 X124.480 Y111.184 E0.01789
G1 X123.864 Y111.101 E0.01946
G1 X123.208 Y110.941 E0.02117
G1 X122.670 Y110.751 E0.01790
G1 X122.066 Y110.468 E0.02093
G1 X121.620 Y110.204 E0.01624
G1 X121.109 Y109.834 E0.01979
G1 X120.648 Y109.423 E0.01937
G1 X120.259 Y109.004 E0.01789
G1 X119.883 Y108.511 E0.01946
G1 X119.532 Y107.934 E0.02117
G1 X119.249 Y107.330 E0.02093
G1 X119.059 Y106.792 E0.01790
G1 X118.912 Y106.203 E0.01901
G1 X118.831 Y105.671 E0.01687
G1 X118.795 Y105.056 E0.01931
G1 X118.822 Y104.417 E0.02005
G1 X118.912 Y103.797 E0.01967
G1 X119.059 Y103.208 E0.01901
G1 X119.249 Y102.670 E0.01790
G1 X119.532 Y102.066 E0.02093
G1 X119.796 Y101.620 E0.01624
G1 X120.130 Y101.157 E0.01791
G1 X120.462 Y101.342 F7200.000
G1 F1743.569
G1 X120.847 Y100.911 E0.01812
G1 X121.242 Y100.545 E0.01690
G1 X121.706 Y100.191 E0.01828
G1 X122.245 Y99.864 E0.01978
G1 X122.810 Y99.599 E0.01956
G1 X123.316 Y99.420 E0.01682
G1 X123.793 Y99.298 E0.01543
G1 X124.378 Y99.205 E0.01857
G1 X124.955 Y99.172 E0.01812
G1 X125.493 Y99.193 E0.01690
G1 X126.071 Y99.271 E0.01828
G1 X126.684 Y99.420 E0.01978
G1 X127.190 Y99.599 E0.01682
G1 X127.755 Y99.864 E0.01956
G1 X128.178 Y100.114 E0.01543
G1 X128.658 Y100.462 E0.01857
G1 X129.089 Y100.847 E0.01812
G1 X129.455 Y101.242 E0.01690
G1 X129.808 Y101.706 E0.01828
G1 X130.136 Y102.245 E0.01978
G1 X130.401 Y102.810 E0.01956
G1 X130.580 Y103.316 E0.01682
G1 X130.718 Y103.869 E0.01788
G1 X130.794 Y104.372 E0.01595
G1 X130.828 Y104.950 E0.01815
G1 X130.802 Y105.548 E0.01876
G1 X130.718 Y106.131 E0.01846
G1 X130.580 Y106.684 E0.01788
G1 X130.401 Y107.190 E0.01682
G1 X130.136 Y107.755 E0.01957
G1 X129.886 Y108.178 E0.01543
G1 X129.538 Y108.658 E0.01857
G1 X129.153 Y109.089 E0.01812
G1 X128.758 Y109.455 E0.01690
G1 X128.294 Y109.809 E0.01828
G1 X127.755 Y110.136 E0.01978
G1 X127.271 Y110.367 E0.01682
G1 X126.684 Y110.580 E0.01956
G1 X126.207 Y110.702 E0.01543
G1 X125.622 Y110.795 E0.01857
G1 X125.045 Y110.828 E0.01812
G1 X124.507 Y110.807 E0.01690
G1 X123.929 Y110.729 E0.01828
G1 X123.316 Y110.580 E0.01978
