; generated by Slic3r 1.33.8-prusa3d-win64 on 2017-03-11 at 00:31:50

; external perimeters extrusion width = 0.45mm
; perimeters extrusion width = 0.45mm
; infill extrusion width = 0.45mm
; solid infill extrusion width = 0.45mm
; top infill extrusion width = 0.40mm

M107
M115 U3.0.10 ; tell printer latest fw version
M83  ; extruder relative mode
M104 S215 ; set extruder temp
M140 S55 ; set bed temp
M190 S55 ; wait for bed temp
M109 S215 ; wait for extruder temp
G28 W ; home all without mesh bed level
G80 ; mesh bed leveling
G1 Y-3.0 F1000.0 ; go outside pritn area
G1 X60.0 E9.0  F1000.0 ; intro line
G1 X100.0 E12.5  F1000.0 ; intro line
G21 ; set units to millimeters
G90 ; use absolute coordinates
M83 ; use relative distances for extrusion
G1 E-0.80000 F2100.00000
G1 Z0.200 F7200.000
G1 X117.431 Y98.885 F7200.000
G1 E0.80000 F2100.00000
M204 S1000
G1 F2072.867
G1 X117.750 Y98.513 E0.01538
G1 X118.185 Y98.054 E0.01981
G1 X118.907 Y97.416 E0.03020
G1 X119.500 Y96.976 E0.02318
G1 X119.960 Y96.677 E0.01719
G1 X120.346 Y96.456 E0.01395
G1 X121.159 Y96.060 E0.02834
G1 X122.137 Y95.700 E0.03269
G1 X123.137 Y95.450 E0.03231
G1 X124.066 Y95.317 E0.02943
G1 X124.805 Y95.274 E0.02321
G1 X125.365 Y95.277 E0.01754
G1 X125.846 Y95.307 E0.01513
G1 X126.818 Y95.441 E0.03075
G1 X127.800 Y95.681 E0.03170
G1 X128.715 Y96.008 E0.03048
G1 X129.580 Y96.417 E0.03001
G1 X130.179 Y96.765 E0.02171
G1 X130.634 Y97.068 E0.01712
G1 X131.035 Y97.369 E0.01574
G1 X131.756 Y97.997 E0.02998
G1 X132.458 Y98.750 E0.03228
G1 X133.087 Y99.588 E0.03286
G1 X133.541 Y100.343 E0.02760
G1 X133.843 Y100.946 E0.02117
G1 X134.087 Y101.523 E0.01963
G1 X134.233 Y101.932 E0.01362
G1 X134.491 Y102.852 E0.02998
G1 X134.671 Y103.916 E0.03382
G1 X134.731 Y104.950 E0.03247
G1 X134.686 Y105.924 E0.03057
G1 X134.638 Y106.331 E0.01285
G1 X134.529 Y106.961 E0.02005
G1 X134.361 Y107.643 E0.02202
G1 X134.099 Y108.449 E0.02658
G1 X133.667 Y109.425 E0.03346
G1 X133.154 Y110.311 E0.03212
G1 X132.542 Y111.148 E0.03250
G1 X132.233 Y111.505 E0.01481
G1 X131.797 Y111.963 E0.01981
G1 X131.079 Y112.596 E0.03001
G1 X130.489 Y113.031 E0.02298
G1 X130.030 Y113.330 E0.01719
G1 X129.638 Y113.553 E0.01414
G1 X128.836 Y113.942 E0.02796
G1 X127.857 Y114.302 E0.03269
G1 X126.857 Y114.552 E0.03231
G1 X125.922 Y114.685 E0.02963
G1 X125.189 Y114.726 E0.02302
G1 X124.635 Y114.723 E0.01735
G1 X124.148 Y114.692 E0.01532
G1 X123.182 Y114.559 E0.03055
G1 X122.206 Y114.321 E0.03152
G1 X121.290 Y113.995 E0.03048
G1 X120.425 Y113.586 E0.03001
G1 X119.826 Y113.238 E0.02171
G1 X119.376 Y112.939 E0.01693
G1 X118.979 Y112.643 E0.01555
G1 X118.248 Y112.007 E0.03036
G1 X117.549 Y111.260 E0.03209
G1 X116.916 Y110.417 E0.03305
G1 X116.468 Y109.673 E0.02722
G1 X116.162 Y109.065 E0.02136
G1 X115.915 Y108.483 E0.01982
G1 X115.773 Y108.086 E0.01323
G1 X115.512 Y107.160 E0.03017
G1 X115.333 Y106.121 E0.03305
G1 X115.269 Y105.075 E0.03286
G1 X115.310 Y104.131 E0.02961
G1 X115.356 Y103.706 E0.01342
G1 X115.458 Y103.106 E0.01909
G1 X115.602 Y102.486 E0.01994
G1 X115.879 Y101.608 E0.02886
G1 X116.303 Y100.635 E0.03327
G1 X116.820 Y99.730 E0.03270
G1 X117.394 Y98.932 E0.03082
G1 X117.733 Y99.110 F7200.000
G1 F2072.867
G1 X118.035 Y98.761 E0.01447
G1 X118.460 Y98.313 E0.01936
G1 X119.153 Y97.702 E0.02899
G1 X119.714 Y97.286 E0.02188
G1 X120.162 Y96.995 E0.01677
G1 X120.537 Y96.781 E0.01352
G1 X121.311 Y96.405 E0.02699
G1 X122.257 Y96.058 E0.03159
G1 X123.217 Y95.818 E0.03103
G1 X124.115 Y95.691 E0.02843
G1 X124.811 Y95.651 E0.02185
G1 X125.346 Y95.654 E0.01680
G1 X125.817 Y95.683 E0.01479
G1 X126.745 Y95.811 E0.02936
G1 X127.694 Y96.043 E0.03065
G1 X128.575 Y96.358 E0.02933
G1 X129.409 Y96.753 E0.02892
G1 X129.979 Y97.085 E0.02070
G1 X130.411 Y97.373 E0.01627
G1 X130.802 Y97.665 E0.01531
G1 X131.495 Y98.269 E0.02880
G1 X132.170 Y98.992 E0.03103
G1 X132.777 Y99.803 E0.03177
G1 X133.210 Y100.523 E0.02633
G1 X133.497 Y101.096 E0.02011
G1 X133.736 Y101.659 E0.01914
G1 X133.873 Y102.044 E0.01282
G1 X134.123 Y102.934 E0.02898
G1 X134.296 Y103.962 E0.03270
G1 X134.354 Y104.956 E0.03121
G1 X134.310 Y105.891 E0.02936
G1 X134.265 Y106.279 E0.01226
G1 X134.158 Y106.893 E0.01952
G1 X133.999 Y107.537 E0.02081
G1 X133.748 Y108.309 E0.02545
G1 X133.331 Y109.252 E0.03233
G1 X132.836 Y110.109 E0.03103
G1 X132.244 Y110.917 E0.03140
G1 X131.528 Y111.699 E0.03326
G1 X130.838 Y112.306 E0.02880
G1 X130.276 Y112.720 E0.02188
G1 X129.827 Y113.011 E0.01677
G1 X129.452 Y113.224 E0.01352
G1 X128.683 Y113.597 E0.02680
G1 X127.743 Y113.942 E0.03140
G1 X126.777 Y114.183 E0.03122
G1 X125.879 Y114.310 E0.02843
G1 X125.183 Y114.349 E0.02185
G1 X124.648 Y114.346 E0.01680
G1 X124.183 Y114.317 E0.01461
G1 X123.255 Y114.189 E0.02935
G1 X122.306 Y113.957 E0.03066
G1 X121.425 Y113.642 E0.02933
G1 X120.597 Y113.250 E0.02873
G1 X120.030 Y112.922 E0.02052
G1 X119.593 Y112.631 E0.01646
G1 X119.211 Y112.346 E0.01494
G1 X118.509 Y111.735 E0.02917
G1 X117.834 Y111.012 E0.03103
G1 X117.226 Y110.202 E0.03177
G1 X116.796 Y109.487 E0.02614
G1 X116.507 Y108.914 E0.02011
G1 X116.269 Y108.353 E0.01914
G1 X116.133 Y107.973 E0.01263
G1 X115.880 Y107.078 E0.02917
G1 X115.708 Y106.073 E0.03196
G1 X115.646 Y105.068 E0.03158
G1 X115.685 Y104.162 E0.02843
G1 X115.730 Y103.756 E0.01282
G1 X115.830 Y103.171 E0.01859
G1 X115.965 Y102.588 E0.01876
G1 X116.232 Y101.741 E0.02788
G1 X116.639 Y100.806 E0.03196
G1 X117.139 Y99.931 E0.03159
G1 X117.696 Y99.157 E0.02990
G1 X118.036 Y99.336 F7200.000
G1 F2072.867
G1 X118.730 Y98.577 E0.03227
G1 X119.395 Y97.991 E0.02778
G1 X119.928 Y97.597 E0.02078
G1 X120.360 Y97.316 E0.01616
G1 X120.717 Y97.113 E0.01290
G1 X121.458 Y96.752 E0.02584
G1 X122.365 Y96.419 E0.03029
G1 X123.297 Y96.187 E0.03011
G1 X124.163 Y96.065 E0.02742
G1 X124.822 Y96.028 E0.02069
G1 X125.340 Y96.031 E0.01625
G1 X125.788 Y96.059 E0.01406
G1 X126.678 Y96.182 E0.02816
G1 X127.594 Y96.407 E0.02959
G1 X128.519 Y96.743 E0.03085
G1 X129.237 Y97.088 E0.02498
G1 X129.775 Y97.402 E0.01952
G1 X130.194 Y97.681 E0.01581
G1 X130.569 Y97.962 E0.01469
G1 X131.234 Y98.541 E0.02762
G1 X131.885 Y99.240 E0.02996
G1 X132.467 Y100.018 E0.03049
G1 X132.881 Y100.709 E0.02525
G1 X133.152 Y101.247 E0.01889
G1 X133.384 Y101.795 E0.01865
G1 X133.513 Y102.156 E0.01203
G1 X133.755 Y103.015 E0.02798
G1 X133.921 Y104.002 E0.03139
G1 X133.977 Y104.962 E0.03013
G1 X133.935 Y105.859 E0.02815
G1 X133.892 Y106.223 E0.01149
G1 X133.787 Y106.825 E0.01917
G1 X133.637 Y107.432 E0.01959
G1 X133.398 Y108.170 E0.02435
G1 X132.996 Y109.080 E0.03119
G1 X132.517 Y109.907 E0.02994
G1 X131.950 Y110.682 E0.03012
G1 X131.262 Y111.432 E0.03191
G1 X130.596 Y112.016 E0.02778
G1 X130.067 Y112.406 E0.02060
G1 X129.635 Y112.687 E0.01616
G1 X129.273 Y112.893 E0.01308
G1 X128.536 Y113.250 E0.02566
G1 X127.629 Y113.583 E0.03029
G1 X126.703 Y113.813 E0.02993
G1 X125.837 Y113.935 E0.02742
G1 X125.184 Y113.972 E0.02051
G1 X124.665 Y113.970 E0.01626
G1 X124.218 Y113.941 E0.01407
G1 X123.322 Y113.818 E0.02833
G1 X122.411 Y113.595 E0.02942
G1 X121.486 Y113.260 E0.03085
G1 X120.768 Y112.914 E0.02498
G1 X120.235 Y112.605 E0.01934
G1 X119.810 Y112.322 E0.01598
G1 X119.444 Y112.049 E0.01433
G1 X118.770 Y111.463 E0.02798
G1 X118.123 Y110.769 E0.02978
G1 X117.539 Y109.991 E0.03049
G1 X117.127 Y109.306 E0.02507
G1 X116.853 Y108.763 E0.01907
G1 X116.618 Y108.211 E0.01883
G1 X116.491 Y107.855 E0.01185
G1 X116.248 Y106.996 E0.02798
G1 X116.082 Y106.026 E0.03085
G1 X116.023 Y105.055 E0.03049
G1 X116.064 Y104.158 E0.02815
G1 X116.106 Y103.789 E0.01167
G1 X116.209 Y103.192 E0.01899
G1 X116.353 Y102.602 E0.01905
G1 X116.596 Y101.846 E0.02489
G1 X116.988 Y100.950 E0.03065
G1 X117.464 Y100.122 E0.02994
G1 X117.998 Y99.383 E0.02859
G1 F5760
G1 X118.730 Y98.577 E-0.37718
G1 F5760
G1 X119.395 Y97.991 E-0.30687
G1 F5760
G1 X119.571 Y97.861 E-0.07595
G1 E-0.04000 F2100.00000
G1 X118.932 Y99.884 F7200.000
G1 E0.80000 F2100.00000
G1 F2072.867
G1 X119.554 Y99.226 E0.02841
G1 X120.109 Y98.750 E0.02291
G1 X120.861 Y98.229 E0.02869
G1 X121.268 Y97.998 E0.01468
G1 X121.812 Y97.732 E0.01897
G1 X122.661 Y97.416 E0.02841
G1 X123.541 Y97.199 E0.02841
G1 X124.439 Y97.084 E0.02841
G1 X125.345 Y97.072 E0.02841
G1 X126.135 Y97.147 E0.02488
G1 X126.596 Y97.227 E0.01468
G1 X127.132 Y97.356 E0.01727
G1 X127.481 Y97.462 E0.01143
G1 X128.188 Y97.732 E0.02375
G1 X128.996 Y98.143 E0.02841
G1 X129.752 Y98.643 E0.02841
G1 X130.234 Y99.038 E0.01953
G1 X130.578 Y99.355 E0.01468
G1 X131.191 Y100.034 E0.02869
G1 X131.612 Y100.609 E0.02234
G1 X132.069 Y101.391 E0.02841
G1 X132.435 Y102.221 E0.02841
G1 X132.643 Y102.879 E0.02165
G1 X132.755 Y103.310 E0.01397
G1 X132.898 Y104.214 E0.02870
G1 X132.936 Y105.122 E0.02848
G1 X132.871 Y106.023 E0.02834
G1 X132.703 Y106.914 E0.02841
G1 X132.509 Y107.571 E0.02150
G1 X132.163 Y108.419 E0.02869
G1 X131.945 Y108.833 E0.01468
G1 X131.612 Y109.391 E0.02038
G1 X131.068 Y110.116 E0.02841
G1 X130.446 Y110.774 E0.02841
G1 X129.891 Y111.250 E0.02291
G1 X129.139 Y111.771 E0.02869
G1 X128.732 Y112.002 E0.01468
G1 X128.188 Y112.268 E0.01896
G1 X127.339 Y112.584 E0.02841
G1 X126.459 Y112.801 E0.02841
G1 X125.691 Y112.905 E0.02432
G1 X125.345 Y112.928 E0.01086
G1 X124.776 Y112.932 E0.01784
G1 X124.309 Y112.905 E0.01468
G1 X123.541 Y112.801 E0.02432
G1 X122.661 Y112.584 E0.02841
G1 X121.812 Y112.268 E0.02841
G1 X121.268 Y112.002 E0.01896
G1 X120.861 Y111.771 E0.01468
G1 X120.109 Y111.250 E0.02869
G1 X119.554 Y110.774 E0.02291
G1 X118.932 Y110.116 E0.02841
G1 X118.388 Y109.391 E0.02841
G1 X117.930 Y108.609 E0.02841
G1 X117.565 Y107.779 E0.02841
G1 X117.357 Y107.121 E0.02165
G1 X117.245 Y106.690 E0.01397
G1 X117.102 Y105.786 E0.02869
G1 X117.064 Y104.878 E0.02848
G1 X117.129 Y103.977 E0.02834
G1 X117.297 Y103.086 E0.02841
G1 X117.491 Y102.429 E0.02150
G1 X117.837 Y101.581 E0.02869
G1 X118.035 Y101.202 E0.01340
G1 X118.388 Y100.609 E0.02165
G1 X118.894 Y99.931 E0.02653
G1 X119.218 Y100.129 F7200.000
G1 F2072.867
G1 X119.812 Y99.502 E0.02707
G1 X120.346 Y99.044 E0.02205
G1 X121.062 Y98.548 E0.02733
G1 X121.441 Y98.334 E0.01364
G1 X121.962 Y98.078 E0.01820
G1 X122.771 Y97.777 E0.02707
G1 X123.610 Y97.570 E0.02707
G1 X124.466 Y97.460 E0.02707
G1 X125.329 Y97.449 E0.02707
G1 X126.086 Y97.521 E0.02385
G1 X126.515 Y97.595 E0.01364
G1 X127.358 Y97.819 E0.02733
G1 X128.038 Y98.078 E0.02282
G1 X128.807 Y98.469 E0.02707
G1 X129.527 Y98.946 E0.02707
G1 X129.989 Y99.325 E0.01872
G1 X130.309 Y99.619 E0.01364
G1 X130.893 Y100.266 E0.02733
G1 X131.299 Y100.820 E0.02153
G1 X131.735 Y101.566 E0.02707
G1 X132.083 Y102.356 E0.02708
G1 X132.281 Y102.984 E0.02065
G1 X132.385 Y103.385 E0.01300
G1 X132.522 Y104.246 E0.02733
G1 X132.559 Y105.111 E0.02714
G1 X132.498 Y105.970 E0.02701
G1 X132.338 Y106.819 E0.02708
G1 X132.150 Y107.454 E0.02076
G1 X131.820 Y108.261 E0.02733
G1 X131.618 Y108.646 E0.01364
G1 X131.299 Y109.180 E0.01949
G1 X130.782 Y109.871 E0.02707
G1 X130.188 Y110.498 E0.02708
G1 X129.654 Y110.956 E0.02205
G1 X128.938 Y111.452 E0.02733
G1 X128.559 Y111.666 E0.01364
G1 X128.038 Y111.922 E0.01820
G1 X127.229 Y112.223 E0.02707
G1 X126.390 Y112.430 E0.02707
G1 X125.653 Y112.530 E0.02333
G1 X125.218 Y112.555 E0.01364
G1 X124.671 Y112.551 E0.01717
G1 X124.347 Y112.530 E0.01016
G1 X123.610 Y112.430 E0.02333
G1 X122.771 Y112.223 E0.02707
G1 X121.962 Y111.922 E0.02707
G1 X121.441 Y111.666 E0.01820
G1 X121.062 Y111.452 E0.01364
G1 X120.346 Y110.956 E0.02733
G1 X119.812 Y110.498 E0.02205
G1 X119.218 Y109.871 E0.02707
G1 X118.701 Y109.180 E0.02707
G1 X118.265 Y108.434 E0.02707
G1 X117.917 Y107.644 E0.02708
G1 X117.719 Y107.016 E0.02065
G1 X117.615 Y106.615 E0.01300
G1 X117.478 Y105.754 E0.02733
G1 X117.441 Y104.889 E0.02714
G1 X117.502 Y104.030 E0.02701
G1 X117.662 Y103.181 E0.02708
G1 X117.850 Y102.546 E0.02076
G1 X118.180 Y101.739 E0.02733
G1 X118.364 Y101.386 E0.01248
G1 X118.701 Y100.820 E0.02065
G1 X119.180 Y100.176 E0.02519
G1 X119.505 Y100.374 F7200.000
G1 F2072.867
G1 X120.069 Y99.777 E0.02574
G1 X120.582 Y99.338 E0.02119
G1 X121.263 Y98.867 E0.02597
G1 X121.614 Y98.669 E0.01261
G1 X122.113 Y98.424 E0.01744
G1 X122.882 Y98.137 E0.02573
G1 X123.679 Y97.941 E0.02573
G1 X124.493 Y97.836 E0.02573
G1 X125.313 Y97.825 E0.02573
G1 X126.038 Y97.895 E0.02282
G1 X126.434 Y97.964 E0.01261
G1 X127.235 Y98.175 E0.02596
G1 X127.887 Y98.424 E0.02189
G1 X128.619 Y98.796 E0.02573
G1 X129.303 Y99.249 E0.02574
G1 X129.744 Y99.612 E0.01791
G1 X130.040 Y99.884 E0.01261
G1 X130.596 Y100.498 E0.02597
G1 X130.987 Y101.031 E0.02072
G1 X131.401 Y101.740 E0.02574
G1 X131.731 Y102.492 E0.02574
G1 X131.914 Y103.072 E0.01907
G1 X132.016 Y103.461 E0.01261
G1 X132.146 Y104.279 E0.02597
G1 X132.182 Y105.101 E0.02579
G1 X132.124 Y105.917 E0.02568
G1 X131.973 Y106.724 E0.02574
G1 X131.792 Y107.337 E0.02002
G1 X131.478 Y108.103 E0.02597
G1 X131.290 Y108.459 E0.01261
G1 X130.987 Y108.969 E0.01861
G1 X130.495 Y109.626 E0.02574
G1 X129.931 Y110.223 E0.02574
G1 X129.418 Y110.662 E0.02119
G1 X128.737 Y111.133 E0.02597
G1 X128.386 Y111.331 E0.01261
G1 X127.887 Y111.576 E0.01744
G1 X127.118 Y111.863 E0.02573
G1 X126.321 Y112.059 E0.02573
G1 X125.615 Y112.155 E0.02235
G1 X125.213 Y112.178 E0.01261
G1 X124.385 Y112.155 E0.02596
G1 X123.679 Y112.059 E0.02235
G1 X122.882 Y111.863 E0.02573
G1 X122.113 Y111.576 E0.02573
G1 X121.614 Y111.331 E0.01744
G1 X121.263 Y111.133 E0.01261
G1 X120.582 Y110.662 E0.02597
G1 X120.069 Y110.223 E0.02119
G1 X119.505 Y109.626 E0.02574
G1 X119.013 Y108.969 E0.02574
G1 X118.599 Y108.260 E0.02574
G1 X118.269 Y107.508 E0.02574
G1 X118.086 Y106.928 E0.01907
G1 X117.984 Y106.539 E0.01261
G1 X117.853 Y105.721 E0.02597
G1 X117.818 Y104.900 E0.02579
G1 X117.876 Y104.083 E0.02568
G1 X118.027 Y103.276 E0.02574
G1 X118.208 Y102.663 E0.02002
G1 X118.522 Y101.897 E0.02597
G1 X118.693 Y101.570 E0.01156
G1 X119.013 Y101.031 E0.01966
G1 X119.467 Y100.421 E0.02386
G1 X119.792 Y100.619 F7200.000
G1 F2072.867
G1 X120.326 Y100.053 E0.02440
G1 X120.819 Y99.632 E0.02033
G1 X121.465 Y99.186 E0.02460
G1 X121.786 Y99.004 E0.01158
G1 X122.263 Y98.769 E0.01668
G1 X122.993 Y98.498 E0.02440
G1 X123.748 Y98.311 E0.02439
G1 X124.520 Y98.212 E0.02440
G1 X125.298 Y98.202 E0.02439
G1 X125.989 Y98.269 E0.02179
G1 X126.353 Y98.332 E0.01158
G1 X127.112 Y98.532 E0.02460
G1 X127.737 Y98.769 E0.02095
G1 X128.430 Y99.122 E0.02440
G1 X129.079 Y99.552 E0.02440
G1 X129.500 Y99.899 E0.01710
G1 X129.772 Y100.148 E0.01158
G1 X130.299 Y100.730 E0.02460
G1 X130.674 Y101.242 E0.01991
G1 X131.066 Y101.914 E0.02440
G1 X131.379 Y102.627 E0.02440
G1 X131.553 Y103.179 E0.01814
G1 X131.646 Y103.536 E0.01158
G1 X131.771 Y104.311 E0.02461
G1 X131.805 Y105.090 E0.02445
G1 X131.751 Y105.865 E0.02435
G1 X131.608 Y106.629 E0.02440
G1 X131.433 Y107.219 E0.01929
G1 X131.135 Y107.945 E0.02461
G1 X130.963 Y108.272 E0.01158
G1 X130.674 Y108.758 E0.01772
G1 X130.208 Y109.381 E0.02440
G1 X129.674 Y109.947 E0.02440
G1 X129.181 Y110.368 E0.02033
G1 X128.535 Y110.814 E0.02460
G1 X128.214 Y110.996 E0.01158
G1 X127.737 Y111.231 E0.01668
G1 X127.007 Y111.502 E0.02440
G1 X126.252 Y111.689 E0.02440
G1 X125.576 Y111.779 E0.02137
G1 X125.208 Y111.800 E0.01158
G1 X124.423 Y111.779 E0.02460
G1 X123.748 Y111.689 E0.02137
G1 X122.993 Y111.502 E0.02440
G1 X122.263 Y111.231 E0.02440
G1 X121.786 Y110.996 E0.01668
G1 X121.465 Y110.814 E0.01158
G1 X120.819 Y110.368 E0.02460
G1 X120.326 Y109.947 E0.02033
G1 X119.792 Y109.381 E0.02440
G1 X119.326 Y108.758 E0.02440
G1 X119.022 Y108.246 E0.01866
G1 X118.865 Y107.945 E0.01064
G1 X118.567 Y107.219 E0.02461
G1 X118.354 Y106.464 E0.02461
G1 X118.229 Y105.689 E0.02461
G1 X118.195 Y104.910 E0.02445
G1 X118.249 Y104.136 E0.02435
G1 X118.392 Y103.371 E0.02440
G1 X118.567 Y102.781 E0.01929
G1 X118.865 Y102.055 E0.02461
G1 X119.022 Y101.754 E0.01064
G1 X119.326 Y101.242 E0.01866
G1 X119.754 Y100.666 E0.02252
G1 X120.079 Y100.864 F7200.000
G1 F2072.867
G1 X120.583 Y100.329 E0.02306
G1 X121.055 Y99.925 E0.01947
G1 X121.666 Y99.505 E0.02324
G1 X121.959 Y99.340 E0.01055
G1 X122.414 Y99.115 E0.01592
G1 X123.103 Y98.858 E0.02306
G1 X123.817 Y98.682 E0.02306
G1 X124.546 Y98.589 E0.02306
G1 X125.282 Y98.579 E0.02306
