; generated by Slic3r 1.33.8-prusa3d-win64 on 2017-04-04 at 21:34:05

; external perimeters extrusion width = 0.45mm
; perimeters extrusion width = 0.45mm
; infill extrusion width = 0.45mm
; solid infill extrusion width = 0.45mm
; top infill extrusion width = 0.45mm

M107
M115 U3.0.10 ; tell printer latest fw version
M83  ; extruder relative mode
M104 S215 ; set extruder temp
M140 S55 ; set bed temp
M190 S55 ; wait for bed temp
M109 S215 ; wait for extruder temp
G28 W ; home all without mesh bed level
G80 ; mesh bed leveling
G1 Y-3.0 F1000.0 ; go outside pritn area
G1 X60.0 E9.0  F1000.0 ; intro line
G1 X100.0 E12.5  F1000.0 ; intro line
G21 ; set units to millimeters
G90 ; use absolute coordinates
M83 ; use relative distances for extrusion
G1 E-0.80000 F2100.00000
G1 Z0.200 F7200.000
G1 X118.547 Y99.121 F7200.000
G1 E0.80000 F2100.00000
M204 S1000
G1 F1624.320
G1 X119.095 Y98.571 E0.02434
G1 X119.961 Y97.870 E0.03493
G1 X120.526 Y97.506 E0.02109
G1 X121.454 Y97.021 E0.03282
G1 X122.097 Y96.769 E0.02166
G1 X123.145 Y96.467 E0.03419
G1 X123.760 Y96.361 E0.01956
G1 X124.777 Y96.271 E0.03203
G1 X125.474 Y96.286 E0.02185
G1 X126.570 Y96.410 E0.03458
G1 X127.190 Y96.552 E0.01994
G1 X128.193 Y96.872 E0.03301
G1 X128.790 Y97.139 E0.02051
G1 X129.737 Y97.664 E0.03396
G1 X130.236 Y98.018 E0.01917
G1 X131.010 Y98.666 E0.03167
G1 X131.497 Y99.173 E0.02205
G1 X132.187 Y100.040 E0.03474
G1 X132.524 Y100.580 E0.01994
G1 X133.014 Y101.532 E0.03359
G1 X133.246 Y102.144 E0.02051
G1 X133.544 Y103.193 E0.03418
G1 X133.643 Y103.796 E0.01917
G1 X133.731 Y104.832 E0.03261
G1 X133.713 Y105.499 E0.02090
G1 X133.586 Y106.594 E0.03457
G1 X133.444 Y107.201 E0.01956
G1 X133.123 Y108.204 E0.03301
G1 X132.858 Y108.795 E0.02032
G1 X132.336 Y109.737 E0.03376
G1 X131.986 Y110.231 E0.01898
G1 X131.350 Y110.992 E0.03109
G1 X130.841 Y111.485 E0.02224
G1 X129.970 Y112.180 E0.03493
G1 X129.426 Y112.521 E0.02013
G1 X128.485 Y113.007 E0.03321
G1 X127.868 Y113.242 E0.02070
G1 X126.819 Y113.541 E0.03418
G1 X126.210 Y113.642 E0.01936
G1 X125.180 Y113.730 E0.03242
G1 X124.507 Y113.713 E0.02109
G1 X123.412 Y113.587 E0.03457
G1 X122.804 Y113.446 E0.01956
G1 X121.796 Y113.123 E0.03320
G1 X121.205 Y112.858 E0.02032
G1 X120.268 Y112.339 E0.03358
G1 X119.774 Y111.990 E0.01898
G1 X119.008 Y111.350 E0.03128
G1 X118.515 Y110.841 E0.02224
G1 X117.827 Y109.980 E0.03455
G1 X117.488 Y109.442 E0.01994
G1 X117.003 Y108.507 E0.03301
G1 X116.764 Y107.885 E0.02090
G1 X116.466 Y106.849 E0.03380
G1 X116.362 Y106.246 E0.01917
G1 X116.272 Y105.253 E0.03127
G1 X116.284 Y104.550 E0.02205
G1 X116.403 Y103.472 E0.03400
G1 X116.539 Y102.857 E0.01975
G1 X116.840 Y101.893 E0.03167
G1 X117.109 Y101.270 E0.02128
G1 X117.606 Y100.356 E0.03262
G1 X117.951 Y99.851 E0.01917
G1 X118.508 Y99.167 E0.02767
G1 X118.839 Y99.361 F7200.000
G1 F1624.320
G1 X119.354 Y98.845 E0.02284
G1 X120.196 Y98.165 E0.03394
G1 X120.725 Y97.827 E0.01969
G1 X121.621 Y97.359 E0.03171
G1 X122.223 Y97.125 E0.02024
G1 X123.235 Y96.833 E0.03303
G1 X123.813 Y96.734 E0.01839
G1 X124.803 Y96.648 E0.03113
G1 X125.454 Y96.662 E0.02043
G1 X126.513 Y96.783 E0.03341
G1 X127.096 Y96.918 E0.01876
G1 X128.070 Y97.229 E0.03207
G1 X128.632 Y97.482 E0.01932
G1 X129.547 Y97.990 E0.03281
G1 X130.010 Y98.320 E0.01783
G1 X130.762 Y98.950 E0.03078
G1 X131.217 Y99.425 E0.02061
G1 X131.883 Y100.263 E0.03357
G1 X132.199 Y100.771 E0.01876
G1 X132.672 Y101.692 E0.03245
G1 X132.888 Y102.263 E0.01913
G1 X133.176 Y103.276 E0.03303
G1 X133.269 Y103.843 E0.01802
G1 X133.354 Y104.850 E0.03169
G1 X133.336 Y105.478 E0.01969
G1 X133.213 Y106.536 E0.03341
G1 X133.081 Y107.101 E0.01820
G1 X132.769 Y108.075 E0.03207
G1 X132.518 Y108.632 E0.01913
G1 X132.013 Y109.542 E0.03262
G1 X131.684 Y110.005 E0.01783
G1 X131.066 Y110.745 E0.03022
G1 X130.584 Y111.209 E0.02099
G1 X129.746 Y111.876 E0.03357
G1 X129.234 Y112.196 E0.01894
G1 X128.319 Y112.668 E0.03227
G1 X127.743 Y112.886 E0.01932
G1 X126.730 Y113.174 E0.03303
G1 X126.157 Y113.269 E0.01820
G1 X125.156 Y113.354 E0.03151
G1 X124.528 Y113.336 E0.01969
G1 X123.470 Y113.214 E0.03341
G1 X122.899 Y113.081 E0.01839
G1 X121.925 Y112.769 E0.03208
G1 X121.368 Y112.518 E0.01913
G1 X120.458 Y112.013 E0.03263
G1 X119.995 Y111.684 E0.01783
G1 X119.255 Y111.066 E0.03022
G1 X118.795 Y110.588 E0.02080
G1 X118.127 Y109.751 E0.03357
G1 X117.809 Y109.244 E0.01876
G1 X117.342 Y108.341 E0.03190
G1 X117.119 Y107.760 E0.01950
G1 X116.832 Y106.759 E0.03266
G1 X116.735 Y106.193 E0.01802
G1 X116.649 Y105.227 E0.03039
G1 X116.660 Y104.570 E0.02061
G1 X116.777 Y103.522 E0.03304
G1 X116.906 Y102.944 E0.01857
G1 X117.200 Y102.008 E0.03078
G1 X117.452 Y101.426 E0.01987
G1 X117.936 Y100.539 E0.03170
G1 X118.262 Y100.065 E0.01802
G1 X118.800 Y99.406 E0.02667
G1 X119.130 Y99.601 F7200.000
G1 F1624.320
G1 X119.613 Y99.120 E0.02136
G1 X120.425 Y98.464 E0.03274
G1 X120.918 Y98.151 E0.01831
G1 X121.788 Y97.697 E0.03077
G1 X122.349 Y97.481 E0.01885
G1 X123.331 Y97.198 E0.03204
G1 X123.873 Y97.107 E0.01724
G1 X124.827 Y97.024 E0.03003
G1 X125.434 Y97.039 E0.01903
G1 X126.461 Y97.156 E0.03240
G1 X126.996 Y97.281 E0.01724
G1 X127.941 Y97.584 E0.03112
G1 X128.463 Y97.819 E0.01795
G1 X129.351 Y98.312 E0.03183
G1 X129.784 Y98.622 E0.01670
G1 X130.514 Y99.234 E0.02986
G1 X130.936 Y99.678 E0.01921
G1 X131.579 Y100.486 E0.03238
G1 X131.872 Y100.958 E0.01742
G1 X132.331 Y101.851 E0.03148
G1 X132.530 Y102.382 E0.01777
G1 X132.809 Y103.365 E0.03204
G1 X132.896 Y103.896 E0.01688
G1 X132.977 Y104.873 E0.03075
G1 X132.959 Y105.457 E0.01831
G1 X132.840 Y106.478 E0.03222
G1 X132.715 Y107.007 E0.01706
G1 X132.412 Y107.952 E0.03112
G1 X132.181 Y108.463 E0.01760
G1 X131.691 Y109.346 E0.03165
G1 X131.382 Y109.780 E0.01670
G1 X130.781 Y110.497 E0.02932
G1 X130.336 Y110.925 E0.01939
G1 X129.523 Y111.572 E0.03256
G1 X129.047 Y111.869 E0.01759
G1 X128.159 Y112.326 E0.03130
G1 X127.624 Y112.528 E0.01795
G1 X126.641 Y112.808 E0.03204
G1 X126.110 Y112.895 E0.01688
G1 X125.133 Y112.977 E0.03075
G1 X124.549 Y112.960 E0.01831
G1 X123.528 Y112.841 E0.03222
G1 X122.993 Y112.715 E0.01724
G1 X122.053 Y112.414 E0.03094
G1 X121.537 Y112.181 E0.01777
G1 X120.654 Y111.691 E0.03165
G1 X120.220 Y111.382 E0.01670
G1 X119.503 Y110.781 E0.02932
G1 X119.075 Y110.336 E0.01939
G1 X118.431 Y109.528 E0.03238
G1 X118.134 Y109.052 E0.01760
G1 X117.683 Y108.180 E0.03077
G1 X117.477 Y107.640 E0.01813
G1 X117.198 Y106.669 E0.03168
G1 X117.108 Y106.138 E0.01688
G1 X117.025 Y105.201 E0.02949
G1 X117.037 Y104.589 E0.01921
G1 X117.150 Y103.579 E0.03187
G1 X117.272 Y103.037 E0.01742
G1 X117.555 Y102.134 E0.02968
G1 X117.793 Y101.588 E0.01867
G1 X118.260 Y100.732 E0.03058
G1 X118.566 Y100.288 E0.01688
G1 X119.091 Y99.646 E0.02600
G1 F5760
G1 X119.613 Y99.120 E-0.25670
G1 F5760
G1 X120.425 Y98.464 E-0.36169
G1 F5760
G1 X120.770 Y98.245 E-0.14161
G1 E-0.04000 F2100.00000
G1 X119.943 Y100.245 F7200.000
G1 E0.80000 F2100.00000
G1 F1624.320
G1 X120.245 Y99.943 E0.01336
G1 X120.968 Y99.350 E0.02933
G1 X121.322 Y99.113 E0.01336
G1 X122.148 Y98.672 E0.02935
G1 X122.541 Y98.509 E0.01336
G1 X123.438 Y98.237 E0.02937
G1 X123.855 Y98.154 E0.01334
G1 X124.787 Y98.062 E0.02936
G1 X125.213 Y98.062 E0.01336
G1 X126.145 Y98.154 E0.02936
G1 X126.562 Y98.237 E0.01334
G1 X127.459 Y98.509 E0.02937
G1 X127.852 Y98.672 E0.01336
G1 X128.678 Y99.113 E0.02935
G1 X129.032 Y99.350 E0.01337
G1 X129.755 Y99.943 E0.02933
G1 X130.057 Y100.245 E0.01336
G1 X130.650 Y100.968 E0.02933
G1 X130.887 Y101.322 E0.01336
G1 X131.328 Y102.148 E0.02935
G1 X131.491 Y102.541 E0.01336
G1 X131.763 Y103.438 E0.02937
G1 X131.846 Y103.855 E0.01334
G1 X131.938 Y104.787 E0.02936
G1 X131.938 Y105.213 E0.01336
G1 X131.846 Y106.145 E0.02936
G1 X131.763 Y106.562 E0.01334
G1 X131.491 Y107.459 E0.02937
G1 X131.328 Y107.852 E0.01336
G1 X130.887 Y108.678 E0.02935
G1 X130.650 Y109.032 E0.01337
G1 X130.057 Y109.755 E0.02933
G1 X129.755 Y110.057 E0.01336
G1 X129.032 Y110.650 E0.02933
G1 X128.678 Y110.887 E0.01337
G1 X127.852 Y111.328 E0.02935
G1 X127.459 Y111.491 E0.01336
G1 X126.562 Y111.763 E0.02937
G1 X126.145 Y111.846 E0.01334
G1 X125.213 Y111.938 E0.02936
G1 X124.787 Y111.938 E0.01336
G1 X123.855 Y111.846 E0.02936
G1 X123.438 Y111.763 E0.01334
G1 X122.541 Y111.491 E0.02937
G1 X122.148 Y111.328 E0.01336
G1 X121.322 Y110.887 E0.02935
G1 X120.968 Y110.650 E0.01336
G1 X120.245 Y110.057 E0.02933
G1 X119.943 Y109.755 E0.01336
G1 X119.350 Y109.032 E0.02933
G1 X119.113 Y108.678 E0.01337
G1 X118.672 Y107.852 E0.02935
G1 X118.509 Y107.459 E0.01336
G1 X118.237 Y106.562 E0.02937
G1 X118.154 Y106.145 E0.01334
G1 X118.062 Y105.213 E0.02936
G1 X118.062 Y104.787 E0.01336
G1 X118.154 Y103.855 E0.02936
G1 X118.237 Y103.438 E0.01334
G1 X118.509 Y102.541 E0.02937
G1 X118.672 Y102.148 E0.01336
G1 X119.113 Y101.322 E0.02935
G1 X119.350 Y100.968 E0.01336
G1 X119.905 Y100.291 E0.02745
G1 X120.223 Y100.498 F7200.000
G1 F1624.320
G1 X120.498 Y100.223 E0.01220
G1 X121.193 Y99.653 E0.02817
G1 X121.516 Y99.437 E0.01220
G1 X122.309 Y99.013 E0.02819
G1 X122.669 Y98.864 E0.01219
G1 X123.529 Y98.603 E0.02821
G1 X123.910 Y98.527 E0.01218
G1 X124.805 Y98.439 E0.02820
G1 X125.194 Y98.439 E0.01220
G1 X126.090 Y98.527 E0.02820
G1 X126.471 Y98.603 E0.01218
G1 X127.331 Y98.864 E0.02821
G1 X127.691 Y99.013 E0.01219
G1 X128.484 Y99.437 E0.02819
G1 X128.807 Y99.653 E0.01220
G1 X129.502 Y100.223 E0.02817
G1 X129.777 Y100.498 E0.01220
G1 X130.347 Y101.193 E0.02817
G1 X130.563 Y101.516 E0.01220
G1 X130.987 Y102.309 E0.02819
G1 X131.136 Y102.669 E0.01219
G1 X131.397 Y103.529 E0.02821
G1 X131.473 Y103.910 E0.01218
G1 X131.561 Y104.806 E0.02820
G1 X131.561 Y105.195 E0.01220
G1 X131.473 Y106.090 E0.02820
G1 X131.397 Y106.471 E0.01218
G1 X131.136 Y107.331 E0.02821
G1 X130.987 Y107.691 E0.01219
G1 X130.563 Y108.484 E0.02819
G1 X130.347 Y108.807 E0.01220
G1 X129.777 Y109.502 E0.02817
G1 X129.502 Y109.777 E0.01220
G1 X128.807 Y110.347 E0.02817
G1 X128.484 Y110.563 E0.01220
G1 X127.691 Y110.987 E0.02819
G1 X127.331 Y111.136 E0.01219
G1 X126.471 Y111.397 E0.02821
G1 X126.090 Y111.473 E0.01218
G1 X125.195 Y111.561 E0.02820
G1 X124.806 Y111.561 E0.01220
G1 X123.910 Y111.473 E0.02820
G1 X123.529 Y111.397 E0.01218
G1 X122.669 Y111.136 E0.02821
G1 X122.309 Y110.987 E0.01219
G1 X121.516 Y110.563 E0.02819
G1 X121.193 Y110.347 E0.01220
G1 X120.498 Y109.777 E0.02817
G1 X120.223 Y109.502 E0.01220
G1 X119.653 Y108.807 E0.02817
G1 X119.437 Y108.484 E0.01220
G1 X119.013 Y107.691 E0.02819
G1 X118.864 Y107.331 E0.01219
G1 X118.603 Y106.471 E0.02821
G1 X118.527 Y106.090 E0.01218
G1 X118.439 Y105.194 E0.02820
G1 X118.439 Y104.805 E0.01220
G1 X118.527 Y103.910 E0.02820
G1 X118.603 Y103.529 E0.01218
G1 X118.864 Y102.669 E0.02821
G1 X119.013 Y102.309 E0.01219
G1 X119.437 Y101.516 E0.02819
G1 X119.653 Y101.193 E0.01220
G1 X120.185 Y100.545 E0.02629
G1 X120.503 Y100.752 F7200.000
G1 F1624.320
G1 X120.752 Y100.503 E0.01104
G1 X121.418 Y99.956 E0.02701
G1 X121.711 Y99.761 E0.01104
G1 X122.471 Y99.354 E0.02703
G1 X122.796 Y99.220 E0.01103
G1 X123.621 Y98.969 E0.02704
G1 X123.966 Y98.901 E0.01102
G1 X124.824 Y98.816 E0.02703
G1 X125.176 Y98.816 E0.01104
G1 X126.034 Y98.901 E0.02704
G1 X126.379 Y98.969 E0.01102
G1 X127.204 Y99.220 E0.02704
G1 X127.529 Y99.354 E0.01103
G1 X128.289 Y99.761 E0.02702
G1 X128.582 Y99.956 E0.01104
G1 X129.248 Y100.503 E0.02701
G1 X129.497 Y100.752 E0.01104
G1 X130.044 Y101.418 E0.02701
G1 X130.239 Y101.711 E0.01104
G1 X130.646 Y102.471 E0.02703
G1 X130.780 Y102.796 E0.01103
G1 X131.031 Y103.621 E0.02704
G1 X131.099 Y103.966 E0.01102
G1 X131.184 Y104.824 E0.02704
G1 X131.184 Y105.176 E0.01104
G1 X131.099 Y106.034 E0.02704
G1 X131.031 Y106.379 E0.01102
G1 X130.780 Y107.204 E0.02704
G1 X130.646 Y107.529 E0.01103
G1 X130.239 Y108.289 E0.02702
G1 X130.044 Y108.582 E0.01104
G1 X129.497 Y109.248 E0.02701
G1 X129.248 Y109.497 E0.01104
G1 X128.582 Y110.044 E0.02701
G1 X128.289 Y110.239 E0.01104
G1 X127.529 Y110.646 E0.02702
G1 X127.204 Y110.780 E0.01103
G1 X126.379 Y111.031 E0.02704
G1 X126.034 Y111.099 E0.01102
G1 X125.176 Y111.184 E0.02704
G1 X124.824 Y111.184 E0.01104
G1 X123.966 Y111.099 E0.02704
G1 X123.621 Y111.031 E0.01102
G1 X122.796 Y110.780 E0.02704
G1 X122.471 Y110.646 E0.01103
G1 X121.711 Y110.239 E0.02703
G1 X121.418 Y110.044 E0.01104
G1 X120.752 Y109.497 E0.02701
G1 X120.503 Y109.248 E0.01104
G1 X119.956 Y108.582 E0.02701
G1 X119.761 Y108.289 E0.01104
G1 X119.354 Y107.529 E0.02702
G1 X119.220 Y107.204 E0.01103
G1 X118.969 Y106.379 E0.02704
G1 X118.901 Y106.034 E0.01102
G1 X118.816 Y105.176 E0.02704
G1 X118.816 Y104.824 E0.01104
G1 X118.901 Y103.966 E0.02703
G1 X118.969 Y103.621 E0.01102
G1 X119.220 Y102.796 E0.02704
G1 X119.354 Y102.471 E0.01103
G1 X119.761 Y101.711 E0.02703
G1 X119.956 Y101.418 E0.01104
G1 X120.465 Y100.798 E0.02513
G1 X120.783 Y101.005 F7200.000
G1 F1624.320
G1 X121.005 Y100.783 E0.00988
G1 X121.643 Y100.260 E0.02585
G1 X121.905 Y100.084 E0.00988
G1 X122.632 Y99.696 E0.02586
G1 X122.923 Y99.575 E0.00987
G1 X123.713 Y99.335 E0.02588
G1 X124.021 Y99.274 E0.00986
G1 X124.843 Y99.193 E0.02587
G1 X125.157 Y99.193 E0.00987
G1 X125.979 Y99.274 E0.02587
G1 X126.287 Y99.335 E0.00986
G1 X127.077 Y99.575 E0.02588
G1 X127.368 Y99.696 E0.00987
G1 X128.095 Y100.084 E0.02586
G1 X128.357 Y100.260 E0.00988
G1 X128.995 Y100.783 E0.02585
G1 X129.217 Y101.005 E0.00988
G1 X129.740 Y101.643 E0.02585
G1 X129.916 Y101.905 E0.00988
G1 X130.304 Y102.632 E0.02586
G1 X130.425 Y102.923 E0.00987
G1 X130.665 Y103.713 E0.02588
G1 X130.726 Y104.021 E0.00986
G1 X130.807 Y104.843 E0.02587
G1 X130.807 Y105.157 E0.00987
G1 X130.726 Y105.979 E0.02587
G1 X130.665 Y106.287 E0.00986
G1 X130.425 Y107.077 E0.02588
G1 X130.304 Y107.368 E0.00987
G1 X129.916 Y108.095 E0.02586
G1 X129.740 Y108.357 E0.00988
G1 X129.217 Y108.995 E0.02585
G1 X128.995 Y109.217 E0.00988
G1 X128.357 Y109.740 E0.02585
G1 X128.095 Y109.916 E0.00988
G1 X127.368 Y110.304 E0.02586
G1 X127.077 Y110.425 E0.00987
G1 X126.287 Y110.665 E0.02588
G1 X125.979 Y110.726 E0.00986
G1 X125.157 Y110.807 E0.02587
G1 X124.843 Y110.807 E0.00987
G1 X124.021 Y110.726 E0.02587
G1 X123.713 Y110.665 E0.00986
G1 X122.923 Y110.425 E0.02588
G1 X122.632 Y110.304 E0.00987
G1 X121.905 Y109.916 E0.02586
G1 X121.643 Y109.740 E0.00988
G1 X121.005 Y109.217 E0.02585
G1 X120.783 Y108.995 E0.00988
G1 X120.260 Y108.357 E0.02585
G1 X120.084 Y108.095 E0.00988
G1 X119.696 Y107.368 E0.02586
G1 X119.575 Y107.077 E0.00987
G1 X119.335 Y106.287 E0.02588
G1 X119.274 Y105.979 E0.00986
G1 X119.193 Y105.157 E0.02587
G1 X119.193 Y104.843 E0.00987
G1 X119.274 Y104.021 E0.02587
G1 X119.335 Y103.713 E0.00986
G1 X119.575 Y102.923 E0.02588
G1 X119.696 Y102.632 E0.00987
G1 X120.084 Y101.905 E0.02586
G1 X120.260 Y101.643 E0.00988
G1 X120.745 Y101.052 E0.02397
G1 X121.062 Y101.259 F7200.000
G1 F1624.320
G1 X121.259 Y101.062 E0.00871
G1 X121.868 Y100.563 E0.02469
G1 X122.099 Y100.408 E0.00871
G1 X122.794 Y100.037 E0.02470
G1 X123.050 Y99.931 E0.00871
G1 X123.805 Y99.702 E0.02472
G1 X124.077 Y99.648 E0.00870
G1 X124.861 Y99.570 E0.02471
G1 X125.139 Y99.570 E0.00871
G1 X125.923 Y99.648 E0.02471
G1 X126.195 Y99.702 E0.00870
G1 X126.950 Y99.931 E0.02472
G1 X127.206 Y100.037 E0.00871
G1 X127.901 Y100.408 E0.02470
G1 X128.132 Y100.563 E0.00872
G1 X128.741 Y101.062 E0.02469
G1 X128.938 Y101.259 E0.00871
G1 X129.437 Y101.868 E0.02469
G1 X129.592 Y102.099 E0.00871
G1 X129.963 Y102.794 E0.02470
G1 X130.069 Y103.050 E0.00871
G1 X130.298 Y103.805 E0.02472
G1 X130.352 Y104.077 E0.00870
G1 X130.430 Y104.861 E0.02471
G1 X130.430 Y105.139 E0.00871
G1 X130.352 Y105.923 E0.02471
G1 X130.298 Y106.195 E0.00870
G1 X130.069 Y106.950 E0.02472
G1 X129.963 Y107.206 E0.00871
G1 X129.592 Y107.901 E0.02470
G1 X129.437 Y108.132 E0.00872
G1 X128.938 Y108.741 E0.02469
G1 X128.741 Y108.938 E0.00871
G1 X128.132 Y109.437 E0.02469
G1 X127.901 Y109.592 E0.00872
G1 X127.206 Y109.963 E0.02470
G1 X126.950 Y110.069 E0.00871
G1 X126.195 Y110.298 E0.02472
G1 X125.923 Y110.352 E0.00870
G1 X125.139 Y110.430 E0.02471
G1 X124.861 Y110.430 E0.00871
G1 X124.077 Y110.352 E0.02471
G1 X123.805 Y110.298 E0.00870
G1 X123.050 Y110.069 E0.02472
