; generated by Slic3r 1.33.8-prusa3d-win64 on 2017-04-15 at 13:48:38

; external perimeters extrusion width = 0.45mm
; perimeters extrusion width = 0.45mm
; infill extrusion width = 0.45mm
; solid infill extrusion width = 0.45mm
; top infill extrusion width = 0.45mm

M107
M115 U3.0.10 ; tell printer latest fw version
M83  ; extruder relative mode
M104 S215 ; set extruder temp
M140 S55 ; set bed temp
M190 S55 ; wait for bed temp
M109 S215 ; wait for extruder temp
G28 W ; home all without mesh bed level
G80 ; mesh bed leveling
G1 Y-3.0 F1000.0 ; go outside pritn area
G1 X60.0 E9.0  F1000.0 ; intro line
G1 X100.0 E12.5  F1000.0 ; intro line
G21 ; set units to millimeters
G90 ; use absolute coordinates
M83 ; use relative distances for extrusion
G1 E-0.80000 F2100.00000
G1 Z0.200 F7200.000
G1 X118.346 Y98.973 F7200.000
G1 E0.80000 F2100.00000
M204 S1000
G1 F1715.585
G1 X118.987 Y98.333 E0.02841
G1 X119.464 Y97.931 E0.01956
G1 X120.308 Y97.344 E0.03225
G1 X120.979 Y96.977 E0.02396
G1 X121.562 Y96.707 E0.02017
G1 X121.937 Y96.557 E0.01266
G1 X122.315 Y96.434 E0.01247
G1 X122.966 Y96.258 E0.02114
G1 X123.674 Y96.119 E0.02262
G1 X124.643 Y96.029 E0.03050
G1 X125.352 Y96.029 E0.02224
G1 X126.412 Y96.131 E0.03340
G1 X127.011 Y96.253 E0.01917
G1 X128.012 Y96.539 E0.03262
G1 X128.555 Y96.760 E0.01841
G1 X129.154 Y97.041 E0.02074
G1 X129.525 Y97.242 E0.01323
G1 X130.409 Y97.837 E0.03340
G1 X130.905 Y98.234 E0.01994
G1 X131.613 Y98.929 E0.03109
G1 X132.021 Y99.401 E0.01956
G1 X132.627 Y100.261 E0.03301
G1 X132.991 Y100.912 E0.02339
G1 X133.283 Y101.540 E0.02170
G1 X133.432 Y101.908 E0.01247
G1 X133.561 Y102.297 E0.01285
G1 X133.732 Y102.930 E0.02056
G1 X133.877 Y103.643 E0.02281
G1 X133.967 Y104.581 E0.02955
G1 X133.973 Y105.315 E0.02300
G1 X133.873 Y106.382 E0.03359
G1 X133.753 Y106.988 E0.01936
G1 X133.469 Y107.988 E0.03262
G1 X133.245 Y108.544 E0.01879
G1 X132.961 Y109.149 E0.02093
G1 X132.764 Y109.515 E0.01304
G1 X132.163 Y110.409 E0.03378
G1 X131.766 Y110.905 E0.01994
G1 X131.071 Y111.613 E0.03109
G1 X130.599 Y112.021 E0.01956
G1 X129.739 Y112.627 E0.03301
G1 X129.088 Y112.991 E0.02339
G1 X128.454 Y113.286 E0.02189
G1 X128.086 Y113.434 E0.01247
G1 X127.697 Y113.563 E0.01285
G1 X127.070 Y113.732 E0.02037
G1 X126.357 Y113.877 E0.02281
G1 X125.419 Y113.967 E0.02955
G1 X124.685 Y113.973 E0.02300
G1 X123.624 Y113.874 E0.03340
G1 X123.012 Y113.753 E0.01956
G1 X122.017 Y113.471 E0.03243
G1 X121.456 Y113.245 E0.01898
G1 X120.857 Y112.964 E0.02074
G1 X120.491 Y112.767 E0.01304
G1 X120.159 Y112.559 E0.01227
G1 X119.601 Y112.170 E0.02132
G1 X119.108 Y111.778 E0.01975
G1 X118.391 Y111.076 E0.03147
G1 X117.983 Y110.604 E0.01956
G1 X117.373 Y109.739 E0.03320
G1 X117.009 Y109.088 E0.02339
G1 X116.714 Y108.454 E0.02189
G1 X116.566 Y108.086 E0.01247
G1 X116.437 Y107.697 E0.01285
G1 X116.266 Y107.063 E0.02057
G1 X116.122 Y106.350 E0.02281
G1 X116.031 Y105.388 E0.03031
G1 X116.028 Y104.660 E0.02281
G1 X116.130 Y103.594 E0.03359
G1 X116.254 Y102.983 E0.01956
G1 X116.547 Y101.965 E0.03319
G1 X116.702 Y101.573 E0.01323
G1 X116.980 Y100.973 E0.02074
G1 X117.264 Y100.438 E0.01898
G1 X117.869 Y99.547 E0.03378
G1 X118.305 Y99.017 E0.02151
G1 X118.610 Y99.242 F7200.000
G1 F1715.585
G1 X119.236 Y98.616 E0.02773
G1 X119.684 Y98.238 E0.01839
G1 X120.501 Y97.667 E0.03127
G1 X121.130 Y97.323 E0.02247
G1 X121.707 Y97.055 E0.01994
G1 X122.064 Y96.912 E0.01208
G1 X123.056 Y96.624 E0.03239
G1 X123.725 Y96.492 E0.02136
G1 X124.646 Y96.407 E0.02902
G1 X125.327 Y96.405 E0.02136
G1 X126.350 Y96.503 E0.03220
G1 X126.913 Y96.617 E0.01802
G1 X127.877 Y96.891 E0.03145
G1 X128.393 Y97.101 E0.01746
G1 X128.974 Y97.373 E0.02012
G1 X129.324 Y97.561 E0.01245
G1 X130.181 Y98.138 E0.03238
G1 X130.644 Y98.507 E0.01857
G1 X131.335 Y99.184 E0.03033
G1 X131.715 Y99.623 E0.01820
G1 X132.304 Y100.457 E0.03201
G1 X132.649 Y101.071 E0.02210
G1 X133.078 Y102.036 E0.03312
G1 X133.200 Y102.408 E0.01226
G1 X133.366 Y103.022 E0.01994
G1 X133.504 Y103.695 E0.02154
G1 X133.590 Y104.599 E0.02847
G1 X133.596 Y105.298 E0.02191
G1 X133.501 Y106.326 E0.03238
G1 X133.388 Y106.896 E0.01820
G1 X133.114 Y107.861 E0.03145
G1 X132.904 Y108.383 E0.01765
G1 X132.627 Y108.974 E0.02049
G1 X132.442 Y109.319 E0.01226
G1 X131.862 Y110.181 E0.03257
G1 X131.493 Y110.644 E0.01857
G1 X130.816 Y111.335 E0.03033
G1 X130.377 Y111.715 E0.01820
G1 X129.543 Y112.304 E0.03201
G1 X128.934 Y112.646 E0.02191
G1 X127.964 Y113.078 E0.03330
G1 X127.592 Y113.200 E0.01226
G1 X126.984 Y113.365 E0.01976
G1 X126.311 Y113.503 E0.02154
G1 X125.407 Y113.590 E0.02847
G1 X124.708 Y113.597 E0.02191
G1 X123.680 Y113.501 E0.03238
G1 X123.110 Y113.389 E0.01820
G1 X122.151 Y113.118 E0.03126
G1 X121.623 Y112.907 E0.01783
G1 X121.031 Y112.629 E0.02049
G1 X120.686 Y112.445 E0.01226
G1 X119.829 Y111.869 E0.03238
G1 X119.369 Y111.505 E0.01839
G1 X118.669 Y110.820 E0.03070
G1 X118.288 Y110.382 E0.01820
G1 X117.696 Y109.543 E0.03219
G1 X117.351 Y108.929 E0.02210
G1 X116.920 Y107.958 E0.03330
G1 X116.800 Y107.592 E0.01208
G1 X116.632 Y106.972 E0.02014
G1 X116.495 Y106.293 E0.02173
G1 X116.408 Y105.377 E0.02883
G1 X116.404 Y104.685 E0.02173
G1 X116.503 Y103.650 E0.03257
G1 X116.618 Y103.081 E0.01820
G1 X116.899 Y102.100 E0.03200
G1 X117.047 Y101.726 E0.01263
G1 X117.319 Y101.138 E0.02031
G1 X117.582 Y100.640 E0.01765
G1 X118.165 Y99.781 E0.03257
G1 X118.570 Y99.286 E0.02003
G1 X118.876 Y99.509 F7200.000
G1 F1715.585
G1 X119.485 Y98.899 E0.02703
G1 X119.900 Y98.547 E0.01706
G1 X120.691 Y97.994 E0.03027
G1 X121.283 Y97.668 E0.02118
G1 X122.187 Y97.269 E0.03098
G1 X123.142 Y96.992 E0.03117
G1 X123.776 Y96.866 E0.02029
G1 X124.663 Y96.784 E0.02792
G1 X125.304 Y96.782 E0.02011
G1 X126.294 Y96.876 E0.03117
G1 X126.821 Y96.982 E0.01688
G1 X127.750 Y97.246 E0.03026
G1 X128.233 Y97.442 E0.01634
G1 X128.806 Y97.711 E0.01985
G1 X129.134 Y97.887 E0.01167
G1 X129.958 Y98.442 E0.03117
G1 X130.389 Y98.784 E0.01724
G1 X131.058 Y99.439 E0.02936
G1 X131.415 Y99.850 E0.01706
G1 X131.982 Y100.652 E0.03081
G1 X132.307 Y101.231 E0.02082
G1 X132.723 Y102.165 E0.03206
G1 X132.838 Y102.513 E0.01149
G1 X133.001 Y103.114 E0.01950
G1 X133.131 Y103.753 E0.02046
G1 X133.213 Y104.617 E0.02721
G1 X133.220 Y105.275 E0.02064
G1 X133.127 Y106.271 E0.03135
G1 X133.022 Y106.805 E0.01706
G1 X132.759 Y107.733 E0.03026
G1 X132.561 Y108.227 E0.01670
G1 X132.292 Y108.801 E0.01985
G1 X132.116 Y109.129 E0.01167
G1 X131.558 Y109.958 E0.03134
G1 X131.216 Y110.389 E0.01724
G1 X130.561 Y111.058 E0.02936
G1 X130.150 Y111.415 E0.01706
G1 X129.348 Y111.982 E0.03081
G1 X128.769 Y112.307 E0.02082
G1 X127.840 Y112.721 E0.03188
G1 X127.492 Y112.837 E0.01149
G1 X126.911 Y112.994 E0.01887
G1 X126.264 Y113.129 E0.02074
G1 X125.389 Y113.213 E0.02756
G1 X124.725 Y113.220 E0.02082
G1 X123.735 Y113.128 E0.03117
G1 X123.201 Y113.023 E0.01706
G1 X122.277 Y112.763 E0.03008
G1 X121.783 Y112.565 E0.01670
G1 X120.881 Y112.122 E0.03152
G1 X120.051 Y111.565 E0.03134
G1 X119.629 Y111.231 E0.01688
G1 X118.950 Y110.569 E0.02972
G1 X118.589 Y110.154 E0.01724
G1 X118.018 Y109.348 E0.03099
G1 X117.693 Y108.769 E0.02082
G1 X117.275 Y107.829 E0.03224
G1 X116.998 Y106.881 E0.03099
G1 X116.868 Y106.241 E0.02046
G1 X116.785 Y105.366 E0.02756
G1 X116.781 Y104.707 E0.02064
G1 X116.875 Y103.712 E0.03135
G1 X116.982 Y103.179 E0.01706
G1 X117.252 Y102.234 E0.03080
G1 X117.395 Y101.872 E0.01221
G1 X117.659 Y101.303 E0.01968
G1 X117.901 Y100.841 E0.01634
G1 X118.465 Y100.009 E0.03152
G1 X118.836 Y99.554 E0.01841
G1 F5760
G1 X119.485 Y98.899 E-0.31938
G1 F5760
G1 X119.900 Y98.547 E-0.18842
G1 F5760
G1 X120.497 Y98.130 E-0.25221
G1 E-0.04000 F2100.00000
G1 X119.617 Y100.236 F7200.000
G1 E0.80000 F2100.00000
G1 F1715.585
G1 X120.236 Y99.617 E0.02744
G1 X120.526 Y99.373 E0.01187
G1 X121.243 Y98.871 E0.02745
G1 X121.571 Y98.682 E0.01187
G1 X122.364 Y98.312 E0.02745
G1 X122.720 Y98.182 E0.01188
G1 X123.566 Y97.956 E0.02746
G1 X123.939 Y97.890 E0.01186
G1 X124.811 Y97.814 E0.02745
G1 X125.189 Y97.814 E0.01188
G1 X126.061 Y97.890 E0.02745
G1 X126.434 Y97.956 E0.01186
G1 X127.280 Y98.182 E0.02746
G1 X127.636 Y98.312 E0.01188
G1 X128.429 Y98.682 E0.02745
G1 X128.757 Y98.871 E0.01187
G1 X129.474 Y99.373 E0.02745
G1 X129.764 Y99.617 E0.01187
G1 X130.383 Y100.236 E0.02744
G1 X130.627 Y100.526 E0.01187
G1 X131.129 Y101.243 E0.02745
G1 X131.318 Y101.571 E0.01187
G1 X131.430 Y101.811 E0.00832
G1 X131.688 Y102.364 E0.01913
G1 X131.818 Y102.720 E0.01187
G1 X132.044 Y103.566 E0.02745
G1 X132.110 Y103.939 E0.01187
G1 X132.186 Y104.811 E0.02745
G1 X132.186 Y105.189 E0.01188
G1 X132.110 Y106.061 E0.02745
G1 X132.044 Y106.434 E0.01187
G1 X131.818 Y107.280 E0.02746
G1 X131.688 Y107.636 E0.01187
G1 X131.318 Y108.429 E0.02745
G1 X131.129 Y108.757 E0.01187
G1 X130.627 Y109.474 E0.02745
G1 X130.383 Y109.764 E0.01187
G1 X129.764 Y110.383 E0.02744
G1 X129.474 Y110.627 E0.01187
G1 X129.281 Y110.762 E0.00739
G1 X128.757 Y111.129 E0.02007
G1 X128.429 Y111.318 E0.01187
G1 X127.636 Y111.688 E0.02745
G1 X127.280 Y111.818 E0.01188
G1 X126.434 Y112.044 E0.02746
G1 X126.061 Y112.110 E0.01187
G1 X125.189 Y112.186 E0.02745
G1 X124.811 Y112.186 E0.01188
G1 X123.939 Y112.110 E0.02745
G1 X123.566 Y112.044 E0.01187
G1 X122.720 Y111.818 E0.02745
G1 X122.364 Y111.688 E0.01187
G1 X121.571 Y111.318 E0.02745
G1 X121.243 Y111.129 E0.01187
G1 X120.526 Y110.627 E0.02745
G1 X120.236 Y110.383 E0.01187
G1 X119.617 Y109.764 E0.02744
G1 X119.373 Y109.474 E0.01187
G1 X118.871 Y108.757 E0.02745
G1 X118.682 Y108.429 E0.01187
G1 X118.312 Y107.636 E0.02745
G1 X118.182 Y107.280 E0.01188
G1 X117.956 Y106.434 E0.02746
G1 X117.890 Y106.061 E0.01186
G1 X117.814 Y105.189 E0.02745
G1 X117.814 Y104.811 E0.01188
G1 X117.890 Y103.939 E0.02745
G1 X117.956 Y103.566 E0.01186
G1 X118.182 Y102.720 E0.02746
G1 X118.312 Y102.364 E0.01188
G1 X118.682 Y101.571 E0.02745
G1 X118.871 Y101.243 E0.01187
G1 X119.373 Y100.526 E0.02745
G1 X119.578 Y100.281 E0.00999
G1 X119.895 Y100.491 F7200.000
G1 F1715.585
G1 X120.491 Y99.895 E0.02641
G1 X120.755 Y99.673 E0.01084
G1 X121.446 Y99.189 E0.02642
G1 X121.745 Y99.017 E0.01084
G1 X122.509 Y98.660 E0.02642
G1 X122.834 Y98.542 E0.01084
G1 X123.648 Y98.324 E0.02642
G1 X123.988 Y98.264 E0.01083
G1 X124.827 Y98.191 E0.02641
G1 X125.173 Y98.191 E0.01084
G1 X126.012 Y98.264 E0.02641
G1 X126.352 Y98.324 E0.01083
G1 X127.166 Y98.542 E0.02642
G1 X127.491 Y98.660 E0.01084
G1 X128.255 Y99.017 E0.02642
G1 X128.554 Y99.189 E0.01084
G1 X129.245 Y99.673 E0.02642
G1 X129.509 Y99.895 E0.01084
G1 X130.105 Y100.491 E0.02641
G1 X130.327 Y100.755 E0.01084
G1 X130.811 Y101.446 E0.02642
G1 X130.983 Y101.745 E0.01084
G1 X131.089 Y101.971 E0.00781
G1 X131.340 Y102.509 E0.01861
G1 X131.458 Y102.833 E0.01084
G1 X131.676 Y103.647 E0.02642
G1 X131.736 Y103.988 E0.01084
G1 X131.809 Y104.827 E0.02642
G1 X131.809 Y105.173 E0.01084
G1 X131.736 Y106.012 E0.02641
G1 X131.676 Y106.352 E0.01083
G1 X131.458 Y107.166 E0.02642
G1 X131.340 Y107.491 E0.01084
G1 X130.983 Y108.255 E0.02642
G1 X130.811 Y108.554 E0.01084
G1 X130.327 Y109.245 E0.02642
G1 X130.105 Y109.509 E0.01084
G1 X129.509 Y110.105 E0.02641
G1 X129.065 Y110.453 E0.01769
G1 X128.554 Y110.811 E0.01956
G1 X128.255 Y110.983 E0.01084
G1 X127.491 Y111.340 E0.02641
G1 X127.167 Y111.458 E0.01084
G1 X126.352 Y111.676 E0.02642
G1 X126.012 Y111.736 E0.01083
G1 X125.173 Y111.809 E0.02641
G1 X124.827 Y111.809 E0.01084
G1 X123.988 Y111.736 E0.02642
G1 X123.647 Y111.676 E0.01084
G1 X122.833 Y111.458 E0.02642
G1 X122.509 Y111.340 E0.01084
G1 X121.745 Y110.983 E0.02642
G1 X121.446 Y110.811 E0.01084
G1 X120.755 Y110.327 E0.02642
G1 X120.491 Y110.105 E0.01084
G1 X119.895 Y109.509 E0.02641
G1 X119.673 Y109.245 E0.01084
G1 X119.189 Y108.554 E0.02642
G1 X119.017 Y108.255 E0.01084
G1 X118.660 Y107.491 E0.02642
G1 X118.542 Y107.166 E0.01084
G1 X118.324 Y106.352 E0.02642
G1 X118.264 Y106.012 E0.01083
G1 X118.191 Y105.173 E0.02641
G1 X118.191 Y104.827 E0.01084
G1 X118.264 Y103.988 E0.02641
G1 X118.324 Y103.648 E0.01083
G1 X118.542 Y102.834 E0.02642
G1 X118.660 Y102.509 E0.01084
G1 X119.017 Y101.745 E0.02642
G1 X119.189 Y101.446 E0.01084
G1 X119.673 Y100.755 E0.02642
G1 X119.856 Y100.536 E0.00896
G1 X120.173 Y100.746 F7200.000
G1 F1715.585
G1 X120.746 Y100.173 E0.02538
G1 X120.985 Y99.972 E0.00981
G1 X121.648 Y99.508 E0.02539
G1 X121.919 Y99.351 E0.00981
G1 X122.653 Y99.009 E0.02538
G1 X122.947 Y98.902 E0.00981
G1 X123.729 Y98.693 E0.02539
G1 X124.037 Y98.638 E0.00980
G1 X124.844 Y98.568 E0.02538
G1 X125.156 Y98.568 E0.00981
G1 X125.963 Y98.638 E0.02538
G1 X126.271 Y98.693 E0.00980
G1 X127.053 Y98.902 E0.02539
G1 X127.347 Y99.009 E0.00981
G1 X128.081 Y99.351 E0.02538
G1 X128.352 Y99.508 E0.00981
G1 X129.015 Y99.972 E0.02539
G1 X129.254 Y100.173 E0.00981
G1 X129.827 Y100.746 E0.02538
G1 X130.028 Y100.985 E0.00981
G1 X130.492 Y101.648 E0.02539
G1 X130.649 Y101.919 E0.00981
G1 X130.991 Y102.653 E0.02538
G1 X131.098 Y102.947 E0.00981
G1 X131.260 Y103.553 E0.01967
G1 X131.362 Y104.037 E0.01551
G1 X131.432 Y104.844 E0.02538
G1 X131.432 Y105.156 E0.00981
G1 X131.362 Y105.963 E0.02538
G1 X131.307 Y106.271 E0.00980
G1 X131.098 Y107.053 E0.02539
G1 X130.991 Y107.347 E0.00981
G1 X130.649 Y108.081 E0.02538
G1 X130.492 Y108.352 E0.00981
G1 X130.028 Y109.015 E0.02539
G1 X129.827 Y109.254 E0.00981
G1 X129.254 Y109.827 E0.02538
G1 X128.850 Y110.143 E0.01611
G1 X128.352 Y110.492 E0.01907
G1 X128.081 Y110.649 E0.00981
G1 X127.347 Y110.991 E0.02538
G1 X127.053 Y111.098 E0.00981
G1 X126.271 Y111.307 E0.02539
G1 X125.963 Y111.362 E0.00980
G1 X125.156 Y111.432 E0.02538
G1 X124.844 Y111.432 E0.00981
G1 X124.037 Y111.362 E0.02538
G1 X123.729 Y111.307 E0.00980
G1 X122.947 Y111.098 E0.02539
G1 X122.653 Y110.991 E0.00981
G1 X121.919 Y110.649 E0.02538
G1 X121.648 Y110.492 E0.00981
G1 X120.985 Y110.028 E0.02539
G1 X120.746 Y109.827 E0.00981
G1 X120.173 Y109.254 E0.02538
G1 X119.972 Y109.015 E0.00981
G1 X119.508 Y108.352 E0.02539
G1 X119.351 Y108.081 E0.00981
G1 X119.009 Y107.347 E0.02538
G1 X118.902 Y107.053 E0.00981
G1 X118.693 Y106.271 E0.02539
G1 X118.638 Y105.963 E0.00980
G1 X118.568 Y105.156 E0.02538
G1 X118.568 Y104.844 E0.00981
G1 X118.638 Y104.037 E0.02538
G1 X118.693 Y103.729 E0.00980
G1 X118.902 Y102.947 E0.02539
G1 X119.009 Y102.653 E0.00981
G1 X119.351 Y101.919 E0.02538
G1 X119.508 Y101.648 E0.00981
G1 X119.972 Y100.985 E0.02539
G1 X120.135 Y100.792 E0.00793
G1 X120.451 Y101.001 F7200.000
G1 F1715.585
G1 X121.001 Y100.451 E0.02435
G1 X121.366 Y100.165 E0.01456
G1 X121.851 Y99.826 E0.01855
G1 X122.094 Y99.686 E0.00878
G1 X122.797 Y99.358 E0.02435
G1 X123.061 Y99.262 E0.00878
G1 X123.811 Y99.061 E0.02436
G1 X124.086 Y99.013 E0.00877
G1 X124.860 Y98.945 E0.02435
G1 X125.140 Y98.945 E0.00878
G1 X125.914 Y99.013 E0.02435
G1 X126.189 Y99.061 E0.00877
G1 X126.939 Y99.262 E0.02436
G1 X127.203 Y99.358 E0.00878
G1 X127.906 Y99.686 E0.02435
G1 X128.149 Y99.826 E0.00878
G1 X128.785 Y100.272 E0.02436
G1 X128.999 Y100.451 E0.00877
G1 X129.549 Y101.001 E0.02435
G1 X129.728 Y101.215 E0.00878
G1 X130.174 Y101.851 E0.02435
G1 X130.314 Y102.094 E0.00878
G1 X130.642 Y102.798 E0.02435
G1 X130.738 Y103.060 E0.00877
G1 X130.896 Y103.651 E0.01916
G1 X130.987 Y104.086 E0.01396
G1 X131.055 Y104.860 E0.02435
G1 X131.055 Y105.140 E0.00878
G1 X130.987 Y105.914 E0.02435
G1 X130.939 Y106.189 E0.00877
G1 X130.738 Y106.939 E0.02436
G1 X130.642 Y107.202 E0.00878
G1 X130.314 Y107.906 E0.02435
G1 X130.174 Y108.149 E0.00878
G1 X129.728 Y108.785 E0.02436
G1 X129.549 Y108.999 E0.00877
G1 X128.999 Y109.549 E0.02435
G1 X128.633 Y109.835 E0.01457
G1 X128.149 Y110.174 E0.01855
G1 X127.906 Y110.314 E0.00878
G1 X127.203 Y110.642 E0.02435
G1 X126.940 Y110.738 E0.00878
G1 X126.189 Y110.939 E0.02436
G1 X125.914 Y110.987 E0.00877
G1 X125.140 Y111.055 E0.02435
G1 X124.860 Y111.055 E0.00878
G1 X124.086 Y110.987 E0.02435
G1 X123.811 Y110.939 E0.00877
G1 X123.060 Y110.738 E0.02436
G1 X122.798 Y110.642 E0.00877
G1 X122.094 Y110.314 E0.02435
G1 X121.851 Y110.174 E0.00878
G1 X121.215 Y109.728 E0.02435
G1 X121.001 Y109.549 E0.00878
G1 X120.451 Y108.999 E0.02435
G1 X120.165 Y108.634 E0.01456
G1 X119.826 Y108.149 E0.01856
