; generated by Slic3r 1.33.8-prusa3d-win64 on 2017-03-23 at 17:59:23

; external perimeters extrusion width = 0.45mm
; perimeters extrusion width = 0.45mm
; infill extrusion width = 0.45mm
; solid infill extrusion width = 0.45mm
; top infill extrusion width = 0.45mm

M107
M115 U3.0.10 ; tell printer latest fw version
M83  ; extruder relative mode
M104 S215 ; set extruder temp
M140 S55 ; set bed temp
M190 S55 ; wait for bed temp
M109 S215 ; wait for extruder temp
G28 W ; home all without mesh bed level
G80 ; mesh bed leveling
G1 Y-3.0 F1000.0 ; go outside pritn area
G1 X60.0 E9.0  F1000.0 ; intro line
G1 X100.0 E12.5  F1000.0 ; intro line
G21 ; set units to millimeters
G90 ; use absolute coordinates
M83 ; use relative distances for extrusion
G1 E-0.80000 F2100.00000
G1 Z0.200 F7200.000
G1 X116.606 Y98.614 F7200.000
G1 E0.80000 F2100.00000
M204 S1000
G1 F1712.563
G1 X116.854 Y98.193 E0.01534
G1 X117.166 Y97.816 E0.01534
G1 X117.941 Y97.051 E0.03412
G1 X118.203 Y96.848 E0.01041
G1 X118.481 Y96.675 E0.01028
G1 X118.784 Y96.528 E0.01055
G1 X123.449 Y94.597 E0.15830
G1 X123.848 Y94.470 E0.01315
G1 X124.266 Y94.397 E0.01329
G1 X124.571 Y94.380 E0.00959
G1 X125.620 Y94.387 E0.03288
G1 X126.018 Y94.440 E0.01260
G1 X126.402 Y94.543 E0.01247
G1 X131.263 Y96.549 E0.16488
G1 X131.639 Y96.744 E0.01329
G1 X131.985 Y96.989 E0.01329
G1 X132.209 Y97.190 E0.00945
G1 X132.948 Y97.940 E0.03301
G1 X133.192 Y98.260 E0.01260
G1 X133.394 Y98.613 E0.01274
G1 X135.411 Y103.469 E0.16489
G1 X135.546 Y103.917 E0.01465
G1 X135.613 Y104.379 E0.01465
G1 X135.611 Y105.650 E0.03986
G1 X135.555 Y106.040 E0.01233
G1 X135.452 Y106.419 E0.01233
G1 X133.451 Y111.263 E0.16433
G1 X133.258 Y111.635 E0.01315
G1 X133.017 Y111.978 E0.01315
G1 X132.813 Y112.206 E0.00959
G1 X132.063 Y112.946 E0.03302
G1 X131.743 Y113.189 E0.01260
G1 X131.391 Y113.392 E0.01274
G1 X126.531 Y115.411 E0.16502
G1 X126.083 Y115.546 E0.01465
G1 X125.621 Y115.613 E0.01465
G1 X124.350 Y115.611 E0.03986
G1 X123.960 Y115.555 E0.01233
G1 X123.581 Y115.452 E0.01233
G1 X118.737 Y113.451 E0.16433
G1 X118.365 Y113.258 E0.01315
G1 X118.022 Y113.017 E0.01315
G1 X117.794 Y112.813 E0.00959
G1 X117.057 Y112.066 E0.03289
G1 X116.815 Y111.750 E0.01247
G1 X116.614 Y111.403 E0.01260
G1 X114.594 Y106.543 E0.16500
G1 X114.467 Y106.139 E0.01329
G1 X114.396 Y105.721 E0.01329
G1 X114.380 Y105.429 E0.00918
G1 X114.385 Y104.406 E0.03206
G1 X114.430 Y104.033 E0.01178
G1 X114.520 Y103.668 E0.01178
G1 X114.616 Y103.401 E0.00891
G1 X116.580 Y98.668 E0.16067
G1 X116.955 Y98.758 F7200.000
G1 F1712.563
G1 X117.177 Y98.390 E0.01348
G1 X117.451 Y98.064 E0.01336
G1 X118.185 Y97.339 E0.03236
G1 X118.421 Y97.155 E0.00938
G1 X118.679 Y96.996 E0.00951
G1 X118.931 Y96.876 E0.00874
G1 X123.582 Y94.950 E0.15785
G1 X123.945 Y94.834 E0.01195
G1 X124.321 Y94.770 E0.01195
G1 X125.590 Y94.763 E0.03980
G1 X125.943 Y94.810 E0.01118
G1 X126.288 Y94.902 E0.01118
G1 X131.112 Y96.894 E0.16364
G1 X131.449 Y97.070 E0.01195
G1 X131.759 Y97.292 E0.01195
G1 X132.659 Y98.182 E0.03967
G1 X132.877 Y98.468 E0.01130
G1 X133.056 Y98.781 E0.01130
G1 X135.058 Y103.601 E0.16364
G1 X135.179 Y104.001 E0.01310
G1 X135.237 Y104.415 E0.01310
G1 X135.235 Y105.615 E0.03762
G1 X135.186 Y105.964 E0.01105
G1 X135.093 Y106.303 E0.01105
G1 X133.106 Y111.112 E0.16312
G1 X132.930 Y111.449 E0.01195
G1 X132.711 Y111.756 E0.01182
G1 X131.818 Y112.659 E0.03980
G1 X131.532 Y112.877 E0.01130
G1 X131.219 Y113.057 E0.01130
G1 X126.403 Y115.056 E0.16351
G1 X126.003 Y115.178 E0.01310
G1 X125.589 Y115.237 E0.01310
G1 X124.385 Y115.235 E0.03775
G1 X124.036 Y115.186 E0.01105
G1 X123.697 Y115.093 E0.01105
G1 X118.888 Y113.106 E0.16312
G1 X118.554 Y112.932 E0.01182
G1 X118.244 Y112.711 E0.01195
G1 X117.344 Y111.821 E0.03968
G1 X117.127 Y111.538 E0.01118
G1 X116.949 Y111.230 E0.01118
G1 X114.947 Y106.410 E0.16363
G1 X114.832 Y106.047 E0.01195
G1 X114.769 Y105.667 E0.01207
G1 X114.762 Y104.430 E0.03877
G1 X114.802 Y104.097 E0.01053
G1 X114.884 Y103.767 E0.01066
G1 X116.929 Y98.812 E0.16805
G1 X117.305 Y98.902 F7200.000
G1 F1712.563
G1 X117.494 Y98.594 E0.01133
G1 X117.728 Y98.319 E0.01133
G1 X118.427 Y97.627 E0.03083
G1 X118.641 Y97.461 E0.00847
G1 X118.875 Y97.319 E0.00859
G1 X123.720 Y95.301 E0.16456
G1 X124.043 Y95.199 E0.01062
G1 X124.377 Y95.144 E0.01062
G1 X125.562 Y95.139 E0.03714
G1 X125.871 Y95.180 E0.00979
G1 X126.176 Y95.262 E0.00991
G1 X130.957 Y97.238 E0.16219
G1 X131.257 Y97.395 E0.01062
G1 X131.532 Y97.593 E0.01062
G1 X132.372 Y98.427 E0.03714
G1 X132.564 Y98.678 E0.00991
G1 X132.721 Y98.953 E0.00991
G1 X134.704 Y103.731 E0.16219
G1 X134.810 Y104.080 E0.01145
G1 X134.861 Y104.446 E0.01157
G1 X134.860 Y105.577 E0.03548
G1 X134.818 Y105.882 E0.00967
G1 X134.735 Y106.183 E0.00979
G1 X132.762 Y110.957 E0.16195
G1 X132.605 Y111.257 E0.01062
G1 X132.410 Y111.529 E0.01050
G1 X131.573 Y112.373 E0.03727
G1 X131.321 Y112.564 E0.00991
G1 X131.047 Y112.721 E0.00991
G1 X126.269 Y114.704 E0.16219
G1 X125.920 Y114.810 E0.01145
G1 X125.554 Y114.861 E0.01157
G1 X124.423 Y114.860 E0.03548
G1 X124.118 Y114.818 E0.00967
G1 X123.817 Y114.735 E0.00979
G1 X119.043 Y112.762 E0.16195
G1 X118.746 Y112.607 E0.01050
G1 X118.474 Y112.412 E0.01050
G1 X117.630 Y111.575 E0.03727
G1 X117.440 Y111.328 E0.00979
G1 X117.283 Y111.054 E0.00991
G1 X115.299 Y106.277 E0.16218
G1 X115.198 Y105.953 E0.01062
G1 X115.143 Y105.615 E0.01074
G1 X115.138 Y104.453 E0.03643
G1 X115.174 Y104.159 E0.00931
G1 X115.247 Y103.871 E0.00931
G1 X117.278 Y98.956 E0.16675
G1 F5760
G1 X117.494 Y98.594 E-0.14592
G1 F5760
G1 X117.728 Y98.319 E-0.12521
G1 F5760
G1 X118.427 Y97.627 E-0.34053
G1 F5760
G1 X118.641 Y97.461 E-0.09362
G1 F5760
G1 X118.776 Y97.379 E-0.05472
G1 E-0.04000 F2100.00000
G1 X122.744 Y102.413 F7200.000
G1 E0.80000 F2100.00000
G1 F900.000
G1 X127.256 Y102.413 E0.14148
G1 X127.939 Y103.303 E0.03518
G1 X128.278 Y104.122 E0.02778
G1 X128.394 Y105.000 E0.02778
G1 X128.278 Y105.878 E0.02778
G1 X127.939 Y106.697 E0.02778
G1 X127.256 Y107.587 E0.03518
G1 X122.744 Y107.587 E0.14148
G1 X122.061 Y106.697 E0.03518
G1 X121.722 Y105.878 E0.02778
G1 X121.606 Y105.000 E0.02778
G1 X121.722 Y104.122 E0.02778
G1 X122.061 Y103.303 E0.02778
G1 X122.707 Y102.461 E0.03330
G1 X122.930 Y102.790 F7200.000
G1 F900.000
G1 X127.070 Y102.790 E0.12982
G1 X127.610 Y103.493 E0.02779
G1 X127.911 Y104.220 E0.02467
G1 X128.014 Y105.000 E0.02467
G1 X127.911 Y105.780 E0.02467
G1 X127.610 Y106.507 E0.02467
G1 X127.070 Y107.210 E0.02779
G1 X122.930 Y107.210 E0.12982
G1 X122.390 Y106.507 E0.02779
G1 X122.089 Y105.780 E0.02467
G1 X121.986 Y105.000 E0.02467
G1 X122.089 Y104.220 E0.02467
G1 X122.390 Y103.493 E0.02467
G1 X122.893 Y102.838 E0.02591
G1 X123.000 Y102.396 F7200.000
G1 X122.295 Y102.379 F7200.000
G1 F900.000
G1 X122.246 Y102.443 E0.00254
G1 X122.192 Y102.192 E0.00804
G1 X122.403 Y102.237 E0.00678
G1 X122.331 Y102.331 E0.00370
G1 X121.749 Y101.749 F7200.000
G1 F900.000
G1 X120.865 Y101.173 E0.03306
G1 X120.695 Y100.946 E0.00889
G1 X120.583 Y100.711 E0.00818
G1 X120.519 Y100.519 E0.00633
G1 X120.711 Y100.583 E0.00633
G1 X120.946 Y100.695 E0.00818
G1 X121.173 Y100.865 E0.00889
G1 X121.716 Y101.698 E0.03118
G1 F5760
G1 X120.865 Y101.173 E-0.34633
G1 F5760
G1 X120.695 Y100.946 E-0.09817
G1 F5760
G1 X120.583 Y100.711 E-0.09041
G1 F5760
G1 X120.519 Y100.519 E-0.06997
G1 F5760
G1 X120.711 Y100.583 E-0.06997
G1 F5760
G1 X120.933 Y100.689 E-0.08515
G1 E-0.04000 F2100.00000
G1 X120.402 Y105.000 F7200.000
G1 E0.80000 F2100.00000
G1 F900.000
G1 X119.370 Y105.218 E0.03306
G1 X119.090 Y105.177 E0.00889
G1 X118.844 Y105.090 E0.00818
G1 X118.663 Y105.000 E0.00633
G1 X118.844 Y104.910 E0.00633
G1 X119.090 Y104.823 E0.00818
G1 X119.370 Y104.782 E0.00889
G1 X120.343 Y104.988 E0.03118
G1 X121.029 Y105.000 F7200.000
G1 F900.000
G1 X121.244 Y104.861 E0.00804
G1 X121.226 Y105.000 E0.00441
G1 X121.244 Y105.139 E0.00441
G1 X121.079 Y105.033 E0.00616
G1 F5760
G1 X121.244 Y104.861 E-0.08252
G1 F5760
G1 X121.226 Y105.000 E-0.04867
G1 F5760
G1 X121.244 Y105.139 E-0.04867
G1 F5760
G1 X121.079 Y105.033 E-0.06806
G1 E-0.55208 F2100.00000
G1 X122.246 Y107.557 F7200.000
G1 E0.80000 F2100.00000
G1 F900.000
G1 X122.403 Y107.763 E0.00812
G1 X122.192 Y107.808 E0.00678
G1 X122.233 Y107.616 E0.00616
G1 X121.749 Y108.251 F7200.000
G1 F900.000
G1 X121.173 Y109.135 E0.03306
G1 X120.946 Y109.305 E0.00889
G1 X120.711 Y109.417 E0.00819
G1 X120.519 Y109.481 E0.00633
G1 X120.583 Y109.289 E0.00634
G1 X120.695 Y109.054 E0.00818
G1 X120.865 Y108.827 E0.00889
G1 X121.698 Y108.284 E0.03118
G1 F5760
G1 X121.173 Y109.135 E-0.34633
G1 F5760
G1 X120.946 Y109.305 E-0.09819
G1 F5760
G1 X120.711 Y109.417 E-0.09042
G1 F5760
G1 X120.519 Y109.481 E-0.06995
G1 F5760
G1 X120.583 Y109.289 E-0.06998
G1 F5760
G1 X120.689 Y109.068 E-0.08513
G1 E-0.04000 F2100.00000
G1 X125.000 Y109.598 F7200.000
G1 E0.80000 F2100.00000
G1 F900.000
G1 X125.218 Y110.630 E0.03306
G1 X125.177 Y110.910 E0.00889
G1 X125.090 Y111.156 E0.00819
G1 X125.000 Y111.337 E0.00633
G1 X124.910 Y111.156 E0.00633
G1 X124.823 Y110.910 E0.00819
G1 X124.782 Y110.630 E0.00889
G1 X124.988 Y109.657 E0.03118
G1 X125.000 Y108.971 F7200.000
G1 F900.000
G1 X124.653 Y108.435 E0.02001
G1 X124.281 Y108.244 E0.01313
G1 X123.604 Y107.964 E0.02296
G1 X126.396 Y107.964 E0.08755
G1 X125.720 Y108.244 E0.02296
G1 X125.347 Y108.435 E0.01313
G1 X125.033 Y108.921 E0.01813
G1 F5760
G1 X124.653 Y108.435 E-0.21334
G1 F5760
G1 X124.281 Y108.244 E-0.14508
G1 F5760
G1 X123.604 Y107.964 E-0.25367
G1 F5760
G1 X124.031 Y107.964 E-0.14792
G1 E-0.04000 F2100.00000
G1 X127.597 Y107.763 F7200.000
G1 E0.80000 F2100.00000
G1 F900.000
G1 X127.754 Y107.557 E0.00812
G1 X127.808 Y107.808 E0.00804
G1 X127.655 Y107.775 E0.00489
G1 X128.251 Y108.251 F7200.000
G1 F900.000
G1 X129.135 Y108.827 E0.03306
G1 X129.305 Y109.054 E0.00889
G1 X129.417 Y109.289 E0.00819
G1 X129.481 Y109.481 E0.00633
G1 X129.289 Y109.417 E0.00633
G1 X129.054 Y109.305 E0.00819
G1 X128.827 Y109.135 E0.00889
G1 X128.284 Y108.302 E0.03118
G1 F5760
G1 X129.135 Y108.827 E-0.34632
G1 F5760
G1 X129.305 Y109.054 E-0.09822
G1 F5760
G1 X129.417 Y109.289 E-0.09042
G1 F5760
G1 X129.481 Y109.481 E-0.06996
G1 F5760
G1 X129.289 Y109.417 E-0.06996
G1 F5760
G1 X129.068 Y109.311 E-0.08513
G1 E-0.04000 F2100.00000
G1 X128.756 Y105.139 F7200.000
G1 E0.80000 F2100.00000
G1 F900.000
G1 X128.774 Y105.000 E0.00441
G1 X128.756 Y104.861 E0.00441
G1 X128.971 Y105.000 E0.00804
G1 X128.806 Y105.107 E0.00616
G1 X129.598 Y105.000 F7200.000
G1 F900.000
G1 X130.630 Y104.782 E0.03306
G1 X130.910 Y104.823 E0.00889
G1 X131.156 Y104.910 E0.00819
G1 X131.337 Y105.000 E0.00633
G1 X131.156 Y105.090 E0.00633
G1 X130.910 Y105.177 E0.00819
G1 X130.630 Y105.218 E0.00889
G1 X129.657 Y105.012 E0.03118
G1 F5760
G1 X130.630 Y104.782 E-0.34631
G1 F5760
G1 X130.910 Y104.823 E-0.09817
G1 F5760
G1 X131.156 Y104.910 E-0.09042
G1 F5760
G1 X131.337 Y105.000 E-0.06997
G1 F5760
G1 X131.156 Y105.090 E-0.06997
G1 F5760
G1 X130.925 Y105.172 E-0.08516
G1 E-0.04000 F2100.00000
G1 X127.754 Y102.443 F7200.000
G1 E0.80000 F2100.00000
G1 F900.000
G1 X127.597 Y102.237 E0.00812
G1 X127.808 Y102.192 E0.00678
G1 X127.767 Y102.384 E0.00616
G1 X128.251 Y101.749 F7200.000
G1 F900.000
G1 X128.827 Y100.865 E0.03306
G1 X129.054 Y100.695 E0.00889
G1 X129.289 Y100.583 E0.00818
G1 X129.481 Y100.519 E0.00634
G1 X129.417 Y100.711 E0.00633
G1 X129.305 Y100.946 E0.00819
G1 X129.135 Y101.173 E0.00889
G1 X128.302 Y101.716 E0.03118
G1 F5760
G1 X128.827 Y100.865 E-0.34632
G1 F5760
G1 X129.054 Y100.695 E-0.09820
G1 F5760
G1 X129.289 Y100.583 E-0.09041
G1 F5760
G1 X129.481 Y100.519 E-0.06998
G1 F5760
G1 X129.417 Y100.711 E-0.06995
G1 F5760
G1 X129.311 Y100.933 E-0.08515
G1 E-0.04000 F2100.00000
G1 X126.396 Y102.036 F7200.000
G1 E0.80000 F2100.00000
G1 F900.000
G1 X123.604 Y102.036 E0.08756
G1 X124.280 Y101.756 E0.02296
G1 X124.653 Y101.565 E0.01314
G1 X125.000 Y101.029 E0.02001
G1 X125.347 Y101.565 E0.02002
G1 X125.720 Y101.756 E0.01314
G1 X126.341 Y102.013 E0.02108
G1 F5760
G1 X124.147 Y102.031 E-0.76000
G1 E-0.04000 F2100.00000
G1 X125.000 Y100.402 F7200.000
G1 E0.80000 F2100.00000
G1 F900.000
G1 X124.782 Y99.370 E0.03306
G1 X124.823 Y99.090 E0.00889
G1 X124.910 Y98.844 E0.00818
G1 X125.000 Y98.663 E0.00633
G1 X125.090 Y98.844 E0.00633
G1 X125.177 Y99.090 E0.00818
G1 X125.218 Y99.370 E0.00889
G1 X125.012 Y100.343 E0.03118
G1 X125.371 Y100.909 F7200.000
G1 F1370.050
G1 X125.608 Y101.275 E0.01369
G1 X125.878 Y101.413 E0.00949
G1 X126.916 Y101.843 E0.03521
G1 X127.204 Y101.936 E0.00949
G1 X127.631 Y101.844 E0.01369
G1 X127.894 Y101.606 E0.01115
G1 X128.538 Y100.618 E0.03697
G1 X128.694 Y100.477 E0.00658
G1 X128.871 Y100.365 E0.00658
G1 X129.148 Y100.233 E0.00962
G1 X129.519 Y100.109 E0.01226
G1 X129.810 Y100.049 E0.00932
G1 X129.947 Y100.187 E0.00608
G1 X129.890 Y100.484 E0.00951
G1 X129.767 Y100.852 E0.01215
G1 X129.635 Y101.129 E0.00963
G1 X129.523 Y101.306 E0.00658
G1 X129.382 Y101.462 E0.00658
G1 X128.394 Y102.106 E0.03697
G1 X128.156 Y102.370 E0.01116
G1 X128.064 Y102.796 E0.01369
G1 X128.157 Y103.084 E0.00949
G1 X128.587 Y104.122 E0.03522
G1 X128.725 Y104.392 E0.00949
G1 X129.091 Y104.629 E0.01368
G1 X129.447 Y104.647 E0.01116
G1 X130.600 Y104.403 E0.03697
G1 X130.810 Y104.414 E0.00658
G1 X131.015 Y104.460 E0.00658
G1 X131.304 Y104.562 E0.00963
G1 X131.654 Y104.737 E0.01226
G1 X131.902 Y104.901 E0.00933
G1 X131.902 Y105.095 E0.00608
G1 X131.651 Y105.265 E0.00951
G1 X131.304 Y105.438 E0.01215
G1 X131.015 Y105.540 E0.00962
G1 X130.810 Y105.586 E0.00658
G1 X130.600 Y105.597 E0.00658
G1 X129.447 Y105.353 E0.03697
G1 X129.091 Y105.371 E0.01115
G1 X128.725 Y105.608 E0.01368
G1 X128.587 Y105.878 E0.00949
G1 X128.157 Y106.916 E0.03522
G1 X128.064 Y107.204 E0.00949
G1 X128.156 Y107.631 E0.01369
G1 X128.394 Y107.894 E0.01116
G1 X129.382 Y108.538 E0.03697
G1 X129.523 Y108.694 E0.00658
G1 X129.635 Y108.871 E0.00658
G1 X129.767 Y109.148 E0.00963
G1 X129.891 Y109.519 E0.01226
G1 X129.951 Y109.810 E0.00932
G1 X129.814 Y109.947 E0.00608
G1 X129.516 Y109.890 E0.00951
G1 X129.148 Y109.767 E0.01215
G1 X128.871 Y109.635 E0.00963
G1 X128.694 Y109.523 E0.00658
G1 X128.538 Y109.382 E0.00658
G1 X127.894 Y108.394 E0.03697
G1 X127.631 Y108.156 E0.01116
G1 X127.204 Y108.064 E0.01369
G1 X126.916 Y108.157 E0.00949
G1 X125.878 Y108.587 E0.03522
G1 X125.608 Y108.725 E0.00949
G1 X125.371 Y109.091 E0.01368
G1 X125.353 Y109.447 E0.01116
G1 X125.597 Y110.600 E0.03697
G1 X125.586 Y110.810 E0.00658
G1 X125.540 Y111.015 E0.00658
G1 X125.438 Y111.304 E0.00962
G1 X125.263 Y111.654 E0.01226
G1 X125.099 Y111.902 E0.00933
G1 X124.905 Y111.902 E0.00608
G1 X124.735 Y111.651 E0.00951
G1 X124.562 Y111.304 E0.01215
G1 X124.460 Y111.015 E0.00963
G1 X124.414 Y110.810 E0.00658
G1 X124.403 Y110.600 E0.00658
G1 X124.647 Y109.447 E0.03697
G1 X124.629 Y109.091 E0.01116
G1 X124.392 Y108.725 E0.01368
G1 X124.122 Y108.587 E0.00949
G1 X123.084 Y108.157 E0.03522
G1 X122.796 Y108.064 E0.00949
G1 X122.370 Y108.156 E0.01369
G1 X122.106 Y108.394 E0.01116
G1 X121.462 Y109.382 E0.03697
G1 X121.306 Y109.523 E0.00658
G1 X121.129 Y109.635 E0.00658
G1 X120.852 Y109.767 E0.00963
G1 X120.481 Y109.891 E0.01226
G1 X120.190 Y109.951 E0.00933
G1 X120.053 Y109.814 E0.00608
G1 X120.110 Y109.516 E0.00951
G1 X120.233 Y109.148 E0.01215
G1 X120.365 Y108.871 E0.00962
G1 X120.477 Y108.694 E0.00658
G1 X120.618 Y108.538 E0.00658
G1 X121.606 Y107.894 E0.03697
G1 X121.844 Y107.631 E0.01115
G1 X121.936 Y107.204 E0.01369
G1 X121.843 Y106.916 E0.00949
G1 X121.413 Y105.878 E0.03521
G1 X121.275 Y105.608 E0.00949
G1 X120.909 Y105.371 E0.01369
G1 X120.553 Y105.353 E0.01115
G1 X119.400 Y105.597 E0.03697
G1 X119.190 Y105.586 E0.00658
G1 X118.985 Y105.540 E0.00658
G1 X118.696 Y105.438 E0.00962
G1 X118.346 Y105.263 E0.01226
G1 X118.098 Y105.099 E0.00933
G1 X118.098 Y104.905 E0.00608
G1 X118.349 Y104.735 E0.00951
G1 X118.696 Y104.562 E0.01215
G1 X118.985 Y104.460 E0.00962
G1 X119.190 Y104.414 E0.00658
G1 X119.400 Y104.403 E0.00658
G1 X120.553 Y104.647 E0.03697
G1 X120.909 Y104.629 E0.01115
G1 X121.275 Y104.392 E0.01369
G1 X121.413 Y104.122 E0.00949
G1 X121.843 Y103.084 E0.03521
