; generated by Slic3r 1.33.8-prusa3d-win64 on 2017-03-23 at 17:59:05

; external perimeters extrusion width = 0.45mm
; perimeters extrusion width = 0.45mm
; infill extrusion width = 0.45mm
; solid infill extrusion width = 0.45mm
; top infill extrusion width = 0.45mm

M107
M115 U3.0.10 ; tell printer latest fw version
M83  ; extruder relative mode
M104 S215 ; set extruder temp
M140 S55 ; set bed temp
M190 S55 ; wait for bed temp
M109 S215 ; wait for extruder temp
G28 W ; home all without mesh bed level
G80 ; mesh bed leveling
G1 Y-3.0 F1000.0 ; go outside pritn area
G1 X60.0 E9.0  F1000.0 ; intro line
G1 X100.0 E12.5  F1000.0 ; intro line
G21 ; set units to millimeters
G90 ; use absolute coordinates
M83 ; use relative distances for extrusion
G1 E-0.80000 F2100.00000
G1 Z0.200 F7200.000
G1 X114.080 Y97.552 F7200.000
G1 E0.80000 F2100.00000
M204 S1000
G1 F2100
G1 X117.432 Y94.174 E0.14922
G1 X117.686 Y93.955 E0.01053
G1 X117.969 Y93.766 E0.01066
G1 X118.916 Y93.240 E0.03397
G1 X119.321 Y93.072 E0.01374
G1 X123.986 Y91.811 E0.15153
G1 X124.463 Y91.757 E0.01502
G1 X125.529 Y91.771 E0.03345
G1 X125.840 Y91.795 E0.00976
G1 X126.146 Y91.853 E0.00976
G1 X130.717 Y93.071 E0.14832
G1 X131.167 Y93.268 E0.01541
G1 X132.170 Y93.869 E0.03667
G1 X132.571 Y94.193 E0.01617
G1 X135.806 Y97.411 E0.14305
G1 X136.028 Y97.664 E0.01053
G1 X136.217 Y97.941 E0.01053
G1 X136.756 Y98.909 E0.03474
G1 X136.927 Y99.317 E0.01387
G1 X138.181 Y103.950 E0.15050
G1 X138.243 Y104.450 E0.01579
G1 X138.229 Y105.517 E0.03345
G1 X138.206 Y105.832 E0.00989
G1 X138.148 Y106.142 E0.00989
G1 X136.929 Y110.717 E0.14845
G1 X136.731 Y111.167 E0.01541
G1 X136.131 Y112.170 E0.03666
G1 X135.807 Y112.571 E0.01617
G1 X132.589 Y115.806 E0.14305
G1 X132.336 Y116.028 E0.01053
G1 X132.059 Y116.217 E0.01053
G1 X131.087 Y116.758 E0.03486
G1 X130.683 Y116.927 E0.01374
G1 X126.050 Y118.181 E0.15051
G1 X125.550 Y118.243 E0.01579
G1 X124.483 Y118.229 E0.03345
G1 X124.168 Y118.206 E0.00989
G1 X123.858 Y118.148 E0.00989
G1 X119.283 Y116.929 E0.14845
G1 X118.833 Y116.731 E0.01541
G1 X117.834 Y116.133 E0.03653
G1 X117.429 Y115.807 E0.01630
G1 X114.194 Y112.589 E0.14305
G1 X113.972 Y112.336 E0.01053
G1 X113.783 Y112.059 E0.01053
G1 X113.242 Y111.087 E0.03486
G1 X113.072 Y110.679 E0.01387
G1 X111.812 Y106.018 E0.15140
G1 X111.757 Y105.538 E0.01515
G1 X111.771 Y104.462 E0.03371
G1 X111.798 Y104.140 E0.01015
G1 X111.863 Y103.819 E0.01027
G1 X113.083 Y99.248 E0.14832
G1 X113.301 Y98.776 E0.01630
G1 X113.834 Y97.885 E0.03255
G1 X114.041 Y97.598 E0.01109
G1 X114.346 Y97.821 F7200.000
G1 F2100
G1 X117.689 Y94.450 E0.14884
G1 X117.910 Y94.259 E0.00919
G1 X118.157 Y94.094 E0.00931
G1 X119.081 Y93.580 E0.03313
G1 X119.442 Y93.429 E0.01229
G1 X124.054 Y92.182 E0.14980
G1 X124.478 Y92.134 E0.01336
G1 X125.519 Y92.148 E0.03266
G1 X125.788 Y92.168 E0.00847
G1 X126.058 Y92.220 E0.00859
G1 X130.590 Y93.427 E0.14705
G1 X130.991 Y93.602 E0.01371
G1 X131.956 Y94.180 E0.03528
G1 X132.309 Y94.464 E0.01419
G1 X135.536 Y97.675 E0.14275
G1 X135.730 Y97.895 E0.00919
G1 X135.895 Y98.137 E0.00919
G1 X136.420 Y99.080 E0.03385
G1 X136.570 Y99.439 E0.01217
G1 X137.812 Y104.028 E0.14908
G1 X137.866 Y104.470 E0.01395
G1 X137.852 Y105.511 E0.03265
G1 X137.832 Y105.785 E0.00859
G1 X137.781 Y106.054 E0.00859
G1 X136.573 Y110.590 E0.14718
G1 X136.398 Y110.991 E0.01371
G1 X135.820 Y111.956 E0.03528
G1 X135.536 Y112.309 E0.01419
G1 X132.325 Y115.536 E0.14276
G1 X132.105 Y115.730 E0.00919
G1 X131.863 Y115.895 E0.00919
G1 X130.923 Y116.418 E0.03373
G1 X130.562 Y116.570 E0.01229
G1 X125.972 Y117.812 E0.14909
G1 X125.530 Y117.866 E0.01395
G1 X124.489 Y117.852 E0.03265
G1 X124.215 Y117.832 E0.00859
G1 X123.946 Y117.781 E0.00859
G1 X119.410 Y116.573 E0.14718
G1 X119.013 Y116.400 E0.01360
G1 X118.047 Y115.822 E0.03528
G1 X117.691 Y115.536 E0.01431
G1 X114.464 Y112.325 E0.14276
G1 X114.270 Y112.105 E0.00919
G1 X114.105 Y111.863 E0.00919
G1 X113.580 Y110.920 E0.03385
G1 X113.430 Y110.562 E0.01217
G1 X112.183 Y105.950 E0.14980
G1 X112.134 Y105.523 E0.01348
G1 X112.148 Y104.473 E0.03290
G1 X112.170 Y104.196 E0.00871
G1 X112.226 Y103.920 E0.00883
G1 X113.435 Y99.385 E0.14717
G1 X113.622 Y98.973 E0.01419
G1 X114.145 Y98.099 E0.03194
G1 X114.308 Y97.868 E0.00886
G1 F5760
G1 X115.851 Y96.308 E-0.76000
G1 E-0.04000 F2100.00000
G1 X119.660 Y101.917 F7200.000
G1 E0.80000 F2100.00000
G1 F840
G1 X120.108 Y101.246 E0.02529
G1 X120.640 Y100.640 E0.02529
G1 X121.246 Y100.108 E0.02529
G1 X121.917 Y99.660 E0.02529
G1 X122.640 Y99.303 E0.02529
G1 X123.404 Y99.044 E0.02529
G1 X124.195 Y98.887 E0.02529
G1 X124.975 Y98.835 E0.02451
G1 X125.803 Y98.886 E0.02600
G1 X126.596 Y99.044 E0.02535
G1 X127.360 Y99.303 E0.02529
G1 X128.083 Y99.660 E0.02529
G1 X128.754 Y100.108 E0.02529
G1 X129.360 Y100.640 E0.02529
G1 X129.892 Y101.246 E0.02529
G1 X130.340 Y101.917 E0.02529
G1 X130.697 Y102.640 E0.02529
G1 X130.956 Y103.404 E0.02529
G1 X131.113 Y104.195 E0.02529
G1 X131.166 Y105.000 E0.02529
G1 X131.113 Y105.805 E0.02529
G1 X130.956 Y106.596 E0.02529
G1 X130.697 Y107.360 E0.02529
G1 X130.340 Y108.083 E0.02529
G1 X129.892 Y108.754 E0.02529
G1 X129.360 Y109.360 E0.02529
G1 X128.754 Y109.892 E0.02529
G1 X128.083 Y110.340 E0.02529
G1 X127.360 Y110.697 E0.02529
G1 X126.596 Y110.956 E0.02529
G1 X125.805 Y111.113 E0.02529
G1 X125.000 Y111.166 E0.02529
G1 X124.195 Y111.113 E0.02529
G1 X123.404 Y110.956 E0.02529
G1 X122.640 Y110.697 E0.02529
G1 X121.917 Y110.340 E0.02529
G1 X121.246 Y109.892 E0.02529
G1 X120.640 Y109.360 E0.02529
G1 X120.108 Y108.754 E0.02529
G1 X119.660 Y108.083 E0.02529
G1 X119.303 Y107.360 E0.02529
G1 X119.044 Y106.596 E0.02529
G1 X118.887 Y105.805 E0.02529
G1 X118.834 Y105.000 E0.02529
G1 X118.887 Y104.195 E0.02529
G1 X119.039 Y103.428 E0.02451
G1 X119.302 Y102.642 E0.02599
G1 X119.633 Y101.971 E0.02347
G1 X119.987 Y102.106 F7200.000
G1 F840
G1 X120.408 Y101.476 E0.02374
G1 X120.907 Y100.907 E0.02374
G1 X121.476 Y100.408 E0.02374
G1 X122.106 Y99.987 E0.02374
G1 X122.785 Y99.652 E0.02374
G1 X123.502 Y99.409 E0.02374
G1 X124.244 Y99.261 E0.02374
G1 X124.976 Y99.213 E0.02299
G1 X125.754 Y99.261 E0.02445
G1 X126.498 Y99.409 E0.02378
G1 X127.215 Y99.652 E0.02374
G1 X127.894 Y99.987 E0.02374
G1 X128.524 Y100.408 E0.02374
G1 X129.093 Y100.907 E0.02374
G1 X129.592 Y101.476 E0.02374
G1 X130.013 Y102.106 E0.02374
G1 X130.348 Y102.785 E0.02374
G1 X130.591 Y103.502 E0.02374
G1 X130.739 Y104.244 E0.02374
G1 X130.788 Y105.000 E0.02374
G1 X130.739 Y105.756 E0.02374
G1 X130.591 Y106.498 E0.02374
G1 X130.348 Y107.215 E0.02374
G1 X130.013 Y107.894 E0.02374
G1 X129.592 Y108.524 E0.02374
G1 X129.093 Y109.093 E0.02374
G1 X128.524 Y109.592 E0.02374
G1 X127.894 Y110.013 E0.02374
G1 X127.215 Y110.348 E0.02374
G1 X126.498 Y110.591 E0.02374
G1 X125.756 Y110.739 E0.02374
G1 X125.000 Y110.788 E0.02374
G1 X124.244 Y110.739 E0.02374
G1 X123.502 Y110.591 E0.02374
G1 X122.785 Y110.348 E0.02374
G1 X122.106 Y110.013 E0.02374
G1 X121.476 Y109.592 E0.02374
G1 X120.907 Y109.093 E0.02374
G1 X120.408 Y108.524 E0.02374
G1 X119.987 Y107.894 E0.02374
G1 X119.652 Y107.215 E0.02374
G1 X119.409 Y106.498 E0.02374
G1 X119.261 Y105.756 E0.02374
G1 X119.212 Y105.000 E0.02374
G1 X119.261 Y104.244 E0.02374
G1 X119.404 Y103.525 E0.02299
G1 X119.652 Y102.786 E0.02445
G1 X119.961 Y102.160 E0.02190
G1 X120.314 Y102.295 F7200.000
G1 F840
G1 X120.708 Y101.706 E0.02219
G1 X121.174 Y101.174 E0.02219
G1 X121.706 Y100.708 E0.02219
G1 X122.295 Y100.314 E0.02219
G1 X122.930 Y100.001 E0.02219
G1 X123.600 Y99.774 E0.02219
G1 X124.294 Y99.636 E0.02219
G1 X124.977 Y99.591 E0.02146
G1 X125.706 Y99.636 E0.02290
G1 X126.400 Y99.774 E0.02220
G1 X127.071 Y100.001 E0.02219
G1 X127.705 Y100.314 E0.02219
G1 X128.294 Y100.708 E0.02219
G1 X128.826 Y101.174 E0.02219
G1 X129.292 Y101.706 E0.02219
G1 X129.686 Y102.295 E0.02219
G1 X129.999 Y102.930 E0.02219
G1 X130.226 Y103.600 E0.02219
G1 X130.364 Y104.294 E0.02219
G1 X130.410 Y105.000 E0.02219
G1 X130.364 Y105.706 E0.02219
G1 X130.226 Y106.400 E0.02219
G1 X129.999 Y107.070 E0.02219
G1 X129.686 Y107.705 E0.02219
G1 X129.292 Y108.294 E0.02219
G1 X128.826 Y108.826 E0.02219
G1 X128.294 Y109.292 E0.02219
G1 X127.705 Y109.686 E0.02219
G1 X127.070 Y109.999 E0.02219
G1 X126.400 Y110.226 E0.02219
G1 X125.706 Y110.364 E0.02219
G1 X125.000 Y110.410 E0.02219
G1 X124.294 Y110.364 E0.02219
G1 X123.600 Y110.226 E0.02219
G1 X122.930 Y109.999 E0.02219
G1 X122.295 Y109.686 E0.02219
G1 X121.706 Y109.292 E0.02219
G1 X121.174 Y108.826 E0.02219
G1 X120.708 Y108.294 E0.02219
G1 X120.314 Y107.705 E0.02219
G1 X120.001 Y107.071 E0.02219
G1 X119.774 Y106.400 E0.02219
G1 X119.636 Y105.706 E0.02219
G1 X119.590 Y105.000 E0.02219
G1 X119.636 Y104.294 E0.02219
G1 X119.769 Y103.622 E0.02147
G1 X120.001 Y102.930 E0.02290
G1 X120.288 Y102.349 E0.02032
G1 X120.114 Y101.949 F7200.000
G1 F5760
G1 X120.708 Y101.706 E-0.26574
G1 F5760
G1 X121.174 Y101.174 E-0.24512
G1 F5760
G1 X121.706 Y100.708 E-0.24512
G1 F5760
G1 X121.716 Y100.701 E-0.00402
G1 E-0.04000 F2100.00000
G1 X118.581 Y104.443 F7200.000
G1 E0.80000 F2100.00000
G1 F1680
G1 X118.760 Y104.029 E0.01413
G1 X119.110 Y102.721 E0.04247
G1 X119.163 Y102.273 E0.01413
G1 X118.909 Y101.687 E0.02002
G1 X118.505 Y101.386 E0.01583
G1 X117.490 Y100.969 E0.03438
G1 X117.336 Y100.842 E0.00625
G1 X117.112 Y100.608 E0.01017
G1 X116.900 Y100.323 E0.01112
G1 X117.252 Y100.365 E0.01112
G1 X117.567 Y100.442 E0.01017
G1 X117.754 Y100.512 E0.00625
G1 X118.622 Y101.182 E0.03438
G1 X119.085 Y101.382 E0.01582
G1 X119.720 Y101.308 E0.02002
G1 X120.081 Y101.039 E0.01413
G1 X121.039 Y100.081 E0.04247
G1 X121.308 Y99.720 E0.01413
G1 X121.382 Y99.085 E0.02002
G1 X121.182 Y98.622 E0.01582
G1 X120.512 Y97.754 E0.03438
G1 X120.442 Y97.567 E0.00625
G1 X120.365 Y97.252 E0.01017
G1 X120.323 Y96.900 E0.01112
G1 X120.608 Y97.112 E0.01112
G1 X120.842 Y97.336 E0.01017
G1 X120.969 Y97.490 E0.00625
G1 X121.386 Y98.505 E0.03438
G1 X121.687 Y98.909 E0.01583
G1 X122.273 Y99.163 E0.02002
G1 X122.721 Y99.110 E0.01413
G1 X124.029 Y98.760 E0.04247
G1 X124.443 Y98.581 E0.01413
G1 X124.824 Y98.069 E0.02002
G1 X124.882 Y97.568 E0.01583
G1 X124.736 Y96.481 E0.03438
G1 X124.769 Y96.284 E0.00625
G1 X124.860 Y95.973 E0.01017
G1 X125.000 Y95.647 E0.01112
G1 X125.140 Y95.973 E0.01112
G1 X125.231 Y96.284 E0.01018
G1 X125.264 Y96.481 E0.00624
G1 X125.118 Y97.568 E0.03439
G1 X125.176 Y98.069 E0.01583
G1 X125.557 Y98.581 E0.02002
G1 X125.971 Y98.760 E0.01413
G1 X127.279 Y99.110 E0.04247
G1 X127.727 Y99.163 E0.01413
G1 X128.313 Y98.910 E0.02002
G1 X128.614 Y98.505 E0.01583
G1 X129.031 Y97.490 E0.03438
G1 X129.158 Y97.336 E0.00625
G1 X129.392 Y97.112 E0.01017
G1 X129.677 Y96.900 E0.01112
G1 X129.635 Y97.252 E0.01112
G1 X129.558 Y97.568 E0.01018
G1 X129.488 Y97.754 E0.00625
G1 X128.818 Y98.622 E0.03438
G1 X128.618 Y99.086 E0.01582
G1 X128.692 Y99.720 E0.02002
G1 X128.961 Y100.081 E0.01413
G1 X129.919 Y101.039 E0.04247
G1 X130.280 Y101.308 E0.01413
G1 X130.915 Y101.382 E0.02002
G1 X131.378 Y101.182 E0.01582
G1 X132.246 Y100.512 E0.03438
G1 X132.433 Y100.442 E0.00625
G1 X132.748 Y100.365 E0.01017
G1 X133.100 Y100.323 E0.01112
G1 X132.888 Y100.608 E0.01112
G1 X132.664 Y100.842 E0.01018
G1 X132.510 Y100.969 E0.00624
G1 X131.495 Y101.386 E0.03439
G1 X131.090 Y101.687 E0.01583
G1 X130.837 Y102.273 E0.02002
G1 X130.890 Y102.721 E0.01413
G1 X131.240 Y104.029 E0.04248
G1 X131.419 Y104.443 E0.01413
G1 X131.931 Y104.824 E0.02001
G1 X132.433 Y104.882 E0.01583
G1 X133.519 Y104.736 E0.03438
G1 X133.716 Y104.769 E0.00625
G1 X134.027 Y104.860 E0.01017
G1 X134.353 Y105.000 E0.01112
G1 X134.027 Y105.140 E0.01112
G1 X133.716 Y105.231 E0.01018
G1 X133.519 Y105.264 E0.00624
G1 X132.433 Y105.118 E0.03438
G1 X131.931 Y105.176 E0.01583
G1 X131.419 Y105.557 E0.02001
G1 X131.240 Y105.971 E0.01413
G1 X130.890 Y107.279 E0.04248
G1 X130.837 Y107.727 E0.01413
G1 X131.090 Y108.313 E0.02002
G1 X131.495 Y108.614 E0.01583
G1 X132.510 Y109.031 E0.03439
G1 X132.664 Y109.158 E0.00625
G1 X132.888 Y109.392 E0.01018
G1 X133.100 Y109.677 E0.01112
G1 X132.748 Y109.635 E0.01112
G1 X132.432 Y109.558 E0.01018
G1 X132.246 Y109.488 E0.00625
G1 X131.378 Y108.818 E0.03438
G1 X130.915 Y108.618 E0.01582
G1 X130.280 Y108.692 E0.02003
G1 X129.919 Y108.961 E0.01413
G1 X128.961 Y109.919 E0.04246
G1 X128.692 Y110.280 E0.01413
G1 X128.618 Y110.915 E0.02003
G1 X128.818 Y111.378 E0.01582
G1 X129.488 Y112.246 E0.03438
G1 X129.558 Y112.432 E0.00625
G1 X129.635 Y112.748 E0.01018
G1 X129.677 Y113.100 E0.01112
G1 X129.392 Y112.888 E0.01112
G1 X129.158 Y112.664 E0.01018
G1 X129.031 Y112.510 E0.00625
G1 X128.614 Y111.495 E0.03439
G1 X128.313 Y111.090 E0.01583
G1 X127.727 Y110.837 E0.02002
G1 X127.279 Y110.890 E0.01413
G1 X125.971 Y111.240 E0.04248
G1 X125.557 Y111.419 E0.01413
G1 X125.176 Y111.931 E0.02001
G1 X125.118 Y112.433 E0.01583
G1 X125.264 Y113.519 E0.03438
G1 X125.231 Y113.716 E0.00624
G1 X125.140 Y114.027 E0.01018
G1 X125.000 Y114.353 E0.01112
G1 X124.860 Y114.027 E0.01112
G1 X124.769 Y113.716 E0.01017
G1 X124.736 Y113.519 E0.00625
G1 X124.882 Y112.433 E0.03438
G1 X124.824 Y111.931 E0.01583
G1 X124.443 Y111.419 E0.02001
G1 X124.029 Y111.240 E0.01413
G1 X122.721 Y110.890 E0.04248
G1 X122.273 Y110.837 E0.01413
G1 X121.687 Y111.090 E0.02002
G1 X121.386 Y111.495 E0.01583
G1 X120.969 Y112.510 E0.03439
G1 X120.842 Y112.664 E0.00624
G1 X120.608 Y112.888 E0.01018
G1 X120.323 Y113.100 E0.01112
G1 X120.365 Y112.748 E0.01112
G1 X120.442 Y112.433 E0.01017
G1 X120.512 Y112.246 E0.00625
G1 X121.182 Y111.378 E0.03438
G1 X121.382 Y110.915 E0.01582
G1 X121.308 Y110.280 E0.02002
G1 X121.039 Y109.919 E0.01413
G1 X120.081 Y108.961 E0.04247
G1 X119.720 Y108.692 E0.01413
G1 X119.086 Y108.618 E0.02002
G1 X118.622 Y108.818 E0.01582
G1 X117.754 Y109.488 E0.03438
G1 X117.568 Y109.558 E0.00625
G1 X117.252 Y109.635 E0.01018
G1 X116.900 Y109.677 E0.01112
G1 X117.112 Y109.392 E0.01112
G1 X117.336 Y109.158 E0.01017
G1 X117.490 Y109.031 E0.00625
G1 X118.505 Y108.614 E0.03438
G1 X118.910 Y108.313 E0.01583
G1 X119.163 Y107.727 E0.02002
G1 X119.110 Y107.279 E0.01413
G1 X118.760 Y105.971 E0.04247
G1 X118.581 Y105.557 E0.01413
G1 X118.069 Y105.176 E0.02002
G1 X117.568 Y105.118 E0.01583
G1 X116.481 Y105.264 E0.03439
G1 X116.284 Y105.231 E0.00624
G1 X115.973 Y105.140 E0.01018
G1 X115.647 Y105.000 E0.01112
G1 X115.973 Y104.860 E0.01112
G1 X116.284 Y104.769 E0.01017
G1 X116.481 Y104.736 E0.00625
G1 X117.568 Y104.882 E0.03438
G1 X118.069 Y104.824 E0.01583
G1 X118.533 Y104.479 E0.01814
G1 X117.925 Y104.461 F7200.000
G1 F1680
G1 X118.275 Y104.201 E0.01369
G1 X118.403 Y103.905 E0.01010
G1 X118.739 Y102.650 E0.04074
G1 X118.776 Y102.330 E0.01010
G1 X118.603 Y101.929 E0.01369
G1 X118.318 Y101.717 E0.01113
G1 X117.352 Y101.328 E0.03265
G1 X117.079 Y101.119 E0.01078
G1 X116.824 Y100.852 E0.01161
G1 X116.527 Y100.454 E0.01554
G1 X116.363 Y100.165 E0.01042
G1 X116.500 Y99.937 E0.00837
G1 X116.826 Y99.935 E0.01025
G1 X117.319 Y99.993 E0.01556
G1 X117.679 Y100.081 E0.01161
G1 X117.996 Y100.213 E0.01078
G1 X118.816 Y100.855 E0.03265
G1 X119.142 Y100.996 E0.01113
G1 X119.576 Y100.945 E0.01369
G1 X119.834 Y100.753 E0.01010
G1 X120.753 Y99.834 E0.04074
G1 X120.945 Y99.576 E0.01010
G1 X120.996 Y99.142 E0.01369
G1 X120.855 Y98.816 E0.01113
G1 X120.213 Y97.996 E0.03265
G1 X120.167 Y97.908 E0.00313
G1 X120.081 Y97.679 E0.00767
G1 X119.993 Y97.319 E0.01161
G1 X119.935 Y96.827 E0.01554
G1 X119.937 Y96.495 E0.01042
G1 X120.170 Y96.365 E0.00837
G1 X120.454 Y96.527 E0.01025
G1 X120.852 Y96.824 E0.01556
G1 X121.119 Y97.079 E0.01161
G1 X121.328 Y97.352 E0.01078
G1 X121.717 Y98.318 E0.03265
G1 X121.929 Y98.603 E0.01113
G1 X122.330 Y98.776 E0.01369
G1 X122.650 Y98.739 E0.01010
G1 X123.905 Y98.403 E0.04074
G1 X124.201 Y98.275 E0.01010
G1 X124.461 Y97.925 E0.01369
G1 X124.502 Y97.572 E0.01113
G1 X124.356 Y96.541 E0.03265
G1 X124.400 Y96.200 E0.01078
G1 X124.504 Y95.845 E0.01161
G1 X124.700 Y95.389 E0.01554
G1 X124.868 Y95.103 E0.01042
G1 X125.135 Y95.107 E0.00836
G1 X125.300 Y95.389 E0.01025
G1 X125.496 Y95.845 E0.01556
G1 X125.600 Y96.200 E0.01161
G1 X125.640 Y96.441 E0.00767
G1 X125.644 Y96.541 E0.00313
