; generated by Slic3r 1.33.8-prusa3d-win64 on 2017-03-23 at 17:58:48

; external perimeters extrusion width = 0.45mm
; perimeters extrusion width = 0.45mm
; infill extrusion width = 0.45mm
; solid infill extrusion width = 0.45mm
; top infill extrusion width = 0.45mm

M107
M115 U3.0.10 ; tell printer latest fw version
M83  ; extruder relative mode
M104 S215 ; set extruder temp
M140 S55 ; set bed temp
M190 S55 ; wait for bed temp
M109 S215 ; wait for extruder temp
G28 W ; home all without mesh bed level
G80 ; mesh bed leveling
G1 Y-3.0 F1000.0 ; go outside pritn area
G1 X60.0 E9.0  F1000.0 ; intro line
G1 X100.0 E12.5  F1000.0 ; intro line
G21 ; set units to millimeters
G90 ; use absolute coordinates
M83 ; use relative distances for extrusion
G1 E-0.80000 F2100.00000
G1 Z0.200 F7200.000
G1 X111.979 Y95.286 F7200.000
G1 E0.80000 F2100.00000
M204 S1000
G1 F2100
G1 X115.228 Y92.030 E0.14422
G1 X115.516 Y91.800 E0.01156
G1 X116.494 Y91.149 E0.03682
G1 X116.851 Y90.967 E0.01259
G1 X120.924 Y89.282 E0.13818
G1 X121.285 Y89.176 E0.01182
G1 X122.442 Y88.949 E0.03695
G1 X122.842 Y88.917 E0.01259
G1 X127.245 Y88.919 E0.13805
G1 X127.620 Y88.959 E0.01182
G1 X128.763 Y89.187 E0.03656
G1 X129.157 Y89.314 E0.01297
G1 X133.228 Y91.002 E0.13819
G1 X133.562 Y91.184 E0.01195
G1 X134.541 Y91.841 E0.03694
G1 X134.846 Y92.101 E0.01259
G1 X137.958 Y95.216 E0.13806
G1 X138.195 Y95.509 E0.01182
G1 X138.840 Y96.476 E0.03643
G1 X139.031 Y96.847 E0.01310
G1 X140.716 Y100.920 E0.13819
G1 X140.824 Y101.285 E0.01195
G1 X141.049 Y102.425 E0.03644
G1 X141.083 Y102.838 E0.01297
G1 X141.081 Y107.245 E0.13818
G1 X141.041 Y107.620 E0.01182
G1 X140.814 Y108.759 E0.03642
G1 X140.686 Y109.157 E0.01310
G1 X138.998 Y113.228 E0.13819
G1 X138.816 Y113.562 E0.01195
G1 X138.159 Y114.541 E0.03695
G1 X137.901 Y114.843 E0.01246
G1 X134.784 Y117.958 E0.13818
G1 X134.491 Y118.195 E0.01182
G1 X133.524 Y118.840 E0.03643
G1 X133.152 Y119.031 E0.01310
G1 X129.080 Y120.716 E0.13818
G1 X128.715 Y120.824 E0.01195
G1 X127.575 Y121.049 E0.03643
G1 X127.162 Y121.083 E0.01297
G1 X122.755 Y121.081 E0.13819
G1 X122.380 Y121.041 E0.01182
G1 X121.241 Y120.814 E0.03643
G1 X120.843 Y120.686 E0.01310
G1 X116.772 Y118.998 E0.13818
G1 X116.438 Y118.816 E0.01195
G1 X115.462 Y118.162 E0.03681
G1 X115.154 Y117.899 E0.01272
G1 X112.042 Y114.784 E0.13806
G1 X111.802 Y114.487 E0.01195
G1 X111.158 Y113.521 E0.03642
G1 X110.969 Y113.153 E0.01297
G1 X109.284 Y109.080 E0.13819
G1 X109.176 Y108.715 E0.01195
G1 X108.949 Y107.563 E0.03681
G1 X108.917 Y107.158 E0.01272
G1 X108.919 Y102.755 E0.13806
G1 X108.959 Y102.376 E0.01195
G1 X109.190 Y101.225 E0.03682
G1 X109.315 Y100.839 E0.01272
G1 X111.009 Y96.757 E0.13857
G1 X111.200 Y96.413 E0.01233
G1 X111.940 Y95.332 E0.04109
G1 X112.246 Y95.553 F7200.000
G1 F2100
G1 X115.481 Y92.311 E0.14360
G1 X115.733 Y92.108 E0.01014
G1 X116.686 Y91.474 E0.03590
G1 X116.998 Y91.315 E0.01098
G1 X121.054 Y89.636 E0.13763
G1 X121.372 Y89.543 E0.01038
G1 X122.495 Y89.322 E0.03591
G1 X122.844 Y89.294 E0.01098
G1 X127.230 Y89.296 E0.13751
G1 X127.559 Y89.331 E0.01038
G1 X128.675 Y89.554 E0.03567
G1 X129.019 Y89.665 E0.01133
G1 X133.070 Y91.344 E0.13751
G1 X133.364 Y91.505 E0.01050
G1 X134.315 Y92.143 E0.03590
G1 X134.581 Y92.370 E0.01098
G1 X137.681 Y95.472 E0.13751
G1 X137.889 Y95.730 E0.01038
G1 X138.520 Y96.676 E0.03566
G1 X138.685 Y96.998 E0.01133
G1 X140.362 Y101.050 E0.13751
G1 X140.457 Y101.372 E0.01050
G1 X140.676 Y102.484 E0.03555
G1 X140.706 Y102.844 E0.01133
G1 X140.704 Y107.230 E0.13751
G1 X140.669 Y107.559 E0.01038
G1 X140.447 Y108.671 E0.03554
G1 X140.336 Y109.019 E0.01145
G1 X138.656 Y113.070 E0.13752
G1 X138.495 Y113.364 E0.01050
G1 X137.857 Y114.315 E0.03591
G1 X137.630 Y114.582 E0.01098
G1 X134.528 Y117.681 E0.13750
G1 X134.270 Y117.889 E0.01038
G1 X133.327 Y118.518 E0.03555
G1 X133.002 Y118.685 E0.01145
G1 X128.950 Y120.362 E0.13751
G1 X128.632 Y120.456 E0.01038
G1 X127.520 Y120.676 E0.03555
G1 X127.156 Y120.706 E0.01145
G1 X122.770 Y120.704 E0.13751
G1 X122.441 Y120.669 E0.01038
G1 X121.329 Y120.447 E0.03555
G1 X120.981 Y120.335 E0.01145
G1 X116.930 Y118.656 E0.13751
G1 X116.636 Y118.495 E0.01050
G1 X115.688 Y117.860 E0.03578
G1 X115.419 Y117.630 E0.01110
G1 X112.319 Y114.528 E0.13752
G1 X112.111 Y114.270 E0.01038
G1 X111.482 Y113.327 E0.03554
G1 X111.315 Y113.002 E0.01145
G1 X109.638 Y108.950 E0.13752
G1 X109.543 Y108.628 E0.01050
G1 X109.322 Y107.509 E0.03578
G1 X109.294 Y107.156 E0.01110
G1 X109.296 Y102.770 E0.13751
G1 X109.332 Y102.437 E0.01050
G1 X109.556 Y101.318 E0.03578
G1 X109.665 Y100.981 E0.01110
G1 X111.349 Y96.920 E0.13787
G1 X111.513 Y96.623 E0.01062
G1 X112.208 Y95.600 E0.03879
G1 F5760
G1 X113.756 Y94.044 E-0.76000
G1 E-0.04000 F2100.00000
G1 X127.136 Y111.311 F7200.000
G1 E0.80000 F2100.00000
G1 F840
G1 X127.136 Y110.773 E0.01688
G1 X126.596 Y110.956 E0.01787
G1 X125.805 Y111.113 E0.02529
G1 X125.000 Y111.166 E0.02529
G1 X124.195 Y111.113 E0.02529
G1 X123.428 Y110.961 E0.02452
G1 X122.642 Y110.698 E0.02599
G1 X121.917 Y110.340 E0.02535
G1 X121.246 Y109.892 E0.02529
G1 X120.640 Y109.360 E0.02529
G1 X120.108 Y108.754 E0.02529
G1 X119.660 Y108.083 E0.02529
G1 X119.303 Y107.360 E0.02529
G1 X119.044 Y106.596 E0.02529
G1 X118.887 Y105.805 E0.02529
G1 X118.834 Y105.000 E0.02529
G1 X118.887 Y104.195 E0.02529
G1 X119.039 Y103.428 E0.02451
G1 X119.302 Y102.642 E0.02599
G1 X119.660 Y101.917 E0.02536
G1 X120.108 Y101.246 E0.02529
G1 X120.640 Y100.640 E0.02529
G1 X121.246 Y100.108 E0.02529
G1 X121.917 Y99.660 E0.02529
G1 X122.640 Y99.303 E0.02529
G1 X123.404 Y99.044 E0.02529
G1 X124.195 Y98.887 E0.02529
G1 X124.975 Y98.835 E0.02451
G1 X125.803 Y98.886 E0.02599
G1 X126.596 Y99.044 E0.02536
G1 X127.360 Y99.303 E0.02529
G1 X128.083 Y99.660 E0.02529
G1 X128.754 Y100.108 E0.02529
G1 X129.360 Y100.640 E0.02529
G1 X129.892 Y101.246 E0.02529
G1 X130.340 Y101.917 E0.02529
G1 X130.697 Y102.640 E0.02529
G1 X130.956 Y103.404 E0.02529
G1 X131.113 Y104.195 E0.02529
G1 X131.166 Y105.000 E0.02529
G1 X131.113 Y105.805 E0.02529
G1 X130.956 Y106.596 E0.02529
G1 X130.697 Y107.360 E0.02529
G1 X130.340 Y108.083 E0.02529
G1 X129.892 Y108.754 E0.02529
G1 X129.360 Y109.360 E0.02529
G1 X127.181 Y111.272 E0.09089
G1 X127.513 Y110.479 F7200.000
G1 F840
G1 X127.513 Y110.201 E0.00871
G1 X127.215 Y110.348 E0.01041
G1 X126.498 Y110.591 E0.02374
G1 X125.756 Y110.739 E0.02374
G1 X125.000 Y110.788 E0.02374
G1 X124.245 Y110.739 E0.02374
G1 X123.525 Y110.596 E0.02299
G1 X122.786 Y110.348 E0.02444
G1 X122.106 Y110.013 E0.02378
G1 X121.476 Y109.592 E0.02374
G1 X120.907 Y109.093 E0.02374
G1 X120.408 Y108.524 E0.02374
G1 X119.987 Y107.894 E0.02374
G1 X119.652 Y107.215 E0.02374
G1 X119.409 Y106.498 E0.02374
G1 X119.261 Y105.756 E0.02374
G1 X119.212 Y105.000 E0.02374
G1 X119.261 Y104.244 E0.02374
G1 X119.404 Y103.525 E0.02299
G1 X119.652 Y102.786 E0.02444
G1 X119.987 Y102.106 E0.02378
G1 X120.408 Y101.476 E0.02374
G1 X120.907 Y100.907 E0.02374
G1 X121.476 Y100.408 E0.02374
G1 X122.106 Y99.987 E0.02374
G1 X122.785 Y99.652 E0.02374
G1 X123.502 Y99.409 E0.02374
G1 X124.245 Y99.261 E0.02374
G1 X124.976 Y99.213 E0.02299
G1 X125.754 Y99.261 E0.02444
G1 X126.498 Y99.409 E0.02378
G1 X127.215 Y99.652 E0.02374
G1 X127.894 Y99.987 E0.02374
G1 X128.524 Y100.408 E0.02374
G1 X129.093 Y100.907 E0.02374
G1 X129.592 Y101.476 E0.02374
G1 X130.013 Y102.106 E0.02374
G1 X130.348 Y102.785 E0.02374
G1 X130.591 Y103.502 E0.02374
G1 X130.739 Y104.244 E0.02374
G1 X130.788 Y105.000 E0.02374
G1 X130.739 Y105.756 E0.02374
G1 X130.591 Y106.498 E0.02374
G1 X130.348 Y107.215 E0.02374
G1 X130.013 Y107.894 E0.02374
G1 X129.592 Y108.524 E0.02374
G1 X129.093 Y109.093 E0.02374
G1 X127.558 Y110.439 E0.06402
G1 X127.890 Y109.647 F7200.000
G1 F840
G1 X127.890 Y109.562 E0.00264
G1 X127.705 Y109.686 E0.00696
G1 X127.071 Y109.999 E0.02219
G1 X126.400 Y110.226 E0.02219
G1 X125.706 Y110.364 E0.02219
G1 X125.000 Y110.410 E0.02219
G1 X124.294 Y110.364 E0.02219
G1 X123.622 Y110.231 E0.02147
G1 X122.930 Y109.999 E0.02289
G1 X122.295 Y109.686 E0.02220
G1 X121.706 Y109.292 E0.02219
G1 X121.174 Y108.826 E0.02219
G1 X120.708 Y108.294 E0.02219
G1 X120.314 Y107.705 E0.02219
G1 X120.001 Y107.070 E0.02219
G1 X119.774 Y106.400 E0.02219
G1 X119.636 Y105.706 E0.02219
G1 X119.590 Y105.000 E0.02219
G1 X119.636 Y104.294 E0.02219
G1 X119.769 Y103.622 E0.02146
G1 X120.001 Y102.930 E0.02290
G1 X120.314 Y102.295 E0.02221
G1 X120.708 Y101.706 E0.02219
G1 X121.174 Y101.174 E0.02219
G1 X121.706 Y100.708 E0.02219
G1 X122.295 Y100.314 E0.02219
G1 X122.929 Y100.001 E0.02219
G1 X123.600 Y99.774 E0.02219
G1 X124.294 Y99.636 E0.02219
G1 X124.977 Y99.591 E0.02146
G1 X125.706 Y99.636 E0.02289
G1 X126.400 Y99.774 E0.02221
G1 X127.071 Y100.001 E0.02219
G1 X127.705 Y100.314 E0.02219
G1 X128.294 Y100.708 E0.02219
G1 X128.826 Y101.174 E0.02219
G1 X129.292 Y101.706 E0.02219
G1 X129.686 Y102.295 E0.02219
G1 X129.999 Y102.930 E0.02219
G1 X130.226 Y103.600 E0.02219
G1 X130.364 Y104.294 E0.02219
G1 X130.410 Y105.000 E0.02219
G1 X130.364 Y105.706 E0.02219
G1 X130.226 Y106.400 E0.02219
G1 X129.999 Y107.070 E0.02219
G1 X129.686 Y107.705 E0.02219
G1 X129.292 Y108.294 E0.02219
G1 X128.826 Y108.826 E0.02219
G1 X127.935 Y109.607 E0.03715
G1 X127.808 Y109.668 F7200.000
G1 F5760
G1 X127.890 Y109.562 E-0.02202
G1 F5760
G1 X127.705 Y109.686 E-0.07691
G1 F5760
G1 X127.071 Y109.999 E-0.24510
G1 F5760
G1 X126.400 Y110.226 E-0.24512
G1 F5760
G1 X125.917 Y110.322 E-0.17086
G1 E-0.04000 F2100.00000
G1 X130.269 Y113.403 F7200.000
G1 E0.80000 F2100.00000
G1 F1680
G1 X129.660 Y113.209 E0.02002
G1 X129.205 Y113.308 E0.01463
G1 X127.901 Y113.848 E0.04424
G1 X127.509 Y114.100 E0.01462
G1 X127.216 Y114.667 E0.02002
G1 X127.240 Y115.170 E0.01578
G1 X127.506 Y116.025 E0.02807
G1 X127.519 Y116.131 E0.00334
G1 X127.519 Y116.435 E0.00954
G1 X127.462 Y116.904 E0.01479
G1 X127.410 Y117.114 E0.00680
G1 X127.281 Y116.939 E0.00680
G1 X127.049 Y116.529 E0.01479
G1 X126.933 Y116.247 E0.00955
G1 X126.904 Y116.145 E0.00334
G1 X126.822 Y115.253 E0.02807
G1 X126.652 Y114.779 E0.01578
G1 X126.164 Y114.367 E0.02003
G1 X125.705 Y114.284 E0.01462
G1 X124.295 Y114.284 E0.04423
G1 X123.836 Y114.367 E0.01462
G1 X123.348 Y114.779 E0.02003
G1 X123.178 Y115.253 E0.01578
G1 X123.096 Y116.145 E0.02807
G1 X123.067 Y116.247 E0.00334
G1 X122.951 Y116.529 E0.00955
G1 X122.719 Y116.939 E0.01479
G1 X122.590 Y117.114 E0.00680
G1 X122.538 Y116.903 E0.00680
G1 X122.481 Y116.435 E0.01479
G1 X122.481 Y116.131 E0.00955
G1 X122.494 Y116.025 E0.00335
G1 X122.760 Y115.170 E0.02807
G1 X122.784 Y114.667 E0.01578
G1 X122.491 Y114.100 E0.02002
G1 X122.099 Y113.848 E0.01462
G1 X120.795 Y113.308 E0.04424
G1 X120.340 Y113.209 E0.01463
G1 X119.731 Y113.403 E0.02002
G1 X119.393 Y113.775 E0.01578
G1 X118.976 Y114.568 E0.02807
G1 X118.910 Y114.652 E0.00334
G1 X118.695 Y114.867 E0.00955
G1 X118.324 Y115.158 E0.01479
G1 X118.138 Y115.270 E0.00680
G1 X118.170 Y115.055 E0.00680
G1 X118.297 Y114.601 E0.01479
G1 X118.413 Y114.320 E0.00955
G1 X118.466 Y114.227 E0.00334
G1 X119.038 Y113.539 E0.02807
G1 X119.253 Y113.083 E0.01578
G1 X119.200 Y112.447 E0.02002
G1 X118.934 Y112.064 E0.01463
G1 X117.936 Y111.066 E0.04423
G1 X117.553 Y110.800 E0.01462
G1 X116.917 Y110.747 E0.02003
G1 X116.461 Y110.962 E0.01579
G1 X115.773 Y111.534 E0.02806
G1 X115.680 Y111.586 E0.00334
G1 X115.399 Y111.703 E0.00955
G1 X114.945 Y111.830 E0.01479
G1 X114.730 Y111.862 E0.00680
G1 X114.842 Y111.676 E0.00680
G1 X115.133 Y111.305 E0.01479
G1 X115.348 Y111.090 E0.00955
G1 X115.432 Y111.024 E0.00334
G1 X116.225 Y110.607 E0.02807
G1 X116.597 Y110.269 E0.01578
G1 X116.791 Y109.661 E0.02002
G1 X116.692 Y109.205 E0.01463
G1 X116.152 Y107.901 E0.04424
G1 X115.900 Y107.509 E0.01462
G1 X115.333 Y107.216 E0.02002
G1 X114.830 Y107.240 E0.01579
G1 X113.975 Y107.506 E0.02807
G1 X113.869 Y107.519 E0.00334
G1 X113.565 Y107.519 E0.00954
G1 X113.097 Y107.462 E0.01479
G1 X112.886 Y107.410 E0.00680
G1 X113.061 Y107.281 E0.00680
G1 X113.471 Y107.049 E0.01479
G1 X113.753 Y106.933 E0.00955
G1 X113.855 Y106.904 E0.00334
G1 X114.747 Y106.822 E0.02808
G1 X115.220 Y106.652 E0.01578
G1 X115.633 Y106.165 E0.02001
G1 X115.716 Y105.705 E0.01464
G1 X115.716 Y104.295 E0.04423
G1 X115.633 Y103.836 E0.01463
G1 X115.220 Y103.348 E0.02003
G1 X114.747 Y103.178 E0.01578
G1 X113.855 Y103.096 E0.02806
G1 X113.753 Y103.067 E0.00335
G1 X113.471 Y102.951 E0.00954
G1 X113.061 Y102.719 E0.01479
G1 X112.886 Y102.590 E0.00680
G1 X113.097 Y102.538 E0.00680
G1 X113.565 Y102.481 E0.01479
G1 X113.869 Y102.481 E0.00955
G1 X113.975 Y102.494 E0.00334
G1 X114.830 Y102.760 E0.02807
G1 X115.332 Y102.784 E0.01577
G1 X115.900 Y102.491 E0.02002
G1 X116.152 Y102.099 E0.01464
G1 X116.692 Y100.795 E0.04423
G1 X116.791 Y100.339 E0.01463
G1 X116.597 Y99.731 E0.02002
G1 X116.225 Y99.393 E0.01578
G1 X115.432 Y98.976 E0.02807
G1 X115.348 Y98.910 E0.00334
G1 X115.133 Y98.695 E0.00955
G1 X114.842 Y98.324 E0.01479
G1 X114.730 Y98.138 E0.00680
G1 X114.945 Y98.170 E0.00680
G1 X115.399 Y98.297 E0.01479
G1 X115.680 Y98.413 E0.00955
G1 X115.773 Y98.466 E0.00334
G1 X116.461 Y99.038 E0.02807
G1 X116.917 Y99.253 E0.01578
G1 X117.553 Y99.200 E0.02002
G1 X117.936 Y98.934 E0.01463
G1 X118.934 Y97.936 E0.04423
G1 X119.200 Y97.553 E0.01463
G1 X119.253 Y96.917 E0.02002
G1 X119.038 Y96.461 E0.01578
G1 X118.466 Y95.773 E0.02807
G1 X118.413 Y95.680 E0.00334
G1 X118.297 Y95.399 E0.00955
G1 X118.170 Y94.945 E0.01479
G1 X118.138 Y94.730 E0.00680
G1 X118.324 Y94.842 E0.00680
G1 X118.695 Y95.133 E0.01479
G1 X118.910 Y95.348 E0.00955
G1 X118.976 Y95.432 E0.00334
G1 X119.393 Y96.225 E0.02807
G1 X119.731 Y96.597 E0.01578
G1 X120.340 Y96.791 E0.02002
G1 X120.795 Y96.692 E0.01463
G1 X122.099 Y96.152 E0.04424
G1 X122.491 Y95.900 E0.01462
G1 X122.784 Y95.333 E0.02002
G1 X122.760 Y94.830 E0.01578
G1 X122.494 Y93.975 E0.02807
G1 X122.481 Y93.869 E0.00334
G1 X122.481 Y93.565 E0.00955
G1 X122.538 Y93.096 E0.01479
G1 X122.590 Y92.886 E0.00680
G1 X122.719 Y93.061 E0.00680
G1 X122.951 Y93.471 E0.01479
G1 X123.067 Y93.753 E0.00955
G1 X123.096 Y93.855 E0.00334
G1 X123.178 Y94.747 E0.02806
G1 X123.348 Y95.220 E0.01578
G1 X123.836 Y95.633 E0.02003
G1 X124.295 Y95.716 E0.01462
G1 X125.705 Y95.716 E0.04424
G1 X126.164 Y95.633 E0.01462
G1 X126.652 Y95.220 E0.02003
G1 X126.822 Y94.747 E0.01578
G1 X126.904 Y93.855 E0.02806
G1 X126.933 Y93.753 E0.00334
G1 X127.049 Y93.471 E0.00955
G1 X127.281 Y93.061 E0.01479
G1 X127.410 Y92.886 E0.00680
G1 X127.462 Y93.096 E0.00680
G1 X127.519 Y93.565 E0.01479
G1 X127.519 Y93.869 E0.00954
G1 X127.506 Y93.975 E0.00334
G1 X127.240 Y94.830 E0.02807
G1 X127.216 Y95.333 E0.01578
G1 X127.509 Y95.900 E0.02002
G1 X127.901 Y96.152 E0.01462
G1 X129.205 Y96.692 E0.04424
G1 X129.661 Y96.791 E0.01463
G1 X130.269 Y96.597 E0.02002
G1 X130.607 Y96.225 E0.01578
G1 X131.024 Y95.432 E0.02807
G1 X131.090 Y95.348 E0.00334
G1 X131.305 Y95.133 E0.00955
G1 X131.676 Y94.842 E0.01479
G1 X131.862 Y94.730 E0.00680
G1 X131.830 Y94.945 E0.00680
G1 X131.703 Y95.399 E0.01479
G1 X131.587 Y95.680 E0.00955
G1 X131.534 Y95.773 E0.00334
G1 X130.962 Y96.461 E0.02806
G1 X130.747 Y96.916 E0.01578
G1 X130.800 Y97.553 E0.02004
G1 X131.066 Y97.936 E0.01463
G1 X132.064 Y98.934 E0.04423
G1 X132.447 Y99.200 E0.01463
G1 X133.084 Y99.253 E0.02002
G1 X133.539 Y99.038 E0.01578
G1 X134.227 Y98.466 E0.02807
G1 X134.320 Y98.413 E0.00334
G1 X134.601 Y98.297 E0.00954
G1 X135.055 Y98.170 E0.01479
G1 X135.270 Y98.138 E0.00680
G1 X135.158 Y98.324 E0.00680
G1 X134.867 Y98.695 E0.01479
G1 X134.652 Y98.910 E0.00955
G1 X134.568 Y98.976 E0.00335
G1 X133.775 Y99.393 E0.02807
G1 X133.403 Y99.731 E0.01578
G1 X133.209 Y100.340 E0.02002
G1 X133.308 Y100.795 E0.01463
G1 X133.848 Y102.099 E0.04423
G1 X134.100 Y102.491 E0.01464
G1 X134.668 Y102.784 E0.02003
G1 X135.170 Y102.760 E0.01577
G1 X136.025 Y102.494 E0.02807
G1 X136.131 Y102.481 E0.00334
G1 X136.435 Y102.481 E0.00955
G1 X136.904 Y102.538 E0.01479
G1 X137.114 Y102.590 E0.00680
G1 X136.939 Y102.719 E0.00680
G1 X136.529 Y102.951 E0.01479
G1 X136.248 Y103.067 E0.00954
G1 X136.145 Y103.096 E0.00335
G1 X135.253 Y103.178 E0.02807
G1 X134.780 Y103.348 E0.01578
