; generated by Slic3r 1.31.6-prusa3d-win64 on 2017-02-07 at 15:26:14

; external perimeters extrusion width = 0.45mm
; perimeters extrusion width = 0.45mm
; infill extrusion width = 0.45mm
; solid infill extrusion width = 0.45mm
; top infill extrusion width = 0.45mm

M107
M115 U3.0.9 ; tell printer latest fw version
M83  ; extruder relative mode
M104 S215 ; set extruder temp
M140 S55 ; set bed temp
M190 S55 ; wait for bed temp
M109 S215 ; wait for extruder temp
G28 W ; home all without mesh bed level
G80 ; mesh bed leveling
G1 Y-3.0 F1000.0 ; go outside pritn area
G1 X60.0 E9.0  F1000.0 ; intro line
G1 X100.0 E12.5  F1000.0 ; intro line
G21 ; set units to millimeters
G90 ; use absolute coordinates
M83 ; use relative distances for extrusion
G1 E-0.80000 F2100.00000
G1 Z0.200 F7200.000
G1 X96.249 Y81.118 F7200.000
G1 E0.80000 F2100.00000
M204 S1000
G1 F2100
G1 X97.703 Y79.469 E0.06894
G1 X99.360 Y77.805 E0.07362
G1 X101.233 Y76.154 E0.07830
G1 X102.971 Y74.806 E0.06894
G1 X104.910 Y73.482 E0.07362
G1 X107.066 Y72.208 E0.07853
G1 X109.153 Y71.150 E0.07338
G1 X111.310 Y70.221 E0.07363
G1 X113.521 Y69.430 E0.07361
G1 X115.633 Y68.817 E0.06895
G1 X118.070 Y68.272 E0.07829
G1 X120.390 Y67.909 E0.07362
G1 X122.579 Y67.703 E0.06894
G1 X125.082 Y67.624 E0.07852
G1 X127.421 Y67.703 E0.07340
G1 X129.758 Y67.928 E0.07362
G1 X132.077 Y68.300 E0.07362
G1 X134.223 Y68.780 E0.06895
G1 X136.621 Y69.476 E0.07829
G1 X138.828 Y70.276 E0.07362
G1 X140.846 Y71.150 E0.06895
G1 X143.071 Y72.283 E0.07829
G1 X145.090 Y73.482 E0.07362
G1 X146.909 Y74.718 E0.06895
G1 X148.882 Y76.249 E0.07830
G1 X150.531 Y77.703 E0.06894
G1 X152.195 Y79.360 E0.07362
G1 X153.846 Y81.233 E0.07830
G1 X155.194 Y82.971 E0.06894
G1 X156.518 Y84.910 E0.07362
G1 X157.789 Y87.059 E0.07830
G1 X158.787 Y89.019 E0.06894
G1 X159.724 Y91.171 E0.07362
G1 X160.570 Y93.521 E0.07830
G1 X161.220 Y95.777 E0.07362
G1 X161.728 Y98.070 E0.07362
G1 X162.072 Y100.243 E0.06897
G1 X162.297 Y102.579 E0.07360
G1 X162.376 Y105.075 E0.07829
G1 X162.307 Y107.273 E0.06895
G1 X162.091 Y109.610 E0.07361
G1 X161.700 Y112.077 E0.07830
G1 X161.220 Y114.223 E0.06895
G1 X160.569 Y116.480 E0.07364
G1 X159.724 Y118.829 E0.07827
G1 X158.787 Y120.981 E0.07362
G1 X157.717 Y123.071 E0.07362
G1 X156.597 Y124.964 E0.06895
G1 X155.282 Y126.909 E0.07361
G1 X153.751 Y128.882 E0.07830
G1 X152.297 Y130.532 E0.06896
G1 X150.640 Y132.195 E0.07360
G1 X148.767 Y133.846 E0.07830
G1 X147.029 Y135.194 E0.06894
G1 X145.090 Y136.518 E0.07362
G1 X142.941 Y137.789 E0.07830
G1 X140.847 Y138.850 E0.07361
G1 X138.829 Y139.724 E0.06895
G1 X136.472 Y140.572 E0.07853
G1 X134.223 Y141.220 E0.07338
G1 X131.930 Y141.728 E0.07364
G1 X129.758 Y142.072 E0.06894
G1 X127.421 Y142.297 E0.07362
G1 X124.925 Y142.376 E0.07830
G1 X122.579 Y142.297 E0.07361
G1 X120.243 Y142.072 E0.07360
G1 X118.070 Y141.728 E0.06897
G1 X115.777 Y141.220 E0.07362
G1 X113.380 Y140.524 E0.07827
G1 X111.310 Y139.779 E0.06897
G1 X109.154 Y138.850 E0.07362
G1 X106.929 Y137.717 E0.07830
G1 X105.036 Y136.598 E0.06894
G1 X103.091 Y135.282 E0.07362
G1 X101.118 Y133.751 E0.07830
G1 X99.469 Y132.297 E0.06894
G1 X97.805 Y130.640 E0.07363
G1 X96.154 Y128.767 E0.07829
G1 X94.806 Y127.029 E0.06894
G1 X93.482 Y125.090 E0.07362
G1 X92.211 Y122.941 E0.07829
G1 X91.213 Y120.981 E0.06896
G1 X90.276 Y118.828 E0.07361
G1 X89.430 Y116.479 E0.07829
G1 X88.817 Y114.367 E0.06894
G1 X88.300 Y112.077 E0.07361
G1 X87.928 Y109.758 E0.07362
G1 X87.703 Y107.421 E0.07362
G1 X87.624 Y104.925 E0.07830
G1 X87.693 Y102.727 E0.06895
G1 X87.909 Y100.390 E0.07361
G1 X88.300 Y97.923 E0.07830
G1 X88.780 Y95.777 E0.06895
G1 X89.430 Y93.521 E0.07362
G1 X90.276 Y91.171 E0.07829
G1 X91.150 Y89.153 E0.06895
G1 X92.211 Y87.059 E0.07362
G1 X93.482 Y84.910 E0.07829
G1 X94.806 Y82.971 E0.07362
G1 X96.211 Y81.164 E0.07174
G1 F5760
G1 X97.660 Y79.517 E-0.76000
G1 E-0.04000 F2100.00000
G1 X98.775 Y83.305 F7200.000
G1 E0.80000 F2100.00000
G1 F1680
G1 X100.189 Y81.701 E0.06704
G1 X101.701 Y80.189 E0.06704
G1 X103.305 Y78.775 E0.06704
G1 X104.994 Y77.465 E0.06704
G1 X106.763 Y76.263 E0.06704
G1 X108.610 Y75.171 E0.06727
G1 X110.508 Y74.204 E0.06681
G1 X112.471 Y73.355 E0.06704
G1 X114.489 Y72.628 E0.06727
G1 X116.536 Y72.034 E0.06681
G1 X118.622 Y71.567 E0.06704
G1 X120.734 Y71.233 E0.06704
G1 X122.863 Y71.032 E0.06704
G1 X125.007 Y70.965 E0.06727
G1 X127.137 Y71.032 E0.06681
G1 X129.266 Y71.233 E0.06704
G1 X131.378 Y71.567 E0.06704
G1 X133.464 Y72.034 E0.06704
G1 X135.518 Y72.630 E0.06704
G1 X137.529 Y73.355 E0.06704
G1 X139.492 Y74.204 E0.06704
G1 X141.397 Y75.175 E0.06704
G1 X143.237 Y76.263 E0.06704
G1 X145.006 Y77.465 E0.06704
G1 X146.695 Y78.775 E0.06704
G1 X148.299 Y80.189 E0.06704
G1 X149.811 Y81.701 E0.06704
G1 X151.225 Y83.305 E0.06704
G1 X152.535 Y84.994 E0.06704
G1 X153.737 Y86.763 E0.06704
G1 X154.825 Y88.603 E0.06704
G1 X155.796 Y90.508 E0.06704
G1 X156.645 Y92.471 E0.06704
G1 X157.370 Y94.482 E0.06704
G1 X157.966 Y96.536 E0.06704
G1 X158.433 Y98.622 E0.06704
G1 X158.767 Y100.734 E0.06704
G1 X158.968 Y102.863 E0.06704
G1 X159.035 Y105.000 E0.06704
G1 X158.968 Y107.137 E0.06704
G1 X158.767 Y109.266 E0.06704
G1 X158.433 Y111.378 E0.06704
G1 X157.966 Y113.464 E0.06704
G1 X157.372 Y115.511 E0.06681
G1 X156.645 Y117.529 E0.06727
G1 X155.796 Y119.492 E0.06704
G1 X154.829 Y121.390 E0.06681
G1 X153.737 Y123.237 E0.06727
G1 X152.535 Y125.006 E0.06704
G1 X151.225 Y126.695 E0.06704
G1 X149.811 Y128.299 E0.06704
G1 X148.299 Y129.811 E0.06704
G1 X146.695 Y131.225 E0.06704
G1 X145.006 Y132.535 E0.06704
G1 X143.237 Y133.737 E0.06704
G1 X141.397 Y134.825 E0.06704
G1 X139.492 Y135.796 E0.06704
G1 X137.529 Y136.645 E0.06704
G1 X135.511 Y137.372 E0.06727
G1 X133.464 Y137.966 E0.06681
G1 X131.378 Y138.433 E0.06704
G1 X129.266 Y138.767 E0.06704
G1 X127.137 Y138.968 E0.06704
G1 X125.000 Y139.035 E0.06704
G1 X122.863 Y138.968 E0.06704
G1 X120.734 Y138.767 E0.06704
G1 X118.622 Y138.433 E0.06704
G1 X116.536 Y137.966 E0.06704
G1 X114.482 Y137.370 E0.06704
G1 X112.471 Y136.645 E0.06704
G1 X110.508 Y135.796 E0.06704
G1 X108.603 Y134.825 E0.06704
G1 X106.763 Y133.737 E0.06704
G1 X104.994 Y132.535 E0.06704
G1 X103.305 Y131.225 E0.06704
G1 X101.701 Y129.811 E0.06704
G1 X100.194 Y128.304 E0.06682
G1 X98.775 Y126.695 E0.06727
G1 X97.465 Y125.006 E0.06703
G1 X96.263 Y123.237 E0.06704
G1 X95.175 Y121.397 E0.06704
G1 X94.204 Y119.492 E0.06704
G1 X93.355 Y117.529 E0.06704
G1 X92.630 Y115.518 E0.06704
G1 X92.034 Y113.464 E0.06704
G1 X91.567 Y111.378 E0.06704
G1 X91.233 Y109.266 E0.06704
G1 X91.032 Y107.137 E0.06704
G1 X90.965 Y105.000 E0.06704
G1 X91.032 Y102.863 E0.06704
G1 X91.232 Y100.741 E0.06681
G1 X91.567 Y98.622 E0.06727
G1 X92.034 Y96.536 E0.06704
G1 X92.628 Y94.489 E0.06681
G1 X93.355 Y92.471 E0.06727
G1 X94.204 Y90.508 E0.06704
G1 X95.175 Y88.603 E0.06704
G1 X96.263 Y86.763 E0.06704
G1 X97.465 Y84.994 E0.06704
G1 X98.738 Y83.352 E0.06516
G1 X98.485 Y83.065 F7200.000
G1 F1680
G1 X99.914 Y81.443 E0.06778
G1 X101.443 Y79.914 E0.06779
G1 X103.065 Y78.485 E0.06778
G1 X104.773 Y77.160 E0.06778
G1 X106.561 Y75.944 E0.06778
G1 X108.428 Y74.841 E0.06801
G1 X110.348 Y73.863 E0.06756
G1 X112.332 Y73.004 E0.06778
G1 X114.373 Y72.270 E0.06801
G1 X116.442 Y71.669 E0.06756
G1 X118.552 Y71.197 E0.06778
G1 X120.687 Y70.859 E0.06778
G1 X122.839 Y70.655 E0.06778
G1 X125.007 Y70.588 E0.06801
G1 X127.161 Y70.655 E0.06756
G1 X129.313 Y70.859 E0.06778
G1 X131.448 Y71.197 E0.06778
G1 X133.558 Y71.669 E0.06778
G1 X135.634 Y72.272 E0.06778
G1 X137.668 Y73.004 E0.06778
G1 X139.652 Y73.863 E0.06778
G1 X141.578 Y74.844 E0.06778
G1 X143.439 Y75.944 E0.06778
G1 X145.227 Y77.160 E0.06779
G1 X146.935 Y78.485 E0.06778
G1 X148.557 Y79.914 E0.06778
G1 X150.086 Y81.443 E0.06779
G1 X151.515 Y83.065 E0.06778
G1 X152.840 Y84.773 E0.06778
G1 X154.056 Y86.561 E0.06779
G1 X155.156 Y88.422 E0.06778
G1 X156.137 Y90.348 E0.06778
G1 X156.996 Y92.332 E0.06778
G1 X157.728 Y94.366 E0.06778
G1 X158.331 Y96.442 E0.06778
G1 X158.803 Y98.552 E0.06778
G1 X159.141 Y100.687 E0.06778
G1 X159.345 Y102.839 E0.06778
G1 X159.413 Y105.000 E0.06778
G1 X159.345 Y107.161 E0.06778
G1 X159.141 Y109.313 E0.06778
G1 X158.803 Y111.448 E0.06778
G1 X158.331 Y113.558 E0.06778
G1 X157.730 Y115.627 E0.06756
G1 X156.996 Y117.668 E0.06801
G1 X156.137 Y119.652 E0.06778
G1 X155.159 Y121.572 E0.06756
G1 X154.056 Y123.439 E0.06801
G1 X152.840 Y125.227 E0.06778
G1 X151.515 Y126.935 E0.06778
G1 X150.086 Y128.557 E0.06778
G1 X148.557 Y130.086 E0.06779
G1 X146.935 Y131.515 E0.06778
G1 X145.227 Y132.840 E0.06778
G1 X143.439 Y134.056 E0.06779
G1 X141.578 Y135.156 E0.06778
G1 X139.652 Y136.137 E0.06778
G1 X137.668 Y136.996 E0.06778
G1 X135.627 Y137.730 E0.06801
G1 X133.558 Y138.331 E0.06756
G1 X131.448 Y138.803 E0.06778
G1 X129.313 Y139.141 E0.06778
G1 X127.161 Y139.345 E0.06778
G1 X125.000 Y139.413 E0.06778
G1 X122.839 Y139.345 E0.06778
G1 X120.687 Y139.141 E0.06778
G1 X118.552 Y138.803 E0.06778
G1 X116.442 Y138.331 E0.06778
G1 X114.366 Y137.728 E0.06778
G1 X112.332 Y136.996 E0.06778
G1 X110.348 Y136.137 E0.06778
G1 X108.422 Y135.156 E0.06778
G1 X106.561 Y134.056 E0.06778
G1 X104.773 Y132.840 E0.06779
G1 X103.065 Y131.515 E0.06778
G1 X101.443 Y130.086 E0.06778
G1 X99.919 Y128.562 E0.06756
G1 X98.485 Y126.935 E0.06801
G1 X97.160 Y125.227 E0.06778
G1 X95.944 Y123.439 E0.06779
G1 X94.844 Y121.578 E0.06778
G1 X93.863 Y119.652 E0.06778
G1 X93.004 Y117.668 E0.06778
G1 X92.272 Y115.634 E0.06778
G1 X91.669 Y113.558 E0.06778
G1 X91.197 Y111.448 E0.06778
G1 X90.859 Y109.313 E0.06778
G1 X90.655 Y107.161 E0.06778
G1 X90.587 Y105.000 E0.06778
G1 X90.655 Y102.839 E0.06778
G1 X90.858 Y100.694 E0.06756
G1 X91.197 Y98.552 E0.06801
G1 X91.669 Y96.442 E0.06778
G1 X92.270 Y94.373 E0.06756
G1 X93.004 Y92.332 E0.06801
G1 X93.863 Y90.348 E0.06778
G1 X94.844 Y88.422 E0.06778
G1 X95.944 Y86.561 E0.06778
G1 X97.160 Y84.773 E0.06778
G1 X98.448 Y83.112 E0.06590
G1 X98.194 Y82.824 F7200.000
G1 F1050
G1 X99.639 Y81.185 E0.06853
G1 X101.185 Y79.639 E0.06853
G1 X102.824 Y78.194 E0.06853
G1 X104.551 Y76.854 E0.06852
G1 X106.359 Y75.626 E0.06853
G1 X108.246 Y74.510 E0.06875
G1 X110.187 Y73.521 E0.06830
G1 X112.193 Y72.653 E0.06853
G1 X114.256 Y71.911 E0.06876
G1 X116.348 Y71.303 E0.06830
G1 X118.481 Y70.826 E0.06853
G1 X120.640 Y70.484 E0.06853
G1 X122.816 Y70.279 E0.06853
G1 X125.007 Y70.210 E0.06876
G1 X127.184 Y70.279 E0.06830
G1 X129.360 Y70.484 E0.06853
G1 X131.519 Y70.826 E0.06853
G1 X133.652 Y71.303 E0.06853
G1 X135.751 Y71.913 E0.06853
G1 X137.807 Y72.653 E0.06853
G1 X139.813 Y73.521 E0.06853
G1 X141.760 Y74.513 E0.06853
G1 X143.641 Y75.626 E0.06852
G1 X145.449 Y76.854 E0.06853
G1 X147.176 Y78.194 E0.06852
G1 X148.815 Y79.639 E0.06853
G1 X150.361 Y81.185 E0.06853
G1 X151.806 Y82.824 E0.06853
G1 X153.146 Y84.551 E0.06852
G1 X154.374 Y86.359 E0.06853
G1 X155.487 Y88.240 E0.06852
G1 X156.479 Y90.187 E0.06853
G1 X157.347 Y92.193 E0.06853
G1 X158.087 Y94.249 E0.06853
G1 X158.697 Y96.348 E0.06853
G1 X159.174 Y98.481 E0.06853
G1 X159.516 Y100.640 E0.06853
G1 X159.721 Y102.816 E0.06853
G1 X159.790 Y105.000 E0.06853
G1 X159.721 Y107.184 E0.06853
G1 X159.516 Y109.360 E0.06853
G1 X159.174 Y111.519 E0.06853
G1 X158.697 Y113.652 E0.06853
G1 X158.089 Y115.744 E0.06830
G1 X157.347 Y117.807 E0.06876
G1 X156.479 Y119.813 E0.06853
G1 X155.490 Y121.754 E0.06830
G1 X154.374 Y123.641 E0.06875
G1 X153.146 Y125.449 E0.06853
G1 X151.806 Y127.176 E0.06852
G1 X150.361 Y128.815 E0.06853
G1 X148.815 Y130.361 E0.06853
G1 X147.176 Y131.806 E0.06853
G1 X145.449 Y133.146 E0.06852
G1 X143.641 Y134.374 E0.06853
G1 X141.760 Y135.487 E0.06852
G1 X139.813 Y136.479 E0.06853
G1 X137.807 Y137.347 E0.06853
G1 X135.744 Y138.089 E0.06876
G1 X133.652 Y138.697 E0.06830
G1 X131.519 Y139.174 E0.06853
G1 X129.360 Y139.516 E0.06853
G1 X127.184 Y139.721 E0.06853
G1 X125.000 Y139.790 E0.06853
G1 X122.816 Y139.721 E0.06853
G1 X120.640 Y139.516 E0.06853
G1 X118.481 Y139.174 E0.06853
G1 X116.348 Y138.697 E0.06853
G1 X114.249 Y138.087 E0.06853
G1 X112.193 Y137.347 E0.06853
G1 X110.187 Y136.479 E0.06853
G1 X108.240 Y135.487 E0.06853
G1 X106.359 Y134.374 E0.06852
G1 X104.551 Y133.146 E0.06853
G1 X102.824 Y131.806 E0.06852
G1 X101.185 Y130.361 E0.06853
G1 X99.644 Y128.820 E0.06830
G1 X98.194 Y127.176 E0.06876
G1 X96.854 Y125.449 E0.06852
G1 X95.626 Y123.641 E0.06853
G1 X94.513 Y121.760 E0.06852
G1 X93.521 Y119.813 E0.06853
G1 X92.653 Y117.807 E0.06853
G1 X91.913 Y115.751 E0.06853
G1 X91.303 Y113.652 E0.06853
G1 X90.826 Y111.519 E0.06853
G1 X90.484 Y109.360 E0.06853
G1 X90.279 Y107.184 E0.06853
G1 X90.210 Y105.000 E0.06853
G1 X90.279 Y102.816 E0.06853
G1 X90.484 Y100.647 E0.06830
G1 X90.826 Y98.481 E0.06876
G1 X91.303 Y96.348 E0.06853
G1 X91.911 Y94.256 E0.06830
G1 X92.653 Y92.193 E0.06876
G1 X93.521 Y90.187 E0.06853
G1 X94.513 Y88.240 E0.06853
G1 X95.626 Y86.359 E0.06852
G1 X96.854 Y84.551 E0.06853
G1 X98.157 Y82.872 E0.06664
G1 X98.588 Y82.891 F7200.000
G1 F5760
G1 X99.605 Y81.223 E-0.76000
G1 E-0.04000 F2100.00000
G1 X94.223 Y119.251 F7200.000
G1 E0.80000 F2100.00000
G1 F1680
G1 X110.391 Y135.419 E0.72064
G1 X110.629 Y135.540 E0.00842
G1 X111.368 Y135.860 E0.02539
G1 X94.140 Y118.632 E0.76790
G1 X93.731 Y117.687 E0.03245
G1 X112.313 Y136.269 E0.82825
G1 X113.181 Y136.600 E0.02926
G1 X93.400 Y116.819 E0.88168
G1 X93.098 Y115.982 E0.02806
G1 X114.018 Y136.902 E0.93245
G1 X114.828 Y137.175 E0.02693
G1 X92.825 Y115.172 E0.98073
G1 X92.605 Y114.417 E0.02480
G1 X115.583 Y137.395 E1.02419
G1 X116.339 Y137.614 E0.02480
G1 X92.386 Y113.661 E1.06765
G1 X92.208 Y112.948 E0.02317
G1 X117.052 Y137.792 E1.10736
G1 X117.743 Y137.946 E0.02230
G1 X92.054 Y112.257 E1.14501
G1 X91.900 Y111.567 E0.02230
G1 X118.433 Y138.100 E1.18266
G1 X119.089 Y138.220 E0.02101
G1 X91.780 Y110.911 E1.21722
G1 X91.679 Y110.274 E0.02032
G1 X119.726 Y138.321 E1.25010
G1 X120.362 Y138.422 E0.02032
G1 X91.578 Y109.638 E1.28298
G1 X91.494 Y109.017 E0.01974
G1 X120.983 Y138.506 E1.31442
G1 X121.575 Y138.562 E0.01874
G1 X91.438 Y108.425 E1.34331
G1 X91.382 Y107.833 E0.01874
G1 X122.167 Y138.618 E1.37219
G1 X122.759 Y138.674 E0.01874
G1 X91.326 Y107.241 E1.40107
G1 X91.300 Y106.679 E0.01771
G1 X123.321 Y138.700 E1.42722
G1 X123.874 Y138.717 E0.01745
G1 X91.283 Y106.126 E1.45266
G1 X91.266 Y105.573 E0.01745
G1 X124.427 Y138.734 E1.47811
G1 X124.981 Y138.752 E0.01745
G1 X91.248 Y105.019 E1.50355
G1 X91.263 Y104.498 E0.01642
G1 X125.502 Y138.737 E1.52609
G1 X126.021 Y138.720 E0.01639
G1 X91.280 Y103.979 E1.54853
G1 X91.296 Y103.459 E0.01639
G1 X126.541 Y138.704 E1.57096
G1 X127.061 Y138.688 E0.01639
G1 X91.312 Y102.939 E1.59340
G1 X91.355 Y102.446 E0.01560
G1 X127.554 Y138.645 E1.61347
G1 X128.044 Y138.598 E0.01550
G1 X91.402 Y101.956 E1.63323
G1 X91.448 Y101.466 E0.01550
G1 X128.534 Y138.552 E1.65300
G1 X129.023 Y138.506 E0.01550
G1 X91.494 Y100.977 E1.67276
G1 X91.556 Y100.503 E0.01506
G1 X129.497 Y138.444 E1.69113
G1 X129.960 Y138.371 E0.01477
G1 X91.630 Y100.040 E1.70849
G1 X91.703 Y99.577 E0.01477
G1 X130.423 Y138.297 E1.72585
G1 X130.886 Y138.224 E0.01477
G1 X91.776 Y99.114 E1.74322
G1 X91.850 Y98.653 E0.01474
G1 X131.347 Y138.150 E1.76047
G1 X131.785 Y138.052 E0.01415
G1 X91.948 Y98.215 E1.77563
G1 X92.046 Y97.777 E0.01415
G1 X132.223 Y137.954 E1.79079
G1 X132.662 Y137.856 E0.01415
G1 X92.144 Y97.338 E1.80595
G1 X92.242 Y96.900 E0.01415
G1 X133.100 Y137.758 E1.82112
G1 X133.530 Y137.652 E0.01397
G1 X92.348 Y96.470 E1.83561
G1 X92.468 Y96.054 E0.01363
G1 X133.946 Y137.532 E1.84875
G1 X134.361 Y137.411 E0.01363
G1 X92.589 Y95.639 E1.86188
G1 X92.710 Y95.224 E0.01363
G1 X134.776 Y137.290 E1.87502
G1 X135.192 Y137.170 E0.01363
G1 X92.830 Y94.808 E1.88816
G1 X92.960 Y94.402 E0.01344
G1 X135.598 Y137.040 E1.90046
G1 X135.992 Y136.898 E0.01320
G1 X93.102 Y94.008 E1.91171
G1 X93.244 Y93.614 E0.01320
G1 X136.386 Y136.756 E1.92296
G1 X136.780 Y136.614 E0.01320
G1 X93.386 Y93.220 E1.93420
G1 X93.528 Y92.825 E0.01320
G1 X137.175 Y136.472 E1.94545
G1 X137.562 Y136.323 E0.01307
G1 X93.677 Y92.438 E1.95605
G1 X93.839 Y92.064 E0.01285
G1 X137.936 Y136.161 E1.96551
G1 X138.310 Y135.999 E0.01285
G1 X94.001 Y91.690 E1.97497
