; generated by Slic3r 1.31.6-prusa3d-win64 on 2017-02-11 at 19:51:01

; external perimeters extrusion width = 0.45mm
; perimeters extrusion width = 0.45mm
; infill extrusion width = 0.45mm
; solid infill extrusion width = 0.45mm
; top infill extrusion width = 0.40mm

M107
M115 U3.0.9 ; tell printer latest fw version
M83  ; extruder relative mode
M104 S215 ; set extruder temp
M140 S55 ; set bed temp
M190 S55 ; wait for bed temp
M109 S215 ; wait for extruder temp
G28 W ; home all without mesh bed level
G80 ; mesh bed leveling
G1 Y-3.0 F1000.0 ; go outside pritn area
G1 X60.0 E9.0  F1000.0 ; intro line
G1 X100.0 E12.5  F1000.0 ; intro line
G21 ; set units to millimeters
G90 ; use absolute coordinates
M83 ; use relative distances for extrusion
G1 E-0.80000 F2100.00000
G1 Z0.200 F7200.000
G1 X122.234 Y85.234 F7200.000
G1 E0.80000 F2100.00000
M204 S1000
G1 F2100
G1 X123.800 Y84.746 E0.05142
G1 X126.300 Y84.746 E0.07839
G1 X127.880 Y85.244 E0.05194
G1 X135.387 Y90.502 E0.28738
G1 X135.947 Y90.922 E0.02193
G1 X136.529 Y91.399 E0.02361
G1 X137.041 Y91.854 E0.02147
G1 X137.928 Y92.732 E0.03912
G1 X138.424 Y93.281 E0.02320
G1 X138.862 Y93.807 E0.02148
G1 X139.280 Y94.350 E0.02148
G1 X139.711 Y94.962 E0.02347
G1 X140.373 Y96.019 E0.03912
G1 X140.732 Y96.671 E0.02333
G1 X141.063 Y97.339 E0.02338
G1 X141.555 Y98.486 E0.03911
G1 X141.810 Y99.187 E0.02341
G1 X142.018 Y99.840 E0.02147
G1 X142.200 Y100.501 E0.02150
G1 X142.369 Y101.223 E0.02325
G1 X142.584 Y102.452 E0.03912
G1 X142.671 Y103.183 E0.02308
G1 X142.725 Y103.881 E0.02194
G1 X142.751 Y104.618 E0.02314
G1 X142.749 Y105.303 E0.02146
G1 X142.677 Y106.548 E0.03912
G1 X142.593 Y107.284 E0.02321
G1 X142.488 Y107.960 E0.02145
G1 X142.354 Y108.646 E0.02193
G1 X142.184 Y109.361 E0.02302
G1 X141.828 Y110.557 E0.03912
G1 X141.598 Y111.201 E0.02147
G1 X141.319 Y111.892 E0.02334
G1 X141.038 Y112.516 E0.02146
G1 X140.704 Y113.182 E0.02337
G1 X140.083 Y114.264 E0.03911
G1 X139.676 Y114.891 E0.02344
G1 X139.280 Y115.450 E0.02148
G1 X138.862 Y115.993 E0.02148
G1 X138.424 Y116.519 E0.02149
G1 X137.535 Y117.473 E0.04086
G1 X136.992 Y117.992 E0.02357
G1 X136.529 Y118.401 E0.01935
G1 X135.905 Y118.910 E0.02524
G1 X127.920 Y124.728 E0.30979
G1 X126.300 Y125.254 E0.05340
G1 X123.800 Y125.254 E0.07839
G1 X122.195 Y124.738 E0.05288
G1 X114.605 Y119.292 E0.29289
G1 X113.565 Y118.482 E0.04133
G1 X113.049 Y118.029 E0.02153
G1 X112.549 Y117.556 E0.02157
G1 X112.069 Y117.065 E0.02156
G1 X111.570 Y116.511 E0.02336
G1 X110.785 Y115.535 E0.03928
G1 X110.383 Y114.977 E0.02156
G1 X109.977 Y114.361 E0.02315
G1 X109.622 Y113.772 E0.02155
G1 X109.283 Y113.157 E0.02203
G1 X108.975 Y112.542 E0.02156
G1 X108.691 Y111.916 E0.02155
G1 X108.432 Y111.279 E0.02157
G1 X108.197 Y110.633 E0.02156
G1 X107.973 Y109.926 E0.02327
G1 X107.791 Y109.263 E0.02155
G1 X107.526 Y108.038 E0.03929
G1 X107.410 Y107.307 E0.02320
G1 X107.330 Y106.624 E0.02158
G1 X107.275 Y105.923 E0.02202
G1 X107.249 Y105.237 E0.02155
G1 X107.249 Y104.549 E0.02156
G1 X107.280 Y103.809 E0.02322
G1 X107.401 Y102.561 E0.03930
G1 X107.505 Y101.882 E0.02156
G1 X107.646 Y101.154 E0.02325
G1 X107.804 Y100.485 E0.02156
G1 X107.992 Y99.808 E0.02203
G1 X108.219 Y99.104 E0.02317
G1 X108.456 Y98.459 E0.02156
G1 X108.951 Y97.308 E0.03929
G1 X109.283 Y96.643 E0.02330
G1 X109.615 Y96.040 E0.02157
G1 X109.969 Y95.451 E0.02156
G1 X110.354 Y94.865 E0.02200
G1 X110.745 Y94.316 E0.02112
G1 X111.166 Y93.773 E0.02155
G1 X111.607 Y93.245 E0.02156
G1 X112.030 Y92.777 E0.01980
G1 X112.595 Y92.199 E0.02534
G1 X113.060 Y91.761 E0.02001
G1 X113.615 Y91.277 E0.02309
G1 X114.112 Y90.876 E0.02002
G1 X114.699 Y90.440 E0.02293
G1 X122.185 Y85.268 E0.28529
G1 X122.449 Y85.544 F7200.000
G1 F2100
G1 X123.800 Y85.123 E0.04438
G1 X126.300 Y85.123 E0.07839
G1 X127.664 Y85.553 E0.04483
G1 X135.180 Y90.817 E0.28772
G1 X135.762 Y91.257 E0.02288
G1 X136.703 Y92.055 E0.03866
G1 X137.224 Y92.549 E0.02253
G1 X137.691 Y93.030 E0.02102
G1 X138.140 Y93.529 E0.02102
G1 X138.603 Y94.088 E0.02277
G1 X139.336 Y95.080 E0.03866
G1 X139.704 Y95.640 E0.02102
G1 X140.076 Y96.259 E0.02265
G1 X140.422 Y96.894 E0.02268
G1 X140.720 Y97.494 E0.02101
G1 X141.205 Y98.628 E0.03866
G1 X141.453 Y99.309 E0.02275
G1 X141.656 Y99.948 E0.02101
G1 X141.835 Y100.595 E0.02104
G1 X141.999 Y101.295 E0.02255
G1 X142.211 Y102.510 E0.03867
G1 X142.296 Y103.220 E0.02240
G1 X142.348 Y103.903 E0.02148
G1 X142.374 Y104.618 E0.02245
G1 X142.372 Y105.288 E0.02101
G1 X142.301 Y106.519 E0.03866
G1 X142.220 Y107.233 E0.02252
G1 X142.117 Y107.895 E0.02100
G1 X141.986 Y108.567 E0.02147
G1 X141.821 Y109.260 E0.02235
G1 X141.469 Y110.442 E0.03867
G1 X141.243 Y111.073 E0.02102
G1 X140.973 Y111.742 E0.02263
G1 X140.698 Y112.353 E0.02100
G1 X140.373 Y113.001 E0.02271
G1 X139.760 Y114.070 E0.03866
G1 X139.365 Y114.678 E0.02271
G1 X138.977 Y115.225 E0.02102
G1 X138.569 Y115.756 E0.02102
G1 X138.140 Y116.271 E0.02103
G1 X137.264 Y117.210 E0.04023
G1 X136.738 Y117.713 E0.02282
G1 X136.280 Y118.118 E0.01918
G1 X135.678 Y118.608 E0.02433
G1 X127.698 Y124.423 E0.30959
G1 X126.300 Y124.877 E0.04609
G1 X123.800 Y124.877 E0.07839
G1 X122.414 Y124.431 E0.04564
G1 X114.830 Y118.990 E0.29267
G1 X113.808 Y118.193 E0.04065
G1 X113.302 Y117.750 E0.02107
G1 X112.813 Y117.287 E0.02111
G1 X112.343 Y116.806 E0.02110
G1 X111.859 Y116.269 E0.02265
G1 X111.083 Y115.305 E0.03882
G1 X110.690 Y114.758 E0.02110
G1 X110.296 Y114.160 E0.02247
G1 X109.948 Y113.584 E0.02109
G1 X109.616 Y112.981 E0.02157
G1 X109.315 Y112.380 E0.02110
G1 X109.037 Y111.767 E0.02109
G1 X108.783 Y111.143 E0.02111
G1 X108.554 Y110.511 E0.02110
G1 X108.336 Y109.825 E0.02257
G1 X108.158 Y109.176 E0.02110
G1 X107.896 Y107.965 E0.03883
G1 X107.783 Y107.256 E0.02252
G1 X107.705 Y106.587 E0.02111
G1 X107.652 Y105.902 E0.02156
G1 X107.626 Y105.183 E0.02254
G1 X107.628 Y104.510 E0.02110
G1 X107.700 Y103.274 E0.03884
G1 X107.781 Y102.559 E0.02256
G1 X107.885 Y101.894 E0.02109
G1 X108.014 Y101.234 E0.02110
G1 X108.173 Y100.565 E0.02155
G1 X108.353 Y99.916 E0.02112
G1 X108.573 Y99.233 E0.02249
G1 X108.805 Y98.601 E0.02110
G1 X109.295 Y97.464 E0.03883
G1 X109.616 Y96.819 E0.02260
G1 X109.941 Y96.229 E0.02111
G1 X110.296 Y95.640 E0.02156
G1 X110.690 Y95.042 E0.02246
G1 X111.468 Y93.998 E0.04082
G1 X111.891 Y93.493 E0.02064
G1 X112.343 Y92.994 E0.02111
G1 X112.813 Y92.513 E0.02110
G1 X113.302 Y92.050 E0.02111
G1 X114.292 Y91.214 E0.04063
G1 X114.913 Y90.750 E0.02430
G1 X122.399 Y85.578 E0.28529
G1 F5760
G1 X123.800 Y85.123 E-0.51009
G1 F5760
G1 X124.522 Y85.123 E-0.24991
G1 E-0.04000 F2100.00000
G1 X125.336 Y90.823 F7200.000
G1 E0.80000 F2100.00000
G1 F1680
G1 X126.749 Y90.974 E0.04456
G1 X127.811 Y91.149 E0.03377
G1 X128.885 Y91.413 E0.03466
G1 X129.384 Y91.567 E0.01638
G1 X130.394 Y91.943 E0.03377
G1 X131.397 Y92.407 E0.03466
G1 X131.857 Y92.654 E0.01638
G1 X132.776 Y93.216 E0.03377
G1 X133.672 Y93.864 E0.03466
G1 X134.076 Y94.194 E0.01638
G1 X134.870 Y94.922 E0.03377
G1 X135.625 Y95.729 E0.03466
G1 X135.959 Y96.131 E0.01638
G1 X136.599 Y96.998 E0.03376
G1 X137.185 Y97.935 E0.03466
G1 X137.436 Y98.393 E0.01638
G1 X137.898 Y99.366 E0.03376
G1 X138.294 Y100.398 E0.03466
G1 X138.452 Y100.896 E0.01638
G1 X138.719 Y101.939 E0.03377
G1 X138.910 Y103.028 E0.03466
G1 X138.970 Y103.547 E0.01638
G1 X139.032 Y104.622 E0.03376
G1 X139.011 Y105.718 E0.03438
G1 X138.908 Y106.781 E0.03347
G1 X138.719 Y107.861 E0.03438
G1 X138.452 Y108.904 E0.03377
G1 X138.294 Y109.402 E0.01639
G1 X137.904 Y110.421 E0.03420
G1 X137.433 Y111.411 E0.03437
G1 X136.898 Y112.345 E0.03377
G1 X136.612 Y112.783 E0.01639
G1 X135.965 Y113.661 E0.03420
G1 X135.247 Y114.490 E0.03437
G1 X134.482 Y115.248 E0.03377
G1 X134.090 Y115.594 E0.01639
G1 X133.232 Y116.267 E0.03421
G1 X132.320 Y116.875 E0.03437
G1 X131.380 Y117.401 E0.03377
G1 X130.910 Y117.630 E0.01639
G1 X129.904 Y118.051 E0.03421
G1 X128.862 Y118.393 E0.03437
G1 X127.816 Y118.650 E0.03377
G1 X127.303 Y118.745 E0.01639
G1 X125.336 Y118.994 E0.06215
G1 X125.336 Y121.536 E0.07971
G1 X124.764 Y121.536 E0.01792
G1 X124.764 Y118.996 E0.07964
G1 X122.797 Y118.761 E0.06212
G1 X121.735 Y118.550 E0.03393
G1 X120.685 Y118.256 E0.03421
G1 X120.175 Y118.080 E0.01691
G1 X119.175 Y117.669 E0.03391
G1 X118.183 Y117.169 E0.03481
G1 X117.730 Y116.906 E0.01645
G1 X116.827 Y116.310 E0.03392
G1 X115.957 Y115.634 E0.03453
G1 X115.158 Y114.906 E0.03391
G1 X114.416 Y114.118 E0.03394
G1 X113.738 Y113.275 E0.03391
G1 X113.111 Y112.359 E0.03481
G1 X112.840 Y111.909 E0.01645
G1 X112.337 Y110.952 E0.03392
G1 X111.901 Y109.941 E0.03452
G1 X111.548 Y108.904 E0.03436
G1 X111.407 Y108.398 E0.01646
G1 X111.179 Y107.340 E0.03392
G1 X111.031 Y106.264 E0.03407
G1 X110.967 Y105.165 E0.03451
G1 X110.989 Y104.078 E0.03407
G1 X111.094 Y103.001 E0.03392
G1 X111.174 Y102.483 E0.01645
G1 X111.409 Y101.398 E0.03481
G1 X111.719 Y100.361 E0.03392
G1 X111.898 Y99.868 E0.01645
G1 X112.337 Y98.848 E0.03481
G1 X112.840 Y97.891 E0.03392
G1 X113.111 Y97.441 E0.01645
G1 X113.738 Y96.525 E0.03481
G1 X114.416 Y95.682 E0.03391
G1 X115.158 Y94.894 E0.03394
G1 X115.958 Y94.166 E0.03391
G1 X116.815 Y93.498 E0.03408
G1 X117.722 Y92.899 E0.03407
G1 X118.672 Y92.372 E0.03407
G1 X119.660 Y91.920 E0.03407
G1 X120.681 Y91.546 E0.03407
G1 X121.727 Y91.252 E0.03407
G1 X122.792 Y91.040 E0.03407
G1 X124.764 Y90.804 E0.06227
G1 X124.764 Y88.464 E0.07335
G1 X125.336 Y88.464 E0.01792
G1 X125.336 Y90.763 E0.07208
G1 X125.713 Y90.484 F7200.000
G1 F1680
G1 X126.800 Y90.600 E0.03427
G1 X127.887 Y90.780 E0.03456
G1 X128.986 Y91.049 E0.03546
G1 X129.506 Y91.210 E0.01706
G1 X130.539 Y91.594 E0.03456
G1 X131.565 Y92.069 E0.03546
G1 X132.045 Y92.326 E0.01706
G1 X132.985 Y92.902 E0.03456
G1 X133.902 Y93.565 E0.03546
G1 X134.323 Y93.909 E0.01706
G1 X135.136 Y94.654 E0.03456
G1 X135.908 Y95.480 E0.03546
G1 X136.256 Y95.899 E0.01706
G1 X136.911 Y96.785 E0.03456
G1 X137.511 Y97.744 E0.03546
G1 X137.772 Y98.222 E0.01706
G1 X138.245 Y99.217 E0.03456
G1 X138.650 Y100.273 E0.03546
G1 X138.815 Y100.792 E0.01706
G1 X139.088 Y101.860 E0.03456
G1 X139.283 Y102.974 E0.03546
G1 X139.346 Y103.515 E0.01707
G1 X139.410 Y104.615 E0.03456
G1 X139.388 Y105.740 E0.03529
G1 X139.282 Y106.832 E0.03438
G1 X139.088 Y107.940 E0.03529
G1 X138.815 Y109.008 E0.03456
G1 X138.650 Y109.527 E0.01707
G1 X138.250 Y110.569 E0.03501
G1 X137.768 Y111.586 E0.03529
G1 X137.220 Y112.542 E0.03456
G1 X136.922 Y112.998 E0.01707
G1 X136.259 Y113.897 E0.03500
G1 X135.523 Y114.748 E0.03529
G1 X134.740 Y115.524 E0.03456
G1 X134.332 Y115.884 E0.01707
G1 X133.453 Y116.573 E0.03501
G1 X132.517 Y117.197 E0.03529
G1 X131.555 Y117.736 E0.03456
G1 X131.066 Y117.974 E0.01707
G1 X130.035 Y118.404 E0.03501
G1 X128.966 Y118.756 E0.03529
G1 X127.896 Y119.019 E0.03456
G1 X127.361 Y119.118 E0.01707
G1 X125.713 Y119.326 E0.05207
G1 X125.713 Y121.913 E0.08111
G1 X124.387 Y121.913 E0.04157
G1 X124.387 Y119.331 E0.08096
G1 X122.741 Y119.135 E0.05196
G1 X122.184 Y119.035 E0.01777
G1 X121.644 Y118.916 E0.01732
G1 X120.573 Y118.616 E0.03489
G1 X120.042 Y118.433 E0.01760
G1 X119.018 Y118.012 E0.03471
G1 X118.004 Y117.501 E0.03562
G1 X117.531 Y117.226 E0.01714
G1 X116.607 Y116.616 E0.03471
G1 X115.714 Y115.923 E0.03544
G1 X114.896 Y115.178 E0.03471
G1 X114.499 Y114.772 E0.01777
G1 X114.129 Y114.363 E0.01732
G1 X113.435 Y113.500 E0.03471
G1 X112.793 Y112.563 E0.03562
G1 X112.511 Y112.094 E0.01714
G1 X111.996 Y111.114 E0.03471
G1 X111.549 Y110.076 E0.03544
G1 X111.187 Y109.015 E0.03516
G1 X111.041 Y108.488 E0.01715
G1 X110.807 Y107.406 E0.03472
G1 X110.656 Y106.300 E0.03499
G1 X110.590 Y105.172 E0.03543
G1 X110.612 Y104.056 E0.03499
G1 X110.719 Y102.954 E0.03472
G1 X110.803 Y102.414 E0.01714
G1 X111.044 Y101.304 E0.03562
G1 X111.361 Y100.243 E0.03472
G1 X111.547 Y99.729 E0.01714
G1 X111.996 Y98.686 E0.03561
G1 X112.511 Y97.706 E0.03471
G1 X112.793 Y97.237 E0.01714
G1 X113.435 Y96.300 E0.03562
G1 X114.129 Y95.437 E0.03471
G1 X114.499 Y95.028 E0.01732
G1 X114.896 Y94.622 E0.01777
G1 X115.715 Y93.877 E0.03471
G1 X116.595 Y93.192 E0.03499
G1 X117.526 Y92.577 E0.03499
G1 X118.502 Y92.036 E0.03499
G1 X119.517 Y91.571 E0.03499
G1 X120.564 Y91.187 E0.03499
G1 X121.639 Y90.885 E0.03499
G1 X122.733 Y90.667 E0.03499
G1 X124.387 Y90.469 E0.05223
G1 X124.387 Y88.087 E0.07468
G1 X125.713 Y88.087 E0.04157
G1 X125.713 Y90.424 E0.07328
G1 X126.090 Y90.145 F7200.000
G1 F1260
G1 X126.850 Y90.226 E0.02398
G1 X127.963 Y90.410 E0.03536
G1 X129.086 Y90.686 E0.03626
G1 X129.627 Y90.853 E0.01775
G1 X130.684 Y91.246 E0.03536
G1 X131.734 Y91.732 E0.03626
G1 X132.233 Y91.999 E0.01775
G1 X133.194 Y92.588 E0.03536
G1 X134.131 Y93.266 E0.03626
G1 X134.570 Y93.624 E0.01775
G1 X135.401 Y94.386 E0.03536
G1 X136.191 Y95.231 E0.03627
G1 X136.553 Y95.666 E0.01775
G1 X137.223 Y96.573 E0.03535
G1 X137.836 Y97.553 E0.03626
G1 X138.108 Y98.050 E0.01775
G1 X138.592 Y99.069 E0.03536
G1 X139.006 Y100.148 E0.03626
G1 X139.177 Y100.688 E0.01775
G1 X139.457 Y101.780 E0.03536
G1 X139.657 Y102.920 E0.03626
G1 X139.722 Y103.482 E0.01775
G1 X139.787 Y104.608 E0.03535
G1 X139.765 Y105.762 E0.03620
G1 X139.656 Y106.882 E0.03529
G1 X139.457 Y108.020 E0.03620
G1 X139.177 Y109.112 E0.03536
G1 X139.006 Y109.652 E0.01775
G1 X138.597 Y110.718 E0.03581
G1 X138.102 Y111.761 E0.03620
G1 X137.541 Y112.739 E0.03535
G1 X137.232 Y113.214 E0.01775
G1 X136.554 Y114.132 E0.03581
G1 X135.799 Y115.006 E0.03620
G1 X134.998 Y115.799 E0.03536
G1 X134.573 Y116.174 E0.01775
G1 X133.675 Y116.879 E0.03581
G1 X132.714 Y117.519 E0.03620
G1 X131.730 Y118.070 E0.03536
G1 X131.221 Y118.318 E0.01775
G1 X130.167 Y118.758 E0.03581
G1 X129.070 Y119.119 E0.03620
G1 X127.975 Y119.388 E0.03536
G1 X127.419 Y119.491 E0.01775
G1 X126.090 Y119.658 E0.04199
G1 X126.090 Y122.290 E0.08251
G1 X124.010 Y122.290 E0.06522
G1 X124.010 Y119.666 E0.08229
G1 X122.686 Y119.508 E0.04181
G1 X122.110 Y119.405 E0.01835
G1 X121.553 Y119.282 E0.01789
G1 X120.460 Y118.976 E0.03558
G1 X119.909 Y118.786 E0.01828
G1 X118.861 Y118.356 E0.03551
G1 X117.824 Y117.832 E0.03642
G1 X117.332 Y117.547 E0.01783
G1 X116.387 Y116.923 E0.03551
G1 X115.472 Y116.211 E0.03636
G1 X114.634 Y115.449 E0.03551
G1 X114.225 Y115.031 E0.01835
G1 X113.842 Y114.608 E0.01789
G1 X113.132 Y113.725 E0.03551
G1 X112.476 Y112.767 E0.03642
G1 X112.183 Y112.279 E0.01783
G1 X111.656 Y111.277 E0.03551
G1 X111.197 Y110.212 E0.03636
G1 X110.827 Y109.126 E0.03597
G1 X110.675 Y108.578 E0.01783
G1 X110.435 Y107.471 E0.03551
G1 X110.280 Y106.337 E0.03590
G1 X110.213 Y105.179 E0.03635
G1 X110.236 Y104.034 E0.03590
G1 X110.345 Y102.907 E0.03552
G1 X110.432 Y102.345 E0.01783
G1 X110.678 Y101.210 E0.03642
G1 X111.002 Y100.125 E0.03551
G1 X111.196 Y99.590 E0.01783
G1 X111.656 Y98.523 E0.03642
G1 X112.183 Y97.521 E0.03551
G1 X112.476 Y97.033 E0.01783
G1 X113.132 Y96.075 E0.03642
G1 X113.842 Y95.192 E0.03551
G1 X114.225 Y94.769 E0.01789
G1 X114.634 Y94.351 E0.01835
G1 X115.472 Y93.589 E0.03551
G1 X116.375 Y92.885 E0.03590
G1 X117.331 Y92.254 E0.03590
G1 X118.332 Y91.699 E0.03590
G1 X119.373 Y91.222 E0.03590
G1 X120.448 Y90.828 E0.03591
G1 X121.551 Y90.518 E0.03590
G1 X122.674 Y90.294 E0.03590
G1 X124.010 Y90.134 E0.04220
G1 X124.010 Y87.710 E0.07602
G1 X126.090 Y87.710 E0.06522
G1 X126.090 Y90.085 E0.07447
G1 X126.156 Y90.540 F7200.000
G1 F5760
G1 X126.850 Y90.226 E-0.26790
G1 F5760
G1 X127.963 Y90.410 E-0.39056
G1 F5760
G1 X128.248 Y90.480 E-0.10155
G1 E-0.04000 F2100.00000
G1 X125.050 Y90.959 F7200.000
G1 E0.80000 F2100.00000
G1 F1680
G1 X125.050 Y88.653 E0.02909
G1 F5760
G1 X125.050 Y90.847 E-0.76000
G1 E-0.04000 F2100.00000
G1 X131.705 Y92.700 F7200.000
G1 E0.80000 F2100.00000
G1 F1680
G1 X137.198 Y98.193 E0.24669
G1 F5760
G1 X135.646 Y96.642 E-0.76000
G1 E-0.04000 F2100.00000
G1 X137.721 Y99.256 F7200.000
G1 E0.80000 F2100.00000
G1 F1680
G1 X130.999 Y92.534 E0.30189
G1 X130.285 Y92.204 E0.02499
G1 X130.035 Y92.111 E0.00845
G1 X137.785 Y99.861 E0.34804
G1 X138.097 Y100.713 E0.02884
G1 X129.186 Y91.802 E0.40024
G1 X128.439 Y91.595 E0.02462
G1 X138.305 Y101.461 E0.44312
G1 X138.472 Y102.168 E0.02309
G1 X127.726 Y91.422 E0.48265
G1 X127.079 Y91.315 E0.02083
