; generated by Slic3r 1.31.6-prusa3d-win64 on 2017-02-19 at 14:12:55

; external perimeters extrusion width = 0.45mm
; perimeters extrusion width = 0.45mm
; infill extrusion width = 0.45mm
; solid infill extrusion width = 0.45mm
; top infill extrusion width = 0.45mm

M107
M115 U3.0.9 ; tell printer latest fw version
M83  ; extruder relative mode
M104 S215 ; set extruder temp
M140 S55 ; set bed temp
M190 S55 ; wait for bed temp
M109 S215 ; wait for extruder temp
G28 W ; home all without mesh bed level
G80 ; mesh bed leveling
G1 Y-3.0 F1000.0 ; go outside pritn area
G1 X60.0 E9.0  F1000.0 ; intro line
G1 X100.0 E12.5  F1000.0 ; intro line
G21 ; set units to millimeters
G90 ; use absolute coordinates
M83 ; use relative distances for extrusion
G1 E-0.80000 F2100.00000
G1 Z0.200 F7200.000
G1 X112.560 Y99.071 F7200.000
G1 E0.80000 F2100.00000
M204 S1000
G1 F2100
G1 X112.945 Y98.679 E0.01724
G1 X113.354 Y98.311 E0.01724
G1 X113.925 Y97.868 E0.02266
G1 X114.708 Y97.372 E0.02905
G1 X115.369 Y97.036 E0.02325
G1 X115.858 Y96.830 E0.01665
G1 X116.377 Y96.649 E0.01724
G1 X117.275 Y96.418 E0.02905
G1 X117.989 Y96.305 E0.02266
G1 X118.537 Y96.259 E0.01724
G1 X119.086 Y96.247 E0.01724
G1 X120.011 Y96.305 E0.02906
G1 X120.675 Y96.408 E0.02106
G1 X135.514 Y99.449 E0.47495
G1 X136.037 Y99.619 E0.01724
G1 X136.527 Y99.831 E0.01673
G1 X137.010 Y100.096 E0.01726
G1 X137.452 Y100.397 E0.01675
G1 X137.875 Y100.748 E0.01725
G1 X138.253 Y101.125 E0.01675
G1 X138.705 Y101.689 E0.02266
G1 X139.000 Y102.153 E0.01724
G1 X139.242 Y102.629 E0.01676
G1 X139.498 Y103.304 E0.02262
G1 X139.635 Y103.837 E0.01725
G1 X139.718 Y104.364 E0.01672
G1 X139.753 Y104.914 E0.01728
G1 X139.736 Y105.448 E0.01677
G1 X139.667 Y105.992 E0.01717
G1 X139.551 Y106.515 E0.01680
G1 X139.317 Y107.198 E0.02263
G1 X139.000 Y107.847 E0.02266
G1 X138.603 Y108.452 E0.02270
G1 X138.134 Y109.001 E0.02263
G1 X137.601 Y109.487 E0.02263
G1 X137.010 Y109.903 E0.02266
G1 X136.372 Y110.242 E0.02265
G1 X135.695 Y110.498 E0.02267
G1 X135.113 Y110.645 E0.01884
G1 X120.675 Y113.592 E0.46202
G1 X120.183 Y113.673 E0.01564
G1 X119.463 Y113.741 E0.02266
G1 X118.913 Y113.753 E0.01724
G1 X118.364 Y113.730 E0.01724
G1 X117.445 Y113.614 E0.02905
G1 X116.739 Y113.456 E0.02266
G1 X116.213 Y113.298 E0.01724
G1 X115.697 Y113.106 E0.01724
G1 X115.195 Y112.883 E0.01724
G1 X114.708 Y112.628 E0.01724
G1 X114.237 Y112.344 E0.01724
G1 X113.785 Y112.030 E0.01725
G1 X113.354 Y111.689 E0.01724
G1 X112.945 Y111.321 E0.01724
G1 X112.560 Y110.929 E0.01724
G1 X112.201 Y110.513 E0.01724
G1 X111.868 Y110.075 E0.01724
G1 X111.563 Y109.617 E0.01724
G1 X111.288 Y109.141 E0.01724
G1 X111.043 Y108.649 E0.01724
G1 X110.830 Y108.142 E0.01724
G1 X110.649 Y107.623 E0.01724
G1 X110.501 Y107.093 E0.01724
G1 X110.386 Y106.555 E0.01724
G1 X110.305 Y106.011 E0.01724
G1 X110.259 Y105.463 E0.01724
G1 X110.247 Y104.914 E0.01724
G1 X110.270 Y104.364 E0.01724
G1 X110.327 Y103.817 E0.01724
G1 X110.418 Y103.275 E0.01724
G1 X110.544 Y102.739 E0.01724
G1 X110.702 Y102.213 E0.01724
G1 X110.894 Y101.697 E0.01724
G1 X111.117 Y101.195 E0.01724
G1 X111.372 Y100.708 E0.01724
G1 X111.656 Y100.237 E0.01724
G1 X111.970 Y99.785 E0.01724
G1 X112.521 Y99.116 E0.02717
G1 X112.843 Y99.321 F7200.000
G1 F2100
G1 X113.212 Y98.945 E0.01650
G1 X113.603 Y98.594 E0.01650
G1 X114.137 Y98.180 E0.02118
G1 X114.899 Y97.696 E0.02831
G1 X115.518 Y97.382 E0.02176
G1 X115.986 Y97.185 E0.01591
G1 X116.483 Y97.011 E0.01650
G1 X117.357 Y96.786 E0.02831
G1 X118.024 Y96.681 E0.02118
G1 X118.548 Y96.636 E0.01649
G1 X119.074 Y96.624 E0.01650
G1 X119.976 Y96.681 E0.02831
G1 X120.600 Y96.777 E0.01980
G1 X135.409 Y99.812 E0.47399
G1 X135.910 Y99.974 E0.01650
G1 X136.356 Y100.167 E0.01525
G1 X136.818 Y100.421 E0.01652
G1 X137.220 Y100.695 E0.01527
G1 X137.626 Y101.030 E0.01651
G1 X137.970 Y101.375 E0.01526
G1 X138.393 Y101.901 E0.02117
G1 X138.675 Y102.345 E0.01649
G1 X138.896 Y102.779 E0.01528
G1 X139.090 Y103.267 E0.01645
G1 X139.226 Y103.736 E0.01530
G1 X139.324 Y104.253 E0.01652
G1 X139.370 Y104.737 E0.01524
G1 X139.370 Y105.263 E0.01649
G1 X139.295 Y105.933 E0.02114
G1 X139.188 Y106.409 E0.01531
G1 X138.971 Y107.048 E0.02114
G1 X138.675 Y107.655 E0.02118
G1 X138.305 Y108.221 E0.02121
G1 X137.868 Y108.735 E0.02115
G1 X137.370 Y109.190 E0.02115
G1 X136.818 Y109.579 E0.02117
G1 X136.222 Y109.896 E0.02116
G1 X135.590 Y110.136 E0.02118
G1 X135.037 Y110.276 E0.01788
G1 X120.600 Y113.223 E0.46202
G1 X120.124 Y113.300 E0.01512
G1 X119.451 Y113.364 E0.02118
G1 X118.549 Y113.364 E0.02831
G1 X117.876 Y113.300 E0.02118
G1 X117.357 Y113.214 E0.01650
G1 X116.845 Y113.094 E0.01650
G1 X116.341 Y112.943 E0.01650
G1 X115.847 Y112.760 E0.01650
G1 X115.366 Y112.547 E0.01650
G1 X114.899 Y112.304 E0.01650
G1 X114.449 Y112.032 E0.01650
G1 X114.016 Y111.732 E0.01650
G1 X113.603 Y111.406 E0.01650
G1 X113.212 Y111.055 E0.01650
G1 X112.843 Y110.679 E0.01650
G1 X112.499 Y110.281 E0.01650
G1 X112.180 Y109.863 E0.01650
G1 X111.888 Y109.425 E0.01650
G1 X111.624 Y108.970 E0.01650
G1 X111.389 Y108.499 E0.01650
G1 X111.185 Y108.014 E0.01650
G1 X111.011 Y107.517 E0.01650
G1 X110.869 Y107.011 E0.01650
G1 X110.758 Y106.496 E0.01650
G1 X110.681 Y105.976 E0.01650
G1 X110.636 Y105.451 E0.01650
G1 X110.624 Y104.925 E0.01650
G1 X110.645 Y104.400 E0.01650
G1 X110.699 Y103.876 E0.01650
G1 X110.786 Y103.357 E0.01650
G1 X110.906 Y102.845 E0.01650
G1 X111.057 Y102.341 E0.01650
G1 X111.240 Y101.847 E0.01650
G1 X111.453 Y101.366 E0.01650
G1 X111.696 Y100.899 E0.01650
G1 X111.968 Y100.449 E0.01650
G1 X112.268 Y100.016 E0.01650
G1 X112.803 Y99.366 E0.02643
G1 F5760
G1 X112.945 Y99.212 E-0.07248
G1 F5760
G1 X113.199 Y98.959 E-0.12402
G1 F5760
G1 X113.199 Y98.959 E-0.00003
G1 F5760
G1 X113.212 Y98.945 E-0.00653
G1 F5760
G1 X113.321 Y98.843 E-0.05167
G1 F5760
G1 X113.335 Y98.831 E-0.00653
G1 F5760
G1 X113.335 Y98.831 E-0.00002
G1 F5760
G1 X113.603 Y98.594 E-0.12402
G1 F5760
G1 X113.719 Y98.499 E-0.05172
G1 F5760
G1 X114.016 Y98.268 E-0.13055
G1 F5760
G1 X114.137 Y98.180 E-0.05172
G1 F5760
G1 X114.449 Y97.968 E-0.13055
G1 F5760
G1 X114.474 Y97.952 E-0.01016
G1 E-0.04000 F2100.00000
G1 X115.791 Y101.121 F7200.000
G1 E0.80000 F2100.00000
G1 F1680
G1 X116.315 Y100.741 E0.02030
G1 X116.561 Y100.595 E0.00897
G1 X117.161 Y100.313 E0.02077
G1 X117.733 Y100.127 E0.01888
G1 X118.384 Y100.003 E0.02077
G1 X118.682 Y99.975 E0.00940
G1 X119.002 Y99.966 E0.01002
G1 X119.646 Y100.007 E0.02023
G1 X119.952 Y100.055 E0.00974
G1 X134.331 Y102.990 E0.46012
G1 X134.748 Y103.111 E0.01362
G1 X135.089 Y103.285 E0.01199
G1 X135.391 Y103.519 E0.01199
G1 X135.644 Y103.806 E0.01199
G1 X135.838 Y104.135 E0.01199
G1 X135.968 Y104.495 E0.01199
G1 X136.030 Y104.887 E0.01247
G1 X136.030 Y105.128 E0.00753
G1 X136.000 Y105.366 E0.00753
G1 X135.885 Y105.762 E0.01295
G1 X135.782 Y105.980 E0.00754
G1 X135.646 Y106.196 E0.00801
G1 X135.483 Y106.392 E0.00801
G1 X135.308 Y106.557 E0.00753
G1 X134.966 Y106.789 E0.01294
G1 X134.749 Y106.891 E0.00753
G1 X134.500 Y106.972 E0.00821
G1 X119.952 Y109.945 E0.46556
G1 X119.646 Y109.993 E0.00972
G1 X119.000 Y110.034 E0.02030
G1 X118.369 Y109.994 E0.01982
G1 X117.748 Y109.876 E0.01982
G1 X117.132 Y109.676 E0.02030
G1 X116.870 Y109.562 E0.00897
G1 X116.289 Y109.243 E0.02077
G1 X115.790 Y108.878 E0.01941
G1 X115.320 Y108.436 E0.02023
G1 X115.130 Y108.221 E0.00898
G1 X114.741 Y107.685 E0.02077
G1 X114.595 Y107.439 E0.00898
G1 X114.320 Y106.855 E0.02023
G1 X114.127 Y106.266 E0.01942
G1 X114.006 Y105.633 E0.02023
G1 X113.965 Y105.015 E0.01942
G1 X114.005 Y104.371 E0.02023
G1 X114.120 Y103.763 E0.01941
G1 X114.324 Y103.132 E0.02077
G1 X114.438 Y102.870 E0.00897
G1 X114.750 Y102.303 E0.02030
G1 X115.130 Y101.779 E0.02030
G1 X115.319 Y101.564 E0.00897
G1 X115.748 Y101.162 E0.01842
G1 X115.550 Y100.830 F7200.000
G1 F1680
G1 X116.108 Y100.425 E0.02160
G1 X116.384 Y100.262 E0.01008
G1 X117.016 Y99.964 E0.02189
G1 X117.645 Y99.760 E0.02073
G1 X118.331 Y99.629 E0.02189
G1 X118.659 Y99.598 E0.01034
G1 X119.008 Y99.588 E0.01095
G1 X119.687 Y99.631 E0.02133
G1 X120.020 Y99.684 E0.01055
G1 X134.421 Y102.624 E0.46086
G1 X134.887 Y102.759 E0.01522
G1 X135.292 Y102.965 E0.01422
G1 X135.650 Y103.243 E0.01422
G1 X135.950 Y103.583 E0.01423
G1 X136.181 Y103.974 E0.01422
G1 X136.335 Y104.401 E0.01422
G1 X136.407 Y104.858 E0.01451
G1 X136.407 Y105.151 E0.00921
G1 X136.370 Y105.443 E0.00920
G1 X136.238 Y105.896 E0.01481
G1 X136.113 Y106.162 E0.00921
G1 X135.951 Y106.418 E0.00949
G1 X135.758 Y106.651 E0.00950
G1 X135.544 Y106.852 E0.00921
G1 X135.154 Y107.117 E0.01481
G1 X134.888 Y107.242 E0.00921
G1 X134.596 Y107.337 E0.00962
G1 X120.020 Y110.316 E0.46648
G1 X119.688 Y110.369 E0.01054
G1 X119.000 Y110.412 E0.02160
G1 X118.322 Y110.369 E0.02131
G1 X117.654 Y110.242 E0.02131
G1 X116.999 Y110.029 E0.02160
G1 X116.704 Y109.901 E0.01008
G1 X116.092 Y109.565 E0.02189
G1 X115.544 Y109.164 E0.02129
G1 X115.048 Y108.698 E0.02133
G1 X114.836 Y108.457 E0.01009
G1 X114.425 Y107.892 E0.02189
G1 X114.261 Y107.615 E0.01009
G1 X113.971 Y107.000 E0.02133
G1 X113.760 Y106.355 E0.02129
G1 X113.632 Y105.687 E0.02133
G1 X113.588 Y105.009 E0.02129
G1 X113.630 Y104.330 E0.02133
G1 X113.755 Y103.663 E0.02129
G1 X113.971 Y102.999 E0.02189
G1 X114.099 Y102.704 E0.01008
G1 X114.431 Y102.100 E0.02160
G1 X114.836 Y101.543 E0.02160
G1 X115.048 Y101.302 E0.01008
G1 X115.507 Y100.871 E0.01972
G1 X115.310 Y100.539 F7200.000
G1 F1050
G1 X115.900 Y100.110 E0.02290
G1 X116.208 Y99.928 E0.01120
G1 X116.872 Y99.616 E0.02300
G1 X117.557 Y99.393 E0.02259
G1 X118.278 Y99.255 E0.02300
G1 X118.636 Y99.222 E0.01129
G1 X119.015 Y99.211 E0.01189
G1 X119.729 Y99.256 E0.02242
G1 X120.087 Y99.313 E0.01136
G1 X134.512 Y102.257 E0.46161
G1 X135.027 Y102.407 E0.01682
G1 X135.494 Y102.645 E0.01646
G1 X135.909 Y102.967 E0.01646
G1 X136.256 Y103.361 E0.01646
G1 X136.524 Y103.812 E0.01646
G1 X136.701 Y104.306 E0.01646
G1 X136.784 Y104.828 E0.01656
G1 X136.784 Y105.175 E0.01088
G1 X136.741 Y105.519 E0.01088
G1 X136.592 Y106.030 E0.01667
G1 X136.445 Y106.344 E0.01088
G1 X136.257 Y106.640 E0.01098
G1 X136.034 Y106.910 E0.01098
G1 X135.781 Y107.147 E0.01088
G1 X135.341 Y107.446 E0.01667
G1 X135.027 Y107.594 E0.01088
G1 X134.692 Y107.702 E0.01103
G1 X120.087 Y110.687 E0.46741
G1 X119.729 Y110.744 E0.01136
G1 X119.000 Y110.790 E0.02290
G1 X118.274 Y110.744 E0.02280
G1 X117.560 Y110.608 E0.02280
G1 X116.866 Y110.382 E0.02290
G1 X116.538 Y110.240 E0.01120
G1 X115.895 Y109.887 E0.02300
G1 X115.298 Y109.451 E0.02317
G1 X114.777 Y108.961 E0.02242
G1 X114.541 Y108.693 E0.01120
G1 X114.110 Y108.100 E0.02300
G1 X113.928 Y107.792 E0.01120
G1 X113.623 Y107.145 E0.02242
G1 X113.393 Y106.443 E0.02317
G1 X113.258 Y105.741 E0.02242
G1 X113.210 Y105.003 E0.02317
G1 X113.255 Y104.289 E0.02242
G1 X113.391 Y103.563 E0.02317
G1 X113.618 Y102.866 E0.02300
G1 X113.760 Y102.538 E0.01120
G1 X114.112 Y101.898 E0.02290
G1 X114.541 Y101.307 E0.02290
G1 X114.777 Y101.039 E0.01120
G1 X115.266 Y100.580 E0.02102
G1 X115.683 Y100.682 F7200.000
G1 F5760
G1 X115.900 Y100.110 E-0.27360
G1 F5760
G1 X116.208 Y99.928 E-0.12369
G1 F5760
G1 X116.872 Y99.616 E-0.25411
G1 F5760
G1 X117.167 Y99.509 E-0.10860
G1 E-0.04000 F2100.00000
G1 X114.729 Y107.444 F7200.000
G1 E0.80000 F2100.00000
G1 F1680
G1 X116.534 Y109.249 E0.08066
G1 F5760
G1 X114.983 Y107.697 E-0.76000
G1 E-0.04000 F2100.00000
G1 X117.499 Y109.676 F7200.000
G1 E0.80000 F2100.00000
G1 F1680
G1 X114.592 Y106.768 E0.12993
G1 X114.480 Y106.467 E0.01017
G1 X114.365 Y106.004 E0.01507
G1 X117.996 Y109.635 E0.16226
G1 X118.405 Y109.713 E0.01315
G1 X118.625 Y109.727 E0.00698
G1 X114.272 Y105.374 E0.19452
G1 X114.248 Y105.014 E0.01139
G1 X114.260 Y104.825 E0.00600
G1 X119.175 Y109.740 E0.21962
G1 X119.675 Y109.702 E0.01585
G1 X114.301 Y104.328 E0.24015
G1 X114.386 Y103.876 E0.01454
G1 X120.130 Y109.620 E0.25668
G1 X120.576 Y109.529 E0.01439
G1 X114.513 Y103.466 E0.27093
G1 X114.658 Y103.073 E0.01322
G1 X121.023 Y109.437 E0.28440
G1 X121.469 Y109.346 E0.01439
G1 X114.843 Y102.720 E0.29608
G1 X115.042 Y102.382 E0.01241
G1 X121.915 Y109.255 E0.30713
G1 X122.361 Y109.164 E0.01439
G1 X115.268 Y102.071 E0.31697
G1 X115.510 Y101.776 E0.01206
G1 X122.807 Y109.073 E0.32608
G1 X123.254 Y108.982 E0.01439
G1 X115.786 Y101.514 E0.33369
G1 X116.075 Y101.265 E0.01204
G1 X123.700 Y108.890 E0.34074
G1 X124.146 Y108.799 E0.01439
G1 X116.386 Y101.039 E0.34677
G1 X116.718 Y100.834 E0.01234
G1 X124.592 Y108.708 E0.35186
G1 X125.038 Y108.617 E0.01439
G1 X117.084 Y100.662 E0.35547
G1 X117.265 Y100.577 E0.00633
G1 X117.469 Y100.510 E0.00679
G1 X125.485 Y108.526 E0.35817
G1 X125.931 Y108.434 E0.01439
G1 X117.883 Y100.386 E0.35963
G1 X118.334 Y100.300 E0.01452
G1 X126.377 Y108.343 E0.35940
G1 X126.823 Y108.252 E0.01439
G1 X118.825 Y100.254 E0.35742
G1 X119.382 Y100.273 E0.01761
G1 X127.270 Y108.161 E0.35246
G1 X127.716 Y108.070 E0.01439
G1 X120.000 Y100.353 E0.34480
G1 X120.675 Y100.491 E0.02178
G1 X128.162 Y107.978 E0.33457
G1 X128.608 Y107.887 E0.01439
G1 X121.350 Y100.629 E0.32433
G1 X122.025 Y100.767 E0.02178
G1 X129.054 Y107.796 E0.31410
G1 X129.501 Y107.705 E0.01439
G1 X122.700 Y100.905 E0.30387
G1 X123.376 Y101.043 E0.02178
G1 X129.947 Y107.614 E0.29364
G1 X130.393 Y107.523 E0.01439
G1 X124.051 Y101.180 E0.28340
G1 X124.726 Y101.318 E0.02178
G1 X130.839 Y107.431 E0.27317
G1 X131.286 Y107.340 E0.01439
G1 X125.401 Y101.456 E0.26294
G1 X126.077 Y101.594 E0.02178
G1 X131.732 Y107.249 E0.25270
G1 X132.178 Y107.158 E0.01439
G1 X126.752 Y101.732 E0.24247
G1 X127.427 Y101.869 E0.02178
G1 X132.624 Y107.067 E0.23224
G1 X133.070 Y106.975 E0.01439
G1 X128.102 Y102.007 E0.22200
G1 X128.777 Y102.145 E0.02178
G1 X133.517 Y106.884 E0.21177
G1 X133.963 Y106.793 E0.01439
G1 X129.453 Y102.283 E0.20154
G1 X130.128 Y102.421 E0.02178
G1 X134.409 Y106.702 E0.19130
G1 X134.644 Y106.628 E0.00780
G1 X134.799 Y106.555 E0.00541
G1 X130.803 Y102.559 E0.17857
G1 X131.478 Y102.696 E0.02178
G1 X135.123 Y106.341 E0.16284
G1 X135.386 Y106.066 E0.01201
G1 X132.154 Y102.834 E0.14442
G1 X132.829 Y102.972 E0.02178
G1 X135.587 Y105.730 E0.12326
G1 X135.718 Y105.324 E0.01350
G1 X133.504 Y103.110 E0.09892
G1 X134.179 Y103.248 E0.02178
G1 X135.917 Y104.985 E0.07764
G1 X135.782 Y104.313 F7200.000
G1 F1680
G1 X134.677 Y103.208 E0.04936
M106 S255
M104 S205 ; set temperature
G1 F5760
G1 X135.782 Y104.313 E-0.54111
G1 E-0.25889 F2100.00000
G1 Z0.350 F7200.000
G1 X134.712 Y103.201 F7200.000
G1 E0.80000 F2100.00000
M204 S800
G1 F1302.792
G1 X135.037 Y103.367 E0.00949
G1 X135.324 Y103.590 E0.00949
G1 X135.565 Y103.863 E0.00949
G1 X135.751 Y104.176 E0.00949
G1 X135.874 Y104.519 E0.00949
G1 X135.933 Y104.895 E0.00992
G1 X135.933 Y105.122 E0.00590
G1 X135.905 Y105.346 E0.00590
G1 X135.794 Y105.728 E0.01036
G1 X135.698 Y105.933 E0.00591
G1 X135.567 Y106.139 E0.00634
G1 X135.412 Y106.326 E0.00634
G1 X135.247 Y106.481 E0.00590
G1 X134.918 Y106.705 E0.01036
G1 X134.713 Y106.801 E0.00590
G1 X134.475 Y106.879 E0.00652
G1 X119.935 Y109.850 E0.38668
G1 X119.635 Y109.897 E0.00790
G1 X119.000 Y109.937 E0.01659
G1 X118.381 Y109.898 E0.01616
G1 X117.772 Y109.782 E0.01616
G1 X117.167 Y109.585 E0.01659
G1 X116.912 Y109.475 E0.00721
G1 X116.354 Y109.169 E0.01659
G1 X115.839 Y108.794 E0.01659
G1 X115.632 Y108.611 E0.00721
G1 X115.195 Y108.146 E0.01662
G1 X114.848 Y107.671 E0.01535
G1 X114.678 Y107.389 E0.00856
G1 X114.421 Y106.845 E0.01568
G1 X114.302 Y106.522 E0.00897
G1 X114.221 Y106.244 E0.00754
G1 X114.099 Y105.602 E0.01703
G1 X114.072 Y105.325 E0.00725
G1 X114.071 Y104.720 E0.01578
G1 X114.101 Y104.377 E0.00897
G1 X114.213 Y103.788 E0.01562
G1 X114.415 Y103.167 E0.01703
G1 X114.525 Y102.912 E0.00721
G1 X114.831 Y102.354 E0.01659
G1 X115.206 Y101.839 E0.01659
G1 X115.389 Y101.632 E0.00721
G1 X115.853 Y101.196 E0.01659
G1 X116.368 Y100.821 E0.01659
G1 X116.606 Y100.681 E0.00721
G1 X117.198 Y100.402 E0.01703
G1 X117.474 Y100.303 E0.00765
G1 X117.756 Y100.221 E0.00765
G1 X118.398 Y100.099 E0.01703
G1 X119.030 Y100.063 E0.01650
G1 X119.634 Y100.102 E0.01578
G1 X119.935 Y100.150 E0.00794
G1 X134.308 Y103.084 E0.38221
G1 X134.655 Y103.184 E0.00941
M204 S1000
