; generated by Slic3r 1.37.1-prusa3d-win64 on 2017-11-04 at 15:17:03

; 

; external perimeters extrusion width = 0.45mm
; perimeters extrusion width = 0.45mm
; infill extrusion width = 0.45mm
; solid infill extrusion width = 0.45mm
; top infill extrusion width = 0.45mm
; first layer extrusion width = 0.42mm

M107
M115 U3.0.12 ; tell printer latest fw version
; Start G-Code sequence START
T?
M104 S215
M140 S55
M109 S215
M190 S55
G21 ; set units to millimeters
G90 ; use absolute coordinates
M83 ; use relative distances for extrusion
G28 W
G80
G92 E0.0
M203 E100
M92 E140
G1 Z0.250 F7200.000
G1 X50.0 E80.0  F1000.0
G1 X160.0 E20.0  F1000.0
G1 Z0.200 F7200.000
G1 X220.0 E13 F1000.0
G1 X240.0 E0 F1000.0
G1 E-4 F1000.0
G92 E0.0
; Filament gcode

G21 ; set units to millimeters
G90 ; use absolute coordinates
M83 ; use relative distances for extrusion
;BEFORE_LAYER_CHANGE
;0.2


G1 Z0.200 F7200.000
;AFTER_LAYER_CHANGE
;0.2
G1 E-4.00000 F4800.00000
G1 Z0.700 F7200.000
G1 X87.044 Y67.900 F7200.000
G1 Z0.200 F7200.000
G1 E4.00000 F4800.00000
M204 S1000
G1 F2100
G1 X87.430 Y67.431 E0.01902
G1 X87.895 Y67.048 E0.01889
G1 X88.428 Y66.759 E0.01902
G1 X123.802 Y52.107 E1.20050
G1 X124.391 Y51.929 E0.01930
G1 X125.003 Y51.869 E0.01930
G1 X125.603 Y51.927 E0.01889
G1 X126.180 Y52.100 E0.01889
G1 X161.554 Y66.752 E1.20050
G1 X162.093 Y67.040 E0.01916
G1 X162.569 Y67.430 E0.01930
G1 X162.959 Y67.905 E0.01930
G1 X163.248 Y68.446 E0.01923
G1 X177.900 Y103.818 E1.20042
G1 X178.073 Y104.399 E0.01902
G1 X178.131 Y104.999 E0.01889
G1 X178.071 Y105.611 E0.01930
G1 X177.893 Y106.198 E0.01923
G1 X163.241 Y141.570 E1.20042
G1 X162.956 Y142.100 E0.01889
G1 X162.570 Y142.569 E0.01902
G1 X162.095 Y142.959 E0.01930
G1 X161.554 Y143.248 E0.01923
G1 X126.182 Y157.900 E1.20042
G1 X125.605 Y158.072 E0.01889
G1 X125.001 Y158.131 E0.01902
G1 X124.389 Y158.071 E0.01930
G1 X123.802 Y157.893 E0.01923
G1 X88.430 Y143.241 E1.20042
G1 X87.900 Y142.956 E0.01889
G1 X87.431 Y142.570 E0.01902
G1 X87.012 Y142.051 E0.02093
G1 X86.705 Y141.441 E0.02141
G1 X72.100 Y106.182 E1.19660
G1 X71.928 Y105.605 E0.01889
G1 X71.869 Y105.001 E0.01902
G1 X71.929 Y104.389 E0.01930
G1 X72.107 Y103.802 E0.01923
G1 X86.759 Y68.430 E1.20042
G1 X87.016 Y67.953 E0.01701
G1 X87.347 Y68.130 F7200.000
G1 F2100
G1 X87.698 Y67.697 E0.01748
G1 X88.109 Y67.359 E0.01669
G1 X88.577 Y67.106 E0.01669
G1 X123.946 Y52.455 E1.20034
G1 X124.463 Y52.299 E0.01694
G1 X125.005 Y52.246 E0.01707
G1 X125.535 Y52.298 E0.01669
G1 X126.040 Y52.450 E0.01656
G1 X161.409 Y67.100 E1.20034
G1 X161.886 Y67.355 E0.01694
G1 X162.303 Y67.698 E0.01694
G1 X162.641 Y68.109 E0.01669
G1 X162.894 Y68.577 E0.01669
G1 X177.545 Y103.946 E1.20034
G1 X177.701 Y104.463 E0.01694
G1 X177.754 Y105.001 E0.01694
G1 X177.703 Y105.531 E0.01669
G1 X177.550 Y106.040 E0.01669
G1 X162.900 Y141.409 E1.20034
G1 X162.645 Y141.886 E0.01694
G1 X162.302 Y142.303 E0.01694
G1 X161.891 Y142.641 E0.01669
G1 X161.423 Y142.894 E0.01669
G1 X126.054 Y157.545 E1.20034
G1 X125.537 Y157.701 E0.01694
G1 X124.999 Y157.754 E0.01694
G1 X124.469 Y157.703 E0.01669
G1 X123.960 Y157.550 E0.01669
G1 X88.591 Y142.900 E1.20034
G1 X88.114 Y142.645 E0.01694
G1 X87.697 Y142.302 E0.01694
G1 X87.359 Y141.891 E0.01669
G1 X87.106 Y141.423 E0.01669
G1 X72.455 Y106.054 E1.20034
G1 X72.299 Y105.537 E0.01694
G1 X72.246 Y104.999 E0.01694
G1 X72.297 Y104.469 E0.01669
G1 X72.450 Y103.960 E0.01669
G1 X87.100 Y68.591 E1.20034
G1 X87.318 Y68.183 E0.01451
G1 X87.964 Y67.964 F7200.000
G1 F2100
G1 X88.724 Y67.453 E0.02872
G1 X124.090 Y52.804 E1.20025
G1 X125.004 Y52.623 E0.02919
G1 X125.899 Y52.799 E0.02860
G1 X161.265 Y67.449 E1.20025
G1 X162.036 Y67.964 E0.02907
G1 X162.551 Y68.735 E0.02909
G1 X177.200 Y104.101 E1.20023
G1 X177.377 Y105.000 E0.02872
G1 X177.196 Y105.910 E0.02909
G1 X162.547 Y141.276 E1.20023
G1 X162.036 Y142.036 E0.02872
G1 X161.265 Y142.551 E0.02909
G1 X125.899 Y157.200 E1.20023
G1 X125.000 Y157.377 E0.02872
G1 X124.090 Y157.196 E0.02909
G1 X88.724 Y142.547 E1.20023
G1 X87.964 Y142.036 E0.02872
G1 X87.638 Y141.630 E0.01633
G1 X87.402 Y141.152 E0.01672
G1 X72.800 Y105.899 E1.19640
G1 X72.623 Y105.000 E0.02872
G1 X72.804 Y104.090 E0.02909
G1 X87.453 Y68.724 E1.20023
G1 X87.930 Y68.014 E0.02684
G1 F5760
G1 X88.724 Y67.453 E-0.76936
G1 F5760
G1 X92.261 Y65.988 E-3.03064
G1 E-0.20000 F4800.00000
G1 Z0.700 F7200.000
G1 X162.431 Y96.551 F7200.000
G1 Z0.200 F7200.000
G1 E4.00000 F4800.00000
G1 F840
G1 X164.954 Y93.078 E0.13459
G1 X169.223 Y93.527 E0.13459
G1 X170.969 Y97.449 E0.13459
G1 X168.446 Y100.921 E0.13459
G1 X164.177 Y100.473 E0.13459
G1 X162.455 Y96.606 E0.13271
G1 X162.107 Y96.316 F7200.000
G1 F5760
G1 X164.954 Y93.078 E-3.42233
G1 F5760
G1 X165.429 Y93.128 E-0.37767
G1 E-0.20000 F4800.00000
G1 Z0.700 F7200.000
G1 X165.908 Y92.420 F7200.000
G1 Z0.200 F7200.000
G1 E4.00000 F4800.00000
G1 F840
G1 X166.176 Y90.581 E0.05829
G1 X167.677 Y89.840 E0.05249
G1 X168.875 Y92.732 E0.09816
G1 X165.968 Y92.427 E0.09165
G1 X165.479 Y92.754 F7200.000
G1 F840
G1 X165.831 Y90.330 E0.07680
G1 X167.871 Y89.323 E0.07133
G1 X169.466 Y93.174 E0.13066
G1 X165.538 Y92.761 E0.12382
G1 X165.135 Y92.495 F7200.000
G1 F840
G1 X163.432 Y90.747 E0.07651
G1 X161.027 Y91.160 E0.07651
G1 X162.163 Y89.000 E0.07651
G1 X161.027 Y86.840 E0.07651
G1 X163.432 Y87.253 E0.07651
G1 X165.135 Y85.505 E0.07651
G1 X165.486 Y87.920 E0.07651
G1 X167.674 Y89.000 E0.07651
G1 X165.486 Y90.080 E0.07651
G1 X165.144 Y92.435 E0.07463
G1 X164.865 Y92.790 F7200.000
G1 F5760
G1 X163.432 Y90.747 E-1.90320
G1 F5760
G1 X161.071 Y91.152 E-1.89680
G1 E-0.20000 F4800.00000
G1 Z0.700 F7200.000
G1 X160.150 Y86.543 F7200.000
G1 Z0.200 F7200.000
G1 E4.00000 F4800.00000
G1 F840
G1 X159.686 Y85.502 E0.03572
G1 X161.897 Y83.367 E0.09637
G1 X162.396 Y82.908 E0.02124
G1 X162.078 Y82.954 E0.01008
G1 X158.696 Y83.277 E0.10652
G1 X158.231 Y82.234 E0.03579
G1 X163.604 Y81.782 E0.16905
G1 X164.012 Y82.699 E0.03146
G1 X160.192 Y86.501 E0.16898
G1 X159.818 Y86.767 F7200.000
G1 F5760
G1 X159.686 Y85.502 E-0.88617
G1 F5760
G1 X161.897 Y83.367 E-2.43315
G1 F5760
G1 X162.344 Y82.956 E-0.48068
G1 E-0.20000 F4800.00000
G1 Z0.700 F7200.000
G1 X162.432 Y79.151 F7200.000
G1 Z0.200 F7200.000
G1 E4.00000 F4800.00000
G1 F840
G1 X162.868 Y80.129 E0.03357
G1 X157.982 Y82.304 E0.16768
G1 X157.547 Y81.326 E0.03357
G1 X162.378 Y79.175 E0.16580
G1 X162.786 Y78.964 F7200.000
G1 X161.837 Y77.965 F7200.000
G1 F840
G1 X160.024 Y78.775 E0.06226
G1 X159.751 Y78.964 E0.01041
G1 X159.587 Y79.176 E0.00841
G1 X159.536 Y79.309 E0.00446
G1 X159.519 Y79.527 E0.00686
G1 X159.540 Y79.633 E0.00338
G1 X159.775 Y80.112 E0.01675
G1 X158.828 Y80.534 E0.03250
G1 X158.603 Y79.949 E0.01965
G1 X158.574 Y79.714 E0.00743
G1 X158.583 Y79.524 E0.00597
G1 X158.642 Y79.276 E0.00800
G1 X158.395 Y79.376 E0.00835
G1 X157.993 Y78.474 E0.03097
G1 X159.160 Y77.993 E0.03957
G1 X161.461 Y76.969 E0.07897
G1 X161.892 Y77.940 E0.03333
G1 X162.126 Y78.241 F7200.000
G1 X160.115 Y77.155 F7200.000
G1 F840
G1 X159.008 Y77.648 E0.03802
G1 X158.832 Y77.255 E0.01350
G1 X160.003 Y76.744 E0.04004
G1 X160.100 Y77.097 E0.01149
G1 X158.569 Y74.980 F7200.000
G1 F840
G1 X158.495 Y75.013 E0.00252
G1 X158.003 Y74.522 E0.02179
G1 X157.887 Y74.298 E0.00789
G1 X157.860 Y74.189 E0.00355
G1 X157.879 Y74.098 E0.00290
G1 X157.962 Y74.009 E0.00383
G1 X158.139 Y73.925 E0.00613
G1 X158.269 Y73.919 E0.00408
G1 X158.339 Y73.957 E0.00249
G1 X158.431 Y74.096 E0.00522
G1 X158.491 Y74.271 E0.00580
G1 X158.562 Y74.920 E0.02048
G1 X158.337 Y75.384 F7200.000
G1 F840
G1 X157.767 Y74.833 E0.02488
G1 X157.684 Y74.725 E0.00425
G1 X157.538 Y74.444 E0.00994
G1 X157.483 Y74.224 E0.00710
G1 X157.491 Y74.062 E0.00507
G1 X157.541 Y73.924 E0.00462
G1 X157.621 Y73.809 E0.00438
G1 X157.741 Y73.701 E0.00506
G1 X157.907 Y73.607 E0.00600
G1 X158.053 Y73.556 E0.00483
G1 X158.225 Y73.534 E0.00546
G1 X158.364 Y73.551 E0.00437
G1 X158.560 Y73.647 E0.00686
G1 X158.629 Y73.713 E0.00300
G1 X158.765 Y73.917 E0.00766
G1 X158.862 Y74.198 E0.00933
G1 X158.970 Y75.183 E0.03108
G1 X159.090 Y75.161 E0.00382
G1 X158.097 Y75.602 E0.03408
G1 X158.292 Y75.424 E0.00829
G1 X160.177 Y74.578 F7200.000
G1 F840
G1 X159.301 Y74.739 E0.02792
G1 X159.234 Y74.125 E0.01938
G1 X159.099 Y73.737 E0.01286
G1 X158.920 Y73.469 E0.01010
G1 X158.797 Y73.352 E0.00532
G1 X158.673 Y73.268 E0.00470
G1 X158.458 Y73.183 E0.00725
G1 X158.224 Y73.154 E0.00738
G1 X157.966 Y73.187 E0.00816
G1 X157.751 Y73.262 E0.00714
G1 X157.519 Y73.394 E0.00835
G1 X157.336 Y73.558 E0.00772
G1 X157.203 Y73.750 E0.00731
G1 X157.123 Y73.971 E0.00739
G1 X157.107 Y74.260 E0.00905
G1 X157.135 Y74.422 E0.00515
G1 X157.189 Y74.590 E0.00553
G1 X157.365 Y74.929 E0.01198
G1 X157.485 Y75.084 E0.00617
G1 X157.782 Y75.372 E0.01295
G1 X157.380 Y75.726 E0.01678
G1 X157.680 Y75.592 E0.01027
G1 X157.905 Y76.099 E0.01739
G1 X159.524 Y75.381 E0.05551
G1 X159.852 Y75.280 E0.01076
G1 X160.103 Y75.250 E0.00795
G1 X160.299 Y75.267 E0.00617
G1 X160.538 Y75.348 E0.00791
G1 X160.722 Y75.467 E0.00688
G1 X160.881 Y75.626 E0.00704
G1 X161.012 Y75.820 E0.00735
G1 X161.119 Y76.047 E0.00785
G1 X161.206 Y76.298 E0.00833
G1 X161.286 Y76.740 E0.01409
G1 X160.475 Y77.040 E0.02711
G1 X160.352 Y76.591 E0.01462
G1 X160.302 Y76.471 E0.00408
G1 X160.214 Y76.358 E0.00447
G1 X160.069 Y76.333 E0.00462
G1 X159.814 Y76.405 E0.00830
G1 X158.335 Y77.063 E0.05079
G1 X158.713 Y77.914 E0.02920
G1 X157.904 Y78.274 E0.02777
G1 X157.526 Y77.424 E0.02920
G1 X156.590 Y77.840 E0.03211
G1 X156.403 Y76.768 E0.03413
G1 X157.096 Y76.459 E0.02381
G1 X156.871 Y75.953 E0.01738
G1 X157.007 Y75.892 E0.00466
G1 X156.757 Y75.629 E0.01136
G1 X156.572 Y75.370 E0.00998
G1 X156.386 Y75.023 E0.01234
G1 X156.268 Y74.709 E0.01052
G1 X156.194 Y74.400 E0.00997
G1 X156.163 Y74.097 E0.00956
G1 X156.175 Y73.800 E0.00932
G1 X156.255 Y73.430 E0.01187
G1 X156.390 Y73.117 E0.01068
G1 X156.564 Y72.853 E0.00992
G1 X156.758 Y72.643 E0.00897
G1 X156.986 Y72.461 E0.00912
G1 X157.243 Y72.309 E0.00938
G1 X157.523 Y72.192 E0.00950
G1 X157.805 Y72.114 E0.00917
G1 X158.170 Y72.077 E0.01151
G1 X158.533 Y72.112 E0.01145
G1 X158.950 Y72.256 E0.01381
G1 X159.257 Y72.451 E0.01143
G1 X159.528 Y72.709 E0.01171
G1 X159.758 Y73.029 E0.01234
G1 X159.969 Y73.471 E0.01538
G1 X160.114 Y73.967 E0.01619
G1 X160.171 Y74.519 E0.01738
G1 X160.250 Y74.972 F7200.000
G1 F5760
G1 X159.301 Y74.739 E-0.71038
G1 F5760
G1 X159.234 Y74.125 E-0.48935
G1 F5760
G1 X159.099 Y73.737 E-0.32478
G1 F5760
G1 X158.920 Y73.469 E-0.25506
G1 F5760
G1 X158.797 Y73.352 E-0.13423
G1 F5760
G1 X158.673 Y73.268 E-0.11878
G1 F5760
G1 X158.458 Y73.183 E-0.18316
G1 F5760
G1 X158.224 Y73.154 E-0.18634
G1 F5760
G1 X157.966 Y73.187 E-0.20611
G1 F5760
G1 X157.751 Y73.262 E-0.18035
G1 F5760
G1 X157.519 Y73.394 E-0.21090
G1 F5760
G1 X157.336 Y73.558 E-0.19502
G1 F5760
G1 X157.203 Y73.750 E-0.18447
G1 F5760
G1 X157.123 Y73.971 E-0.18670
G1 F5760
G1 X157.107 Y74.260 E-0.22857
G1 F5760
G1 X157.108 Y74.267 E-0.00580
G1 E-0.20000 F4800.00000
G1 Z0.700 F7200.000
G1 X136.518 Y66.527 F7200.000
G1 Z0.200 F7200.000
G1 E4.00000 F4800.00000
G1 F840
G1 X136.453 Y66.564 E0.00235
G1 X136.286 Y66.550 E0.00524
G1 X135.590 Y66.287 E0.02334
G1 X136.021 Y66.267 E0.01351
G1 X136.217 Y66.293 E0.00620
G1 X136.385 Y66.349 E0.00558
G1 X136.476 Y66.403 E0.00332
G1 X136.528 Y66.468 E0.00261
G1 X135.217 Y64.744 F7200.000
G1 F840
G1 X135.134 Y66.308 E0.04911
G1 X135.313 Y66.300 E0.00561
G1 X134.977 Y67.112 E0.02755
G1 X134.941 Y67.141 E0.00146
G1 X135.080 Y64.289 E0.08953
G1 X136.020 Y64.688 E0.03201
G1 X135.276 Y64.739 E0.02335
G1 X135.576 Y65.096 F7200.000
G1 F840
G1 X136.006 Y65.066 E0.01354
G1 X136.339 Y65.096 E0.01046
G1 X136.704 Y65.190 E0.01182
G1 X137.042 Y65.341 E0.01161
G1 X137.300 Y65.511 E0.00970
G1 X137.510 Y65.709 E0.00905
G1 X137.696 Y65.981 E0.01032
G1 X137.790 Y66.224 E0.00818
G1 X137.831 Y66.526 E0.00955
G1 X137.807 Y66.776 E0.00787
G1 X137.713 Y67.059 E0.00936
G1 X137.576 Y67.284 E0.00825
G1 X137.401 Y67.461 E0.00783
G1 X137.194 Y67.592 E0.00767
G1 X136.861 Y67.689 E0.01085
G1 X136.956 Y67.881 E0.00670
G1 X137.009 Y68.202 E0.01019
G1 X136.956 Y68.521 E0.01016
G1 X136.808 Y68.815 E0.01032
G1 X136.560 Y69.057 E0.01086
G1 X136.273 Y69.192 E0.00994
G1 X135.938 Y69.235 E0.01060
G1 X135.565 Y69.177 E0.01182
G1 X135.158 Y69.005 E0.01387
G1 X134.805 Y68.753 E0.01361
G1 X134.621 Y68.566 E0.00821
G1 X134.502 Y68.403 E0.00633
G1 X134.481 Y68.822 E0.01314
G1 X133.589 Y68.453 E0.03026
G1 X133.746 Y65.980 E0.07768
G1 X133.783 Y65.619 E0.01138
G1 X131.972 Y67.783 E0.08848
G1 X131.079 Y67.413 E0.03029
G1 X133.926 Y64.092 E0.13715
G1 X134.696 Y64.411 E0.02613
G1 X134.513 Y68.169 E0.11798
G1 X134.948 Y67.693 E0.02023
G1 X135.200 Y68.020 E0.01295
G1 X135.344 Y68.162 E0.00636
G1 X135.482 Y68.261 E0.00533
G1 X135.733 Y68.361 E0.00846
G1 X135.843 Y68.371 E0.00344
G1 X135.986 Y68.330 E0.00469
G1 X136.050 Y68.274 E0.00265
G1 X136.107 Y68.178 E0.00350
G1 X136.131 Y68.072 E0.00342
G1 X136.121 Y67.982 E0.00282
G1 X136.049 Y67.840 E0.00501
G1 X135.921 Y67.710 E0.00572
G1 X135.753 Y67.605 E0.00619
G1 X135.265 Y67.400 E0.01660
G1 X135.563 Y66.680 E0.02443
G1 X136.188 Y66.916 E0.02092
G1 X136.351 Y66.943 E0.00520
G1 X136.504 Y66.940 E0.00479
G1 X136.638 Y66.906 E0.00432
G1 X136.719 Y66.861 E0.00292
G1 X136.815 Y66.766 E0.00423
G1 X136.871 Y66.668 E0.00356
G1 X136.911 Y66.507 E0.00518
G1 X136.897 Y66.360 E0.00464
G1 X136.838 Y66.235 E0.00432
G1 X136.713 Y66.105 E0.00567
G1 X136.543 Y66.004 E0.00617
G1 X136.302 Y65.923 E0.00799
G1 X136.037 Y65.889 E0.00839
G1 X135.533 Y65.912 E0.01581
G1 X135.572 Y65.156 E0.02374
G1 X135.487 Y64.706 F7200.000
G1 F5760
G1 X136.006 Y65.066 E-0.35086
G1 F5760
G1 X136.339 Y65.096 E-0.26415
G1 F5760
G1 X136.704 Y65.190 E-0.29846
G1 F5760
G1 X137.042 Y65.341 E-0.29308
G1 F5760
G1 X137.300 Y65.511 E-0.24493
G1 F5760
G1 X137.510 Y65.709 E-0.22852
G1 F5760
G1 X137.696 Y65.981 E-0.26056
G1 F5760
G1 X137.790 Y66.224 E-0.20645
G1 F5760
G1 X137.831 Y66.526 E-0.24119
G1 F5760
G1 X137.807 Y66.776 E-0.19867
G1 F5760
G1 X137.713 Y67.059 E-0.23636
G1 F5760
G1 X137.576 Y67.284 E-0.20818
G1 F5760
G1 X137.401 Y67.461 E-0.19779
G1 F5760
G1 X137.194 Y67.592 E-0.19368
G1 F5760
G1 X136.861 Y67.689 E-0.27407
G1 F5760
G1 X136.919 Y67.806 E-0.10304
G1 E-0.20000 F4800.00000
G1 Z0.700 F7200.000
G1 X125.000 Y65.365 F7200.000
G1 Z0.200 F7200.000
G1 E4.00000 F4800.00000
G1 F1680
G1 X153.027 Y76.973 E0.95115
G1 X164.635 Y105.000 E0.95115
G1 X153.027 Y133.027 E0.95115
G1 X130.970 Y142.163 E0.74856
G1 X130.355 Y142.642 E0.02444
G1 X129.449 Y143.281 E0.03476
G1 X128.512 Y143.874 E0.03476
G1 X127.548 Y144.420 E0.03476
G1 X126.606 Y144.894 E0.03305
G1 X125.544 Y145.368 E0.03645
G1 X124.509 Y145.767 E0.03478
G1 X123.457 Y146.115 E0.03476
G1 X122.388 Y146.410 E0.03476
G1 X121.307 Y146.653 E0.03476
G1 X120.214 Y146.843 E0.03476
G1 X119.114 Y146.979 E0.03476
G1 X118.008 Y147.060 E0.03476
G1 X116.900 Y147.087 E0.03476
G1 X115.792 Y147.060 E0.03476
G1 X114.686 Y146.979 E0.03476
G1 X113.586 Y146.843 E0.03476
G1 X112.493 Y146.653 E0.03476
G1 X111.412 Y146.410 E0.03476
G1 X110.343 Y146.115 E0.03476
G1 X109.342 Y145.784 E0.03305
G1 X108.257 Y145.368 E0.03645
G1 X107.243 Y144.919 E0.03478
G1 X106.252 Y144.420 E0.03476
G1 X105.288 Y143.874 E0.03476
G1 X104.351 Y143.281 E0.03476
G1 X103.445 Y142.642 E0.03476
G1 X102.571 Y141.960 E0.03476
G1 X101.731 Y141.236 E0.03476
G1 X100.928 Y140.472 E0.03476
G1 X100.164 Y139.669 E0.03476
G1 X99.440 Y138.829 E0.03476
G1 X98.758 Y137.955 E0.03476
G1 X98.119 Y137.049 E0.03476
G1 X97.526 Y136.112 E0.03476
G1 X96.980 Y135.148 E0.03476
G1 X96.481 Y134.157 E0.03476
G1 X96.032 Y133.143 E0.03478
G1 X95.616 Y132.058 E0.03645
G1 X95.285 Y131.057 E0.03305
G1 X94.990 Y129.988 E0.03476
G1 X94.747 Y128.907 E0.03476
G1 X94.557 Y127.814 E0.03476
G1 X94.448 Y126.930 E0.02795
G1 X85.365 Y105.000 E0.74424
G1 X96.973 Y76.973 E0.95115
G1 X124.945 Y65.388 E0.94927
G1 X125.000 Y65.773 F7200.000
G1 F1050
G1 X152.738 Y77.262 E0.94136
G1 X164.227 Y105.000 E0.94136
G1 X152.738 Y132.738 E0.94136
G1 X130.778 Y141.834 E0.74527
G1 X130.131 Y142.339 E0.02575
G1 X129.239 Y142.967 E0.03418
