; generated by Slic3r 1.37.1-prusa3d-win64 on 2017-11-04 at 15:18:30

; 

; external perimeters extrusion width = 0.45mm
; perimeters extrusion width = 0.45mm
; infill extrusion width = 0.45mm
; solid infill extrusion width = 0.45mm
; top infill extrusion width = 0.40mm
; first layer extrusion width = 0.42mm

M107
M115 U3.0.12 ; tell printer latest fw version
; Start G-Code sequence START
T?
M104 S215
M140 S55
M109 S215
M190 S55
G21 ; set units to millimeters
G90 ; use absolute coordinates
M83 ; use relative distances for extrusion
G28 W
G80
G92 E0.0
M203 E100
M92 E140
G1 Z0.250 F7200.000
G1 X50.0 E80.0  F1000.0
G1 X160.0 E20.0  F1000.0
G1 Z0.200 F7200.000
G1 X220.0 E13 F1000.0
G1 X240.0 E0 F1000.0
G1 E-4 F1000.0
G92 E0.0
; Filament gcode

G21 ; set units to millimeters
G90 ; use absolute coordinates
M83 ; use relative distances for extrusion
;BEFORE_LAYER_CHANGE
;0.2


G1 Z0.200 F7200.000
;AFTER_LAYER_CHANGE
;0.2
G1 E-4.00000 F4800.00000
G1 Z0.700 F7200.000
G1 X108.909 Y90.076 F7200.000
G1 Z0.200 F7200.000
G1 E4.00000 F4800.00000
M204 S1000
G1 F2100
G1 X109.949 Y89.010 E0.04669
G1 X111.111 Y88.226 E0.04397
G1 X112.421 Y87.679 E0.04451
G1 X113.792 Y87.404 E0.04383
G1 X135.504 Y87.369 E0.68079
G1 X136.861 Y87.500 E0.04272
G1 X138.090 Y87.858 E0.04014
G1 X138.968 Y88.270 E0.03042
G1 X140.037 Y88.998 E0.04056
G1 X140.998 Y89.959 E0.04261
G1 X141.725 Y91.023 E0.04042
G1 X142.139 Y91.901 E0.03042
G1 X142.509 Y93.190 E0.04206
G1 X142.631 Y94.486 E0.04080
G1 X142.607 Y116.059 E0.67641
G1 X142.472 Y116.993 E0.02959
G1 X142.111 Y118.172 E0.03865
G1 X141.734 Y118.960 E0.02739
G1 X141.091 Y119.924 E0.03634
G1 X140.028 Y121.009 E0.04762
G1 X138.773 Y121.835 E0.04711
G1 X137.424 Y122.365 E0.04545
G1 X136.347 Y122.579 E0.03441
G1 X135.619 Y122.629 E0.02289
G1 X113.919 Y122.606 E0.68039
G1 X112.998 Y122.470 E0.02918
G1 X111.820 Y122.108 E0.03865
G1 X111.036 Y121.732 E0.02726
G1 X110.076 Y121.091 E0.03620
G1 X108.991 Y120.028 E0.04762
G1 X108.165 Y118.773 E0.04711
G1 X107.636 Y117.427 E0.04532
G1 X107.421 Y116.347 E0.03453
G1 X107.371 Y115.619 E0.02290
G1 X107.394 Y93.919 E0.68037
G1 X107.530 Y92.998 E0.02919
G1 X107.892 Y91.820 E0.03864
G1 X108.266 Y91.040 E0.02714
G1 X108.875 Y90.126 E0.03444
G1 X109.189 Y90.336 F7200.000
G1 F2100
G1 X110.196 Y89.295 E0.04543
G1 X111.298 Y88.553 E0.04164
G1 X112.536 Y88.038 E0.04203
G1 X113.842 Y87.778 E0.04177
G1 X135.504 Y87.746 E0.67920
G1 X136.794 Y87.871 E0.04062
G1 X137.962 Y88.213 E0.03818
G1 X138.780 Y88.598 E0.02835
G1 X139.801 Y89.292 E0.03870
G1 X140.711 Y90.203 E0.04036
G1 X141.403 Y91.220 E0.03857
G1 X141.787 Y92.038 E0.02835
G1 X142.141 Y93.272 E0.04024
G1 X142.254 Y94.488 E0.03829
G1 X142.231 Y116.032 E0.67550
G1 X142.104 Y116.910 E0.02783
G1 X141.758 Y118.039 E0.03704
G1 X141.405 Y118.777 E0.02564
G1 X140.782 Y119.708 E0.03513
G1 X139.785 Y120.721 E0.04456
G1 X138.600 Y121.500 E0.04446
G1 X137.330 Y122.000 E0.04279
G1 X136.292 Y122.206 E0.03317
G1 X135.599 Y122.252 E0.02180
G1 X113.948 Y122.230 E0.67884
G1 X113.082 Y122.102 E0.02744
G1 X111.957 Y121.757 E0.03691
G1 X111.223 Y121.405 E0.02551
G1 X110.292 Y120.782 E0.03513
G1 X109.279 Y119.785 E0.04456
G1 X108.500 Y118.600 E0.04446
G1 X108.001 Y117.330 E0.04277
G1 X107.794 Y116.292 E0.03319
G1 X107.748 Y115.598 E0.02181
G1 X107.770 Y93.948 E0.67882
G1 X107.898 Y93.082 E0.02745
G1 X108.245 Y91.953 E0.03703
G1 X108.596 Y91.223 E0.02540
G1 X109.156 Y90.386 E0.03159
G1 X110.441 Y89.582 F7200.000
G1 F2100
G1 X111.485 Y88.881 E0.03944
G1 X112.650 Y88.397 E0.03955
G1 X113.891 Y88.152 E0.03967
G1 X135.504 Y88.123 E0.67764
G1 X136.727 Y88.242 E0.03853
G1 X137.835 Y88.568 E0.03622
G1 X138.590 Y88.923 E0.02617
G1 X139.558 Y89.581 E0.03670
G1 X140.421 Y90.444 E0.03825
G1 X141.078 Y91.412 E0.03670
G1 X141.566 Y92.538 E0.03846
G1 X141.771 Y93.348 E0.02620
G1 X141.877 Y94.490 E0.03596
G1 X141.855 Y116.009 E0.67472
G1 X141.736 Y116.827 E0.02593
G1 X141.405 Y117.907 E0.03540
G1 X141.077 Y118.590 E0.02377
G1 X140.474 Y119.490 E0.03398
G1 X139.542 Y120.433 E0.04155
G1 X138.427 Y121.165 E0.04182
G1 X137.836 Y121.432 E0.02034
G1 X136.858 Y121.729 E0.03205
G1 X135.579 Y121.876 E0.04036
G1 X113.976 Y121.854 E0.67735
G1 X113.169 Y121.736 E0.02557
G1 X112.090 Y121.404 E0.03540
G1 X111.410 Y121.077 E0.02366
G1 X110.510 Y120.474 E0.03398
G1 X109.567 Y119.542 E0.04155
G1 X108.835 Y118.427 E0.04182
G1 X108.568 Y117.836 E0.02034
G1 X108.271 Y116.858 E0.03204
G1 X108.124 Y115.579 E0.04038
G1 X108.146 Y93.976 E0.67733
G1 X108.264 Y93.169 E0.02558
G1 X108.596 Y92.090 E0.03539
G1 X108.923 Y91.410 E0.02368
G1 X109.526 Y90.510 E0.03396
G1 X110.399 Y89.624 E0.03898
G1 X112.335 Y91.862 F7200.000
G1 F1680
G1 X112.604 Y91.663 E0.01050
G1 X112.891 Y91.491 E0.01050
G1 X113.194 Y91.348 E0.01050
G1 X113.509 Y91.235 E0.01050
G1 X113.834 Y91.153 E0.01050
G1 X114.166 Y91.104 E0.01050
G1 X114.514 Y91.087 E0.01095
G1 X135.486 Y91.087 E0.65754
G1 X135.834 Y91.104 E0.01095
G1 X136.166 Y91.153 E0.01050
G1 X136.490 Y91.235 E0.01050
G1 X136.806 Y91.348 E0.01050
G1 X137.109 Y91.491 E0.01050
G1 X137.396 Y91.663 E0.01050
G1 X137.665 Y91.862 E0.01050
G1 X137.913 Y92.087 E0.01050
G1 X138.138 Y92.335 E0.01050
G1 X138.337 Y92.604 E0.01050
G1 X138.509 Y92.891 E0.01050
G1 X138.652 Y93.194 E0.01050
G1 X138.765 Y93.509 E0.01050
G1 X138.847 Y93.834 E0.01050
G1 X138.896 Y94.166 E0.01050
G1 X138.913 Y94.514 E0.01095
G1 X138.913 Y115.486 E0.65753
G1 X138.896 Y115.834 E0.01095
G1 X138.847 Y116.166 E0.01050
G1 X138.765 Y116.490 E0.01050
G1 X138.652 Y116.806 E0.01050
G1 X138.509 Y117.109 E0.01050
G1 X138.337 Y117.396 E0.01050
G1 X138.138 Y117.665 E0.01050
G1 X137.913 Y117.913 E0.01050
G1 X137.665 Y118.138 E0.01050
G1 X137.396 Y118.337 E0.01050
G1 X137.109 Y118.509 E0.01050
G1 X136.806 Y118.652 E0.01050
G1 X136.490 Y118.765 E0.01050
G1 X136.166 Y118.847 E0.01050
G1 X135.834 Y118.896 E0.01050
G1 X135.486 Y118.913 E0.01095
G1 X114.514 Y118.913 E0.65753
G1 X114.166 Y118.896 E0.01095
G1 X113.834 Y118.847 E0.01050
G1 X113.509 Y118.765 E0.01050
G1 X113.194 Y118.652 E0.01050
G1 X112.891 Y118.509 E0.01050
G1 X112.604 Y118.337 E0.01050
G1 X112.335 Y118.138 E0.01050
G1 X112.087 Y117.913 E0.01050
G1 X111.862 Y117.665 E0.01050
G1 X111.663 Y117.396 E0.01050
G1 X111.491 Y117.109 E0.01050
G1 X111.348 Y116.806 E0.01050
G1 X111.235 Y116.490 E0.01050
G1 X111.153 Y116.166 E0.01050
G1 X111.104 Y115.834 E0.01050
G1 X111.087 Y115.486 E0.01095
G1 X111.087 Y94.514 E0.65754
G1 X111.104 Y94.166 E0.01095
G1 X111.153 Y93.834 E0.01050
G1 X111.235 Y93.509 E0.01050
G1 X111.348 Y93.194 E0.01050
G1 X111.491 Y92.891 E0.01050
G1 X111.663 Y92.604 E0.01050
G1 X111.862 Y92.335 E0.01050
G1 X112.087 Y92.087 E0.01050
G1 X112.291 Y91.903 E0.00862
G1 X112.038 Y91.623 F7200.000
G1 F1260
G1 X112.395 Y91.349 E0.01411
G1 X112.714 Y91.158 E0.01166
G1 X113.050 Y90.999 E0.01166
G1 X113.400 Y90.873 E0.01166
G1 X113.761 Y90.783 E0.01166
G1 X114.129 Y90.728 E0.01166
G1 X114.505 Y90.710 E0.01182
G1 X135.495 Y90.710 E0.65812
G1 X135.871 Y90.728 E0.01182
G1 X136.239 Y90.783 E0.01166
G1 X136.600 Y90.873 E0.01166
G1 X136.950 Y90.999 E0.01166
G1 X137.286 Y91.158 E0.01166
G1 X137.605 Y91.349 E0.01166
G1 X137.904 Y91.570 E0.01166
G1 X138.180 Y91.820 E0.01166
G1 X138.429 Y92.096 E0.01166
G1 X138.651 Y92.395 E0.01166
G1 X138.842 Y92.714 E0.01166
G1 X139.001 Y93.050 E0.01166
G1 X139.127 Y93.400 E0.01166
G1 X139.217 Y93.761 E0.01166
G1 X139.271 Y94.129 E0.01166
G1 X139.290 Y94.505 E0.01182
G1 X139.290 Y115.495 E0.65812
G1 X139.271 Y115.871 E0.01182
G1 X139.217 Y116.239 E0.01166
G1 X139.127 Y116.600 E0.01166
G1 X139.001 Y116.950 E0.01166
G1 X138.842 Y117.287 E0.01166
G1 X138.651 Y117.605 E0.01166
G1 X138.429 Y117.904 E0.01166
G1 X138.180 Y118.180 E0.01166
G1 X137.904 Y118.429 E0.01166
G1 X137.605 Y118.651 E0.01166
G1 X137.287 Y118.842 E0.01166
G1 X136.950 Y119.001 E0.01166
G1 X136.600 Y119.127 E0.01166
G1 X136.239 Y119.217 E0.01166
G1 X135.871 Y119.271 E0.01166
G1 X135.495 Y119.290 E0.01182
G1 X114.505 Y119.290 E0.65812
G1 X114.129 Y119.271 E0.01182
G1 X113.761 Y119.217 E0.01166
G1 X113.400 Y119.127 E0.01166
G1 X113.050 Y119.001 E0.01166
G1 X112.714 Y118.842 E0.01166
G1 X112.395 Y118.651 E0.01166
G1 X112.096 Y118.429 E0.01166
G1 X111.820 Y118.180 E0.01166
G1 X111.570 Y117.904 E0.01166
G1 X111.349 Y117.605 E0.01166
G1 X111.158 Y117.286 E0.01166
G1 X110.999 Y116.950 E0.01166
G1 X110.873 Y116.600 E0.01166
G1 X110.783 Y116.239 E0.01166
G1 X110.729 Y115.871 E0.01166
G1 X110.710 Y115.495 E0.01182
G1 X110.710 Y94.505 E0.65812
G1 X110.729 Y94.129 E0.01182
G1 X110.783 Y93.761 E0.01166
G1 X110.873 Y93.400 E0.01166
G1 X110.999 Y93.050 E0.01166
G1 X111.158 Y92.714 E0.01166
G1 X111.349 Y92.395 E0.01166
G1 X111.570 Y92.096 E0.01166
G1 X111.820 Y91.820 E0.01166
G1 X111.993 Y91.664 E0.00732
G1 X112.414 Y91.759 F7200.000
G1 F5760
G1 X112.395 Y91.349 E-0.40371
G1 F5760
G1 X112.714 Y91.158 E-0.29443
G1 F5760
G1 X113.050 Y90.999 E-0.29443
G1 F5760
G1 X113.400 Y90.873 E-0.29442
G1 F5760
G1 X113.761 Y90.783 E-0.29443
G1 F5760
G1 X114.129 Y90.728 E-0.29443
G1 F5760
G1 X114.505 Y90.710 E-0.29851
G1 F5760
G1 X116.559 Y90.710 E-1.62564
G1 E-0.20000 F4800.00000
G1 Z0.700 F7200.000
G1 X136.979 Y91.555 F7200.000
G1 Z0.200 F7200.000
G1 E4.00000 F4800.00000
G1 F1680
G1 X138.445 Y93.021 E0.06527
G1 X138.732 Y93.843 F7200.000
G1 F1680
G1 X136.390 Y91.501 E0.10423
G1 X136.110 Y91.431 E0.00908
G1 X135.736 Y91.383 E0.01187
G1 X138.617 Y94.264 E0.12822
G1 X138.630 Y94.811 E0.01725
G1 X135.189 Y91.370 E0.15317
G1 X134.653 Y91.370 E0.01684
G1 X138.630 Y95.347 E0.17699
G1 X138.630 Y95.882 E0.01684
G1 X134.118 Y91.370 E0.20082
G1 X133.583 Y91.370 E0.01684
G1 X138.630 Y96.417 E0.22464
G1 X138.630 Y96.952 E0.01684
G1 X133.048 Y91.370 E0.24846
G1 X132.512 Y91.370 E0.01684
G1 X138.630 Y97.488 E0.27228
G1 X138.630 Y98.023 E0.01684
G1 X131.977 Y91.370 E0.29611
G1 X131.442 Y91.370 E0.01684
G1 X138.630 Y98.558 E0.31993
G1 X138.630 Y99.093 E0.01684
G1 X130.907 Y91.370 E0.34375
G1 X130.371 Y91.370 E0.01684
G1 X138.630 Y99.629 E0.36757
G1 X138.630 Y100.164 E0.01684
G1 X129.836 Y91.370 E0.39139
G1 X129.301 Y91.370 E0.01684
G1 X138.630 Y100.699 E0.41522
G1 X138.630 Y101.234 E0.01684
G1 X128.766 Y91.370 E0.43904
G1 X128.230 Y91.370 E0.01684
G1 X138.630 Y101.770 E0.46286
G1 X138.630 Y102.305 E0.01684
G1 X127.695 Y91.370 E0.48668
G1 X127.160 Y91.370 E0.01684
G1 X138.630 Y102.840 E0.51050
G1 X138.630 Y103.375 E0.01684
G1 X126.625 Y91.370 E0.53433
G1 X126.089 Y91.370 E0.01684
G1 X138.630 Y103.911 E0.55815
G1 X138.630 Y104.446 E0.01684
G1 X125.554 Y91.370 E0.58197
G1 X125.019 Y91.370 E0.01684
G1 X138.630 Y104.981 E0.60579
G1 X138.630 Y105.516 E0.01684
G1 X124.484 Y91.370 E0.62961
G1 X123.948 Y91.370 E0.01684
G1 X138.630 Y106.052 E0.65344
G1 X138.630 Y106.587 E0.01684
G1 X123.413 Y91.370 E0.67726
G1 X122.878 Y91.370 E0.01684
G1 X138.630 Y107.122 E0.70108
G1 X138.630 Y107.657 E0.01684
G1 X122.343 Y91.370 E0.72490
G1 X121.807 Y91.370 E0.01684
G1 X138.630 Y108.193 E0.74873
G1 X138.630 Y108.728 E0.01684
G1 X121.272 Y91.370 E0.77255
G1 X120.737 Y91.370 E0.01684
G1 X138.630 Y109.263 E0.79637
G1 X138.630 Y109.799 E0.01684
G1 X120.201 Y91.370 E0.82019
G1 X119.666 Y91.370 E0.01684
G1 X138.630 Y110.334 E0.84401
G1 X138.630 Y110.869 E0.01684
G1 X119.131 Y91.370 E0.86784
G1 X118.596 Y91.370 E0.01684
G1 X138.630 Y111.404 E0.89166
G1 X138.630 Y111.940 E0.01684
G1 X118.060 Y91.370 E0.91548
G1 X117.525 Y91.370 E0.01684
G1 X138.630 Y112.475 E0.93930
G1 X138.630 Y113.010 E0.01684
G1 X116.990 Y91.370 E0.96312
G1 X116.455 Y91.370 E0.01684
G1 X138.630 Y113.545 E0.98695
G1 X138.630 Y114.081 E0.01684
G1 X115.919 Y91.370 E1.01077
G1 X115.384 Y91.370 E0.01684
G1 X138.630 Y114.616 E1.03459
G1 X138.630 Y115.151 E0.01684
G1 X114.849 Y91.370 E1.05841
G1 X114.323 Y91.380 E0.01654
G1 X138.620 Y115.677 E1.08137
G1 X138.559 Y116.150 E0.01504
G1 X113.850 Y91.441 E1.09972
G1 X113.435 Y91.562 E0.01359
G1 X138.438 Y116.565 E1.11280
G1 X138.277 Y116.939 E0.01281
G1 X113.061 Y91.723 E1.12225
G1 X112.727 Y91.924 E0.01228
G1 X138.076 Y117.273 E1.12820
G1 X137.840 Y117.572 E0.01199
G1 X112.428 Y92.160 E1.13100
G1 X112.287 Y92.287 E0.00596
G1 X112.160 Y92.428 E0.00596
G1 X137.572 Y117.840 E1.13100
G1 X137.273 Y118.076 E0.01199
G1 X111.924 Y92.727 E1.12820
G1 X111.723 Y93.061 E0.01228
G1 X136.939 Y118.277 E1.12225
G1 X136.565 Y118.438 E0.01281
G1 X111.562 Y93.435 E1.11280
G1 X111.441 Y93.850 E0.01359
G1 X136.150 Y118.559 E1.09972
G1 X135.676 Y118.620 E0.01504
G1 X111.380 Y94.323 E1.08137
G1 X111.370 Y94.849 E0.01654
G1 X135.151 Y118.630 E1.05841
G1 X134.616 Y118.630 E0.01684
G1 X111.370 Y95.384 E1.03459
G1 X111.370 Y95.920 E0.01684
G1 X134.080 Y118.630 E1.01077
G1 X133.545 Y118.630 E0.01684
G1 X111.370 Y96.455 E0.98694
G1 X111.370 Y96.990 E0.01684
G1 X133.010 Y118.630 E0.96312
G1 X132.475 Y118.630 E0.01684
G1 X111.370 Y97.525 E0.93930
G1 X111.370 Y98.061 E0.01684
G1 X131.939 Y118.630 E0.91548
G1 X131.404 Y118.630 E0.01684
G1 X111.370 Y98.596 E0.89166
G1 X111.370 Y99.131 E0.01684
G1 X130.869 Y118.630 E0.86783
G1 X130.334 Y118.630 E0.01684
G1 X111.370 Y99.666 E0.84401
G1 X111.370 Y100.202 E0.01684
G1 X129.798 Y118.630 E0.82019
G1 X129.263 Y118.630 E0.01684
G1 X111.370 Y100.737 E0.79637
G1 X111.370 Y101.272 E0.01684
G1 X128.728 Y118.630 E0.77255
G1 X128.193 Y118.630 E0.01684
G1 X111.370 Y101.807 E0.74872
G1 X111.370 Y102.343 E0.01684
G1 X127.657 Y118.630 E0.72490
G1 X127.122 Y118.630 E0.01684
G1 X111.370 Y102.878 E0.70108
G1 X111.370 Y103.413 E0.01684
G1 X126.587 Y118.630 E0.67726
G1 X126.052 Y118.630 E0.01684
G1 X111.370 Y103.948 E0.65343
G1 X111.370 Y104.484 E0.01684
G1 X125.516 Y118.630 E0.62961
G1 X124.981 Y118.630 E0.01684
G1 X111.370 Y105.019 E0.60579
G1 X111.370 Y105.554 E0.01684
G1 X124.446 Y118.630 E0.58197
G1 X123.911 Y118.630 E0.01684
G1 X111.370 Y106.089 E0.55815
G1 X111.370 Y106.625 E0.01684
G1 X123.375 Y118.630 E0.53432
G1 X122.840 Y118.630 E0.01684
G1 X111.370 Y107.160 E0.51050
G1 X111.370 Y107.695 E0.01684
G1 X122.305 Y118.630 E0.48668
G1 X121.770 Y118.630 E0.01684
G1 X111.370 Y108.230 E0.46286
G1 X111.370 Y108.766 E0.01684
G1 X121.234 Y118.630 E0.43904
G1 X120.699 Y118.630 E0.01684
G1 X111.370 Y109.301 E0.41521
G1 X111.370 Y109.836 E0.01684
G1 X120.164 Y118.630 E0.39139
G1 X119.629 Y118.630 E0.01684
G1 X111.370 Y110.371 E0.36757
G1 X111.370 Y110.907 E0.01684
G1 X119.093 Y118.630 E0.34375
G1 X118.558 Y118.630 E0.01684
G1 X111.370 Y111.442 E0.31993
G1 X111.370 Y111.977 E0.01684
G1 X118.023 Y118.630 E0.29610
G1 X117.488 Y118.630 E0.01684
G1 X111.370 Y112.512 E0.27228
G1 X111.370 Y113.048 E0.01684
G1 X116.952 Y118.630 E0.24846
G1 X116.417 Y118.630 E0.01684
G1 X111.370 Y113.583 E0.22464
G1 X111.370 Y114.118 E0.01684
G1 X115.882 Y118.630 E0.20082
G1 X115.347 Y118.630 E0.01684
G1 X111.370 Y114.653 E0.17699
G1 X111.370 Y115.189 E0.01684
G1 X114.811 Y118.630 E0.15317
G1 X114.263 Y118.617 E0.01725
G1 X111.383 Y115.736 E0.12822
G1 X111.431 Y116.110 E0.01187
G1 X111.501 Y116.390 E0.00908
G1 X113.843 Y118.732 E0.10423
G1 X113.021 Y118.445 F7200.000
G1 F1680
G1 X111.555 Y116.979 E0.06526
M106 S234.6
;BEFORE_LAYER_CHANGE
;0.4


G1 Z0.400 F7200.000
;AFTER_LAYER_CHANGE
;0.4
M104 S210 ; set temperature
G1 E-4.00000 F4800.00000
G1 Z0.900 F7200.000
G1 X108.991 Y120.028 F7200.000
G1 Z0.400 F7200.000
G1 E4.00000 F4800.00000
G1 F3000
G1 X108.165 Y118.773 E0.04711
G1 X107.636 Y117.427 E0.04532
G1 X107.421 Y116.347 E0.03453
G1 X107.371 Y115.619 E0.02290
G1 X107.394 Y93.919 E0.68037
G1 X107.530 Y92.998 E0.02919
G1 X107.892 Y91.820 E0.03864
G1 X108.266 Y91.040 E0.02714
G1 X108.909 Y90.076 E0.03632
G1 X109.949 Y89.010 E0.04669
G1 X111.111 Y88.226 E0.04397
G1 X112.421 Y87.679 E0.04451
G1 X113.792 Y87.404 E0.04383
G1 X135.504 Y87.369 E0.68079
G1 X136.861 Y87.500 E0.04272
G1 X138.090 Y87.858 E0.04014
G1 X138.968 Y88.270 E0.03042
G1 X140.037 Y88.998 E0.04056
G1 X140.998 Y89.959 E0.04261
G1 X141.725 Y91.023 E0.04042
G1 X142.139 Y91.901 E0.03042
G1 X142.509 Y93.190 E0.04206
G1 X142.631 Y94.486 E0.04080
G1 X142.607 Y116.059 E0.67641
G1 X142.472 Y116.993 E0.02959
G1 X142.111 Y118.172 E0.03865
G1 X141.734 Y118.960 E0.02739
G1 X141.091 Y119.924 E0.03634
